(Exported by FreeCAD)
(Post Processor: grbl_post)
(Output Time:2022-08-14 16:48:12.833919)
(Begin preamble)
G17 G90
G21
(Begin operation: G54)
(Path: G54)
G54
G0 Z5.000
(Finish operation: G54)
(Begin operation: ballend-025mm002)
(Path: ballend-025mm002)
(ballend-025mm002)
(Begin toolchange)
( M6 T2 )
M3 S10000
(Finish operation: ballend-025mm002)
(Begin operation: Pocket_Shape)
(Path: Pocket_Shape)
(Pocket_Shape)
G0 Z5.000
G0 X54.892 Y-62.539
G0 Z3.000
G1 X54.892 Y-62.539 Z-0.100 F150.000
G3 X54.435 Y-62.602 Z-0.100 I-0.210 J-0.165 K0.000 F100.000
G3 X54.336 Y-63.702 Z-0.100 I2.632 J-0.791 K0.000 F100.000
G2 X53.871 Y-65.276 Z-0.100 I-2.234 J-0.195 K0.000 F100.000
G2 X52.487 Y-66.800 Z-0.100 I-13.101 J10.505 K0.000 F100.000
G3 X51.025 Y-68.946 Z-0.100 I5.932 J-5.611 K0.000 F100.000
G1 X50.583 Y-69.654 Z-0.100 F100.000
G2 X49.839 Y-69.914 Z-0.100 I-0.542 J0.355 K0.000 F100.000
G2 X49.379 Y-69.623 Z-0.100 I0.243 J0.894 K0.000 F100.000
G2 X49.226 Y-68.741 Z-0.100 I0.952 J0.619 K0.000 F100.000
G2 X49.938 Y-67.350 Z-0.100 I1.782 J-0.035 K0.000 F100.000
G3 X51.017 Y-66.530 Z-0.100 I-5.877 J8.857 K0.000 F100.000
G3 X51.465 Y-64.935 Z-0.100 I-1.758 J1.354 K0.000 F100.000
G3 X50.945 Y-64.151 Z-0.100 I-0.816 J0.023 K0.000 F100.000
G2 X50.919 Y-63.953 Z-0.100 I0.061 J0.109 K0.000 F100.000
G3 X51.271 Y-62.976 Z-0.100 I-0.694 J0.802 K0.000 F100.000
G2 X51.300 Y-61.811 Z-0.100 I3.632 J0.493 K0.000 F100.000
G2 X51.798 Y-60.926 Z-0.100 I5.157 J-2.323 K0.000 F100.000
G3 X52.266 Y-59.685 Z-0.100 I-2.413 J1.617 K0.000 F100.000
G3 X51.951 Y-59.116 Z-0.100 I-0.565 J0.059 K0.000 F100.000
G3 X50.508 Y-59.124 Z-0.100 I-0.711 J-1.841 K0.000 F100.000
G3 X50.200 Y-59.754 Z-0.100 I0.454 J-0.611 K0.000 F100.000
G2 X50.045 Y-60.241 Z-0.100 I-0.911 J0.023 K0.000 F100.000
G2 X48.118 Y-61.885 Z-0.100 I-5.352 J4.323 K0.000 F100.000
G2 X47.192 Y-62.186 Z-0.100 I-3.063 J7.840 K0.000 F100.000
G2 X45.720 Y-62.848 Z-0.100 I-7.571 J14.865 K0.000 F100.000
G3 X43.784 Y-63.564 Z-0.100 I1.312 J-6.524 K0.000 F100.000
G2 X43.120 Y-63.751 Z-0.100 I-0.876 J1.836 K0.000 F100.000
G2 X41.953 Y-63.447 Z-0.100 I0.105 J2.794 K0.000 F100.000
G3 X41.099 Y-63.226 Z-0.100 I-0.906 J-1.732 K0.000 F100.000
G3 X40.341 Y-64.081 Z-0.100 I0.051 J-0.808 K0.000 F100.000
G3 X40.395 Y-66.151 Z-0.100 I5.445 J-0.894 K0.000 F100.000
G3 X41.247 Y-66.600 Z-0.100 I0.609 J0.122 K0.000 F100.000
G3 X41.810 Y-66.362 Z-0.100 I-0.826 J2.739 K0.000 F100.000
G2 X41.989 Y-66.484 Z-0.100 I0.055 J-0.112 K0.000 F100.000
G3 X42.499 Y-67.440 Z-0.100 I0.800 J-0.187 K0.000 F100.000
G2 X45.153 Y-70.518 Z-0.100 I-3.001 J-5.270 K0.000 F100.000
G2 X45.283 Y-71.546 Z-0.100 I-1.916 J-0.765 K0.000 F100.000
G2 X44.743 Y-71.947 Z-0.100 I-0.442 J0.031 K0.000 F100.000
G2 X43.703 Y-71.402 Z-0.100 I0.615 J2.440 K0.000 F100.000
G2 X39.221 Y-67.369 Z-0.100 I24.215 J31.422 K0.000 F100.000
G3 X37.345 Y-65.489 Z-0.100 I-37.533 J-35.583 K0.000 F100.000
G3 X36.752 Y-65.281 Z-0.100 I-0.476 J-0.408 K0.000 F100.000
G3 X36.549 Y-65.895 Z-0.100 I0.267 J-0.429 K0.000 F100.000
G3 X36.729 Y-66.993 Z-0.100 I6.883 J0.563 K0.000 F100.000
G3 X38.157 Y-68.953 Z-0.100 I5.525 J2.526 K0.000 F100.000
G3 X40.437 Y-71.219 Z-0.100 I35.010 J32.951 K0.000 F100.000
G2 X44.290 Y-74.455 Z-0.100 I-36.103 J-46.899 K0.000 F100.000
G2 X45.718 Y-75.981 Z-0.100 I-6.172 J-7.204 K0.000 F100.000
G2 X46.601 Y-77.931 Z-0.100 I-4.316 J-3.132 K0.000 F100.000
G2 X47.039 Y-79.219 Z-0.100 I-11.351 J-4.579 K0.000 F100.000
G2 X46.941 Y-80.069 Z-0.100 I-9.476 J0.664 K0.000 F100.000
G3 X47.264 Y-81.691 Z-0.100 I3.695 J-0.107 K0.000 F100.000
G2 X47.131 Y-81.862 Z-0.100 I-0.116 J-0.047 K0.000 F100.000
G2 X45.349 Y-81.243 Z-0.100 I0.803 J5.190 K0.000 F100.000
G3 X43.281 Y-80.623 Z-0.100 I-2.889 J-5.877 K0.000 F100.000
G3 X42.008 Y-81.369 Z-0.100 I-0.012 J-1.439 K0.000 F100.000
G3 X41.763 Y-82.620 Z-0.100 I1.251 J-0.894 K0.000 F100.000
G3 X42.634 Y-83.437 Z-0.100 I1.438 J0.659 K0.000 F100.000
G3 X44.691 Y-83.822 Z-0.100 I1.830 J4.087 K0.000 F100.000
G2 X46.825 Y-84.026 Z-0.100 I0.327 J-7.847 K0.000 F100.000
G2 X48.345 Y-84.814 Z-0.100 I-5.603 J-12.677 K0.000 F100.000
G3 X49.267 Y-85.177 Z-0.100 I1.644 J2.825 K0.000 F100.000
G3 X50.191 Y-85.066 Z-0.100 I0.223 J2.045 K0.000 F100.000
G2 X51.622 Y-84.725 Z-0.100 I2.614 J-7.815 K0.000 F100.000
G3 X52.906 Y-84.250 Z-0.100 I-0.968 J4.592 K0.000 F100.000
G2 X54.949 Y-84.035 Z-0.100 I1.982 J-9.001 K0.000 F100.000
G3 X55.799 Y-83.387 Z-0.100 I0.057 J0.806 K0.000 F100.000
G3 X55.790 Y-81.610 Z-0.100 I-11.234 J0.833 K0.000 F100.000
G3 X54.887 Y-79.889 Z-0.100 I-4.024 J-1.014 K0.000 F100.000
G2 X53.927 Y-78.470 Z-0.100 I7.479 J6.095 K0.000 F100.000
G2 X54.036 Y-77.660 Z-0.100 I0.917 J0.288 K0.000 F100.000
G3 X54.293 Y-76.132 Z-0.100 I-4.610 J1.561 K0.000 F100.000
G3 X54.086 Y-75.419 Z-0.100 I-18.713 J-5.073 K0.000 F100.000
G2 X54.128 Y-74.970 Z-0.100 I0.743 J0.156 K0.000 F100.000
G2 X55.288 Y-73.336 Z-0.100 I7.723 J-4.256 K0.000 F100.000
G3 X56.900 Y-70.960 Z-0.100 I-35.480 J25.805 K0.000 F100.000
G2 X58.097 Y-69.469 Z-0.100 I8.574 J-5.656 K0.000 F100.000
G3 X59.253 Y-68.424 Z-0.100 I-6.280 J8.114 K0.000 F100.000
G3 X59.271 Y-67.645 Z-0.100 I-0.392 J0.399 K0.000 F100.000
G3 X58.013 Y-66.687 Z-0.100 I-2.478 J-1.949 K0.000 F100.000
G3 X57.664 Y-66.982 Z-0.100 I-0.073 J-0.267 K0.000 F100.000
G2 X57.133 Y-68.064 Z-0.100 I-1.955 J0.290 K0.000 F100.000
G3 X56.013 Y-69.829 Z-0.100 I8.733 J-6.777 K0.000 F100.000
G2 X54.406 Y-72.096 Z-0.100 I-20.233 J12.641 K0.000 F100.000
G3 X53.553 Y-73.569 Z-0.100 I5.235 J-4.012 K0.000 F100.000
G2 X53.157 Y-73.571 Z-0.100 I-0.199 J0.179 K0.000 F100.000
G3 X52.444 Y-72.397 Z-0.100 I-6.747 J-3.298 K0.000 F100.000
G2 X52.146 Y-70.871 Z-0.100 I1.945 J1.172 K0.000 F100.000
G2 X52.962 Y-68.671 Z-0.100 I5.029 J-0.614 K0.000 F100.000
G2 X55.057 Y-65.914 Z-0.100 I58.359 J-42.160 K0.000 F100.000
G3 X55.463 Y-63.672 Z-0.100 I-1.696 J1.465 K0.000 F100.000
G3 X54.902 Y-62.553 Z-0.100 I-2.905 J-0.756 K0.000 F100.000
G3 X54.892 Y-62.539 Z-0.100 I-0.220 J-0.151 K0.000 F100.000
G0 Z5.000
G0 X54.798 Y-62.618 Z5.000
G0 X54.798 Y-62.618 Z3.000
G1 X54.798 Y-62.618 Z-0.100 F150.000
G3 X54.550 Y-62.652 Z-0.100 I-0.113 J-0.095 K0.000 F100.000
G3 X54.461 Y-63.700 Z-0.100 I2.547 J-0.744 K0.000 F100.000
G2 X53.969 Y-65.353 Z-0.100 I-2.367 J-0.195 K0.000 F100.000
G2 X52.577 Y-66.886 Z-0.100 I-13.185 J10.570 K0.000 F100.000
G3 X51.131 Y-69.012 Z-0.100 I5.868 J-5.547 K0.000 F100.000
G1 X50.678 Y-69.735 Z-0.100 F100.000
G2 X49.483 Y-69.880 Z-0.100 I-0.666 J0.495 K0.000 F100.000
G2 X49.085 Y-68.869 Z-0.100 I0.575 J0.810 K0.000 F100.000
G2 X49.441 Y-67.665 Z-0.100 I2.500 J-0.085 K0.000 F100.000
G2 X50.663 Y-66.678 Z-0.100 I5.074 J-5.030 K0.000 F100.000
G3 X51.323 Y-65.478 Z-0.100 I-0.886 J1.269 K0.000 F100.000
G3 X51.195 Y-64.489 Z-0.100 I-1.470 J0.312 K0.000 F100.000
G3 X50.884 Y-64.260 Z-0.100 I-0.507 J-0.364 K0.000 F100.000
G2 X50.964 Y-63.733 Z-0.100 I0.198 J0.239 K0.000 F100.000
G3 X51.135 Y-62.808 Z-0.100 I-0.984 J0.660 K0.000 F100.000
G2 X50.450 Y-63.958 Z-0.100 I-1.097 J-0.126 K0.000 F100.000
G3 X47.874 Y-65.860 Z-0.100 I4.565 J-8.879 K0.000 F100.000
G3 X47.631 Y-66.328 Z-0.100 I0.490 J-0.551 K0.000 F100.000
G3 X47.766 Y-66.347 Z-0.100 I0.072 J0.021 K0.000 F100.000
G3 X48.736 Y-65.426 Z-0.100 I-3.712 J4.882 K0.000 F100.000
G2 X50.106 Y-64.434 Z-0.100 I2.525 J-2.045 K0.000 F100.000
G2 X51.017 Y-64.523 Z-0.100 I0.372 J-0.907 K0.000 F100.000
G2 X51.290 Y-65.266 Z-0.100 I-0.636 J-0.655 K0.000 F100.000
G2 X50.532 Y-66.621 Z-0.100 I-1.707 J0.065 K0.000 F100.000
G3 X49.478 Y-67.486 Z-0.100 I7.987 J-10.810 K0.000 F100.000
G3 X49.059 Y-68.448 Z-0.100 I1.712 J-1.318 K0.000 F100.000
G3 X49.001 Y-69.445 Z-0.100 I1.988 J-0.616 K0.000 F100.000
G3 X49.413 Y-70.063 Z-0.100 I1.705 J0.691 K0.000 F100.000
G2 X49.798 Y-70.920 Z-0.100 I-1.553 J-1.212 K0.000 F100.000
G3 X50.306 Y-72.732 Z-0.100 I11.576 J2.273 K0.000 F100.000
G3 X50.752 Y-73.364 Z-0.100 I2.948 J1.610 K0.000 F100.000
G2 X49.992 Y-71.665 Z-0.100 I3.012 J2.369 K0.000 F100.000
G2 X49.762 Y-70.423 Z-0.100 I8.892 J2.286 K0.000 F100.000
G2 X50.244 Y-70.234 Z-0.100 I0.380 J-0.259 K0.000 F100.000
G3 X50.739 Y-69.883 Z-0.100 I-0.262 J0.894 K0.000 F100.000
G3 X51.554 Y-68.431 Z-0.100 I-12.178 J7.789 K0.000 F100.000
G2 X53.087 Y-66.560 Z-0.100 I12.579 J-8.746 K0.000 F100.000
G3 X54.321 Y-64.941 Z-0.100 I-5.167 J5.217 K0.000 F100.000
G3 X54.487 Y-63.997 Z-0.100 I-2.516 J0.929 K0.000 F100.000
G2 X54.692 Y-63.107 Z-0.100 I1.797 J0.056 K0.000 F100.000
G2 X55.129 Y-63.305 Z-0.100 I0.172 J-0.202 K0.000 F100.000
G2 X55.354 Y-64.864 Z-0.100 I-3.048 J-1.236 K0.000 F100.000
G2 X54.472 Y-66.295 Z-0.100 I-3.880 J1.403 K0.000 F100.000
G3 X52.502 Y-68.845 Z-0.100 I16.075 J-14.463 K0.000 F100.000
G3 X51.944 Y-71.577 Z-0.100 I6.320 J-2.713 K0.000 F100.000
G3 X52.541 Y-72.885 Z-0.100 I2.837 J0.504 K0.000 F100.000
G2 X53.102 Y-73.883 Z-0.100 I-3.303 J-2.516 K0.000 F100.000
G2 X52.711 Y-74.917 Z-0.100 I-1.151 J-0.155 K0.000 F100.000
G2 X52.466 Y-74.904 Z-0.100 I-0.111 J0.224 K0.000 F100.000
G2 X51.308 Y-73.999 Z-0.100 I2.461 J4.342 K0.000 F100.000
G2 X51.589 Y-74.404 Z-0.100 I-0.615 J-0.728 K0.000 F100.000
G2 X51.501 Y-74.635 Z-0.100 I-0.247 J-0.038 K0.000 F100.000
G1 X51.002 Y-75.044 Z-0.100 F100.000
G2 X52.133 Y-74.860 Z-0.100 I0.742 J-0.992 K0.000 F100.000
G2 X52.498 Y-75.613 Z-0.100 I-0.243 J-0.582 K0.000 F100.000
G2 X51.865 Y-76.608 Z-0.100 I-2.666 J0.996 K0.000 F100.000
G3 X50.712 Y-78.301 Z-0.100 I8.918 J-7.312 K0.000 F100.000
G2 X51.048 Y-78.335 Z-0.100 I0.105 J-0.642 K0.000 F100.000
G2 X51.195 Y-78.611 Z-0.100 I-0.252 J-0.312 K0.000 F100.000
G3 X52.768 Y-76.515 Z-0.100 I-6.517 J6.530 K0.000 F100.000
G3 X53.142 Y-75.905 Z-0.100 I-288.212 J176.708 K0.000 F100.000
G2 X53.560 Y-75.892 Z-0.100 I0.213 J-0.130 K0.000 F100.000
G2 X53.601 Y-77.573 Z-0.100 I-1.192 J-0.870 K0.000 F100.000
G2 X52.567 Y-79.157 Z-0.100 I-161.905 J104.644 K0.000 F100.000
G3 X52.519 Y-80.417 Z-0.100 I1.526 J-0.689 K0.000 F100.000
G2 X51.991 Y-82.429 Z-0.100 I-1.914 J-0.573 K0.000 F100.000
G2 X52.518 Y-82.159 Z-0.100 I0.738 J-0.790 K0.000 F100.000
G2 X52.761 Y-82.357 Z-0.100 I-0.001 J-0.250 K0.000 F100.000
G2 X52.656 Y-83.907 Z-0.100 I-1.906 J-0.650 K0.000 F100.000
G2 X51.654 Y-84.494 Z-0.100 I-1.185 J0.874 K0.000 F100.000
G3 X49.935 Y-84.875 Z-0.100 I1.389 J-10.335 K0.000 F100.000
G2 X49.072 Y-84.854 Z-0.100 I-0.389 J1.704 K0.000 F100.000
G2 X47.467 Y-84.077 Z-0.100 I4.210 J10.744 K0.000 F100.000
G3 X45.464 Y-83.658 Z-0.100 I-1.644 J-2.865 K0.000 F100.000
G2 X42.799 Y-83.272 Z-0.100 I-0.614 J5.160 K0.000 F100.000
G2 X41.971 Y-82.545 Z-0.100 I0.626 J1.548 K0.000 F100.000
G2 X42.095 Y-81.721 Z-0.100 I0.871 J0.290 K0.000 F100.000
G2 X43.008 Y-80.879 Z-0.100 I1.483 J-0.693 K0.000 F100.000
G2 X43.202 Y-80.866 Z-0.100 I0.121 J-0.355 K0.000 F100.000
G1 X43.202 Y-80.858 Z-0.100 F100.000
G2 X45.807 Y-81.779 Z-0.100 I-0.490 J-5.531 K0.000 F100.000
G3 X47.055 Y-82.048 Z-0.100 I1.401 J3.465 K0.000 F100.000
G2 X48.208 Y-82.600 Z-0.100 I-0.490 J-2.505 K0.000 F100.000
G3 X50.632 Y-83.224 Z-0.100 I2.098 J3.128 K0.000 F100.000
G3 X51.508 Y-82.786 Z-0.100 I-0.623 J2.341 K0.000 F100.000
G2 X48.446 Y-82.671 Z-0.100 I-1.417 J3.090 K0.000 F100.000
G2 X47.678 Y-81.456 Z-0.100 I0.984 J1.471 K0.000 F100.000
G2 X47.546 Y-79.765 Z-0.100 I49.662 J4.722 K0.000 F100.000
G2 X48.036 Y-78.189 Z-0.100 I1.441 J0.417 K0.000 F100.000
G2 X49.321 Y-77.375 Z-0.100 I5.633 J-7.479 K0.000 F100.000
G3 X50.396 Y-75.975 Z-0.100 I-0.884 J1.791 K0.000 F100.000
G2 X50.836 Y-75.180 Z-0.100 I1.932 J-0.550 K0.000 F100.000
G1 X50.624 Y-75.354 Z-0.100 F100.000
G1 X50.021 Y-76.720 Z-0.100 F100.000
G1 X49.929 Y-76.828 Z-0.100 F100.000
G1 X48.310 Y-77.885 Z-0.100 F100.000
G1 X47.487 Y-78.651 Z-0.100 F100.000
G2 X47.090 Y-78.573 Z-0.100 I-0.170 J0.183 K0.000 F100.000
G2 X46.364 Y-76.625 Z-0.100 I28.706 J11.800 K0.000 F100.000
G3 X45.545 Y-75.371 Z-0.100 I-5.937 J-2.986 K0.000 F100.000
G3 X42.276 Y-72.323 Z-0.100 I-16.257 J-14.159 K0.000 F100.000
G2 X38.143 Y-68.570 Z-0.100 I18.589 J24.619 K0.000 F100.000
G2 X36.942 Y-67.024 Z-0.100 I5.212 J5.291 K0.000 F100.000
G2 X36.779 Y-65.773 Z-0.100 I2.352 J0.943 K0.000 F100.000
G2 X37.154 Y-65.690 Z-0.100 I0.222 J-0.115 K0.000 F100.000
G2 X39.191 Y-67.640 Z-0.100 I-10.641 J-13.154 K0.000 F100.000
G3 X43.596 Y-71.647 Z-0.100 I35.884 J35.029 K0.000 F100.000
G3 X44.957 Y-72.245 Z-0.100 I1.556 J1.690 K0.000 F100.000
G3 X45.464 Y-71.689 Z-0.100 I-0.045 J0.550 K0.000 F100.000
G3 X44.820 Y-69.281 Z-0.100 I-3.758 J0.284 K0.000 F100.000
G3 X42.346 Y-67.120 Z-0.100 I-4.572 J-2.737 K0.000 F100.000
G2 X42.221 Y-66.797 Z-0.100 I0.106 J0.226 K0.000 F100.000
G2 X42.683 Y-65.987 Z-0.100 I9.585 J-4.920 K0.000 F100.000
G3 X42.842 Y-65.547 Z-0.100 I-1.114 J0.651 K0.000 F100.000
G3 X41.915 Y-66.054 Z-0.100 I1.283 J-3.447 K0.000 F100.000
G2 X41.048 Y-66.356 Z-0.100 I-0.885 J1.144 K0.000 F100.000
G2 X40.676 Y-65.410 Z-0.100 I0.076 J0.576 K0.000 F100.000
G2 X42.201 Y-64.245 Z-0.100 I3.468 J-2.962 K0.000 F100.000
G2 X43.218 Y-64.025 Z-0.100 I1.447 J-4.226 K0.000 F100.000
G2 X44.971 Y-63.303 Z-0.100 I11.165 J-24.616 K0.000 F100.000
G2 X45.187 Y-63.794 Z-0.100 I0.052 J-0.270 K0.000 F100.000
G3 X44.893 Y-64.270 Z-0.100 I2.191 J-1.680 K0.000 F100.000
G3 X45.586 Y-63.449 Z-0.100 I-3.874 J3.975 K0.000 F100.000
G2 X47.194 Y-62.511 Z-0.100 I2.336 J-2.155 K0.000 F100.000
G3 X49.262 Y-61.287 Z-0.100 I-1.133 J4.276 K0.000 F100.000
G2 X50.431 Y-60.323 Z-0.100 I4.737 J-4.549 K0.000 F100.000
G2 X51.325 Y-60.328 Z-0.100 I0.440 J-1.228 K0.000 F100.000
G2 X51.671 Y-60.653 Z-0.100 I0.051 J-0.292 K0.000 F100.000
G3 X51.148 Y-61.572 Z-0.100 I5.378 J-3.669 K0.000 F100.000
G3 X51.114 Y-62.384 Z-0.100 I1.906 J-0.486 K0.000 F100.000
G2 X51.605 Y-60.999 Z-0.100 I2.195 J0.001 K0.000 F100.000
G3 X52.140 Y-59.684 Z-0.100 I-2.379 J1.735 K0.000 F100.000
G3 X51.899 Y-59.230 Z-0.100 I-0.445 J0.054 K0.000 F100.000
G3 X50.577 Y-59.230 Z-0.100 I-0.662 J-1.744 K0.000 F100.000
G3 X50.325 Y-59.768 Z-0.100 I0.392 J-0.511 K0.000 F100.000
G2 X50.140 Y-60.322 Z-0.100 I-1.024 J0.033 K0.000 F100.000
G2 X48.165 Y-62.001 Z-0.100 I-5.420 J4.376 K0.000 F100.000
G2 X47.236 Y-62.303 Z-0.100 I-3.098 J7.932 K0.000 F100.000
G2 X45.541 Y-63.022 Z-0.100 I-4.298 J7.779 K0.000 F100.000
G3 X43.823 Y-63.683 Z-0.100 I1.394 J-6.185 K0.000 F100.000
G2 X43.117 Y-63.876 Z-0.100 I-0.894 J1.880 K0.000 F100.000
G2 X41.906 Y-63.563 Z-0.100 I0.110 J2.925 K0.000 F100.000
G3 X41.109 Y-63.351 Z-0.100 I-0.866 J-1.647 K0.000 F100.000
G3 X40.465 Y-64.099 Z-0.100 I0.043 J-0.688 K0.000 F100.000
G3 X40.512 Y-66.107 Z-0.100 I5.342 J-0.879 K0.000 F100.000
G3 X41.215 Y-66.479 Z-0.100 I0.495 J0.085 K0.000 F100.000
G3 X41.755 Y-66.250 Z-0.100 I-0.795 J2.625 K0.000 F100.000
G2 X42.114 Y-66.494 Z-0.100 I0.109 J-0.225 K0.000 F100.000
G3 X42.566 Y-67.334 Z-0.100 I0.685 J-0.173 K0.000 F100.000
G2 X45.272 Y-70.480 Z-0.100 I-3.065 J-5.374 K0.000 F100.000
G2 X45.403 Y-71.581 Z-0.100 I-2.018 J-0.799 K0.000 F100.000
G2 X44.709 Y-72.067 Z-0.100 I-0.562 J0.064 K0.000 F100.000
G2 X43.628 Y-71.502 Z-0.100 I0.663 J2.586 K0.000 F100.000
G2 X39.132 Y-67.457 Z-0.100 I24.293 J31.524 K0.000 F100.000
G3 X37.189 Y-65.531 Z-0.100 I-25.000 J-23.276 K0.000 F100.000
G3 X36.794 Y-65.401 Z-0.100 I-0.320 J-0.309 K0.000 F100.000
G3 X36.673 Y-65.880 Z-0.100 I0.237 J-0.315 K0.000 F100.000
G3 X36.845 Y-66.947 Z-0.100 I6.848 J0.556 K0.000 F100.000
G3 X38.247 Y-68.866 Z-0.100 I5.420 J2.486 K0.000 F100.000
G3 X40.519 Y-71.124 Z-0.100 I34.919 J32.863 K0.000 F100.000
G2 X44.376 Y-74.364 Z-0.100 I-36.123 J-46.923 K0.000 F100.000
G2 X45.822 Y-75.912 Z-0.100 I-6.214 J-7.252 K0.000 F100.000
G2 X46.720 Y-77.893 Z-0.100 I-4.424 J-3.201 K0.000 F100.000
G2 X47.164 Y-79.216 Z-0.100 I-10.428 J-4.235 K0.000 F100.000
G2 X47.066 Y-80.078 Z-0.100 I-9.503 J0.648 K0.000 F100.000
G3 X47.380 Y-81.644 Z-0.100 I3.583 J-0.096 K0.000 F100.000
G2 X47.114 Y-81.986 Z-0.100 I-0.232 J-0.094 K0.000 F100.000
G2 X45.295 Y-81.356 Z-0.100 I0.822 J5.315 K0.000 F100.000
G3 X43.017 Y-80.755 Z-0.100 I-2.482 J-4.788 K0.000 F100.000
G3 X41.881 Y-82.577 Z-0.100 I0.458 J-1.551 K0.000 F100.000
G3 X42.690 Y-83.325 Z-0.100 I1.324 J0.619 K0.000 F100.000
G3 X44.693 Y-83.697 Z-0.100 I1.777 J3.983 K0.000 F100.000
G2 X46.874 Y-83.911 Z-0.100 I0.328 J-7.872 K0.000 F100.000
G2 X48.402 Y-84.702 Z-0.100 I-5.634 J-12.755 K0.000 F100.000
G3 X49.290 Y-85.053 Z-0.100 I1.586 J2.718 K0.000 F100.000
G3 X50.154 Y-84.946 Z-0.100 I0.200 J1.934 K0.000 F100.000
G2 X51.596 Y-84.603 Z-0.100 I2.645 J-7.915 K0.000 F100.000
G3 X52.878 Y-84.129 Z-0.100 I-0.997 J4.663 K0.000 F100.000
G2 X54.936 Y-83.911 Z-0.100 I1.999 J-9.041 K0.000 F100.000
G3 X55.676 Y-83.364 Z-0.100 I0.067 J0.683 K0.000 F100.000
G3 X55.667 Y-81.631 Z-0.100 I-11.183 J0.808 K0.000 F100.000
G3 X54.787 Y-79.964 Z-0.100 I-3.915 J-1.000 K0.000 F100.000
G2 X53.761 Y-78.363 Z-0.100 I5.934 J4.930 K0.000 F100.000
G2 X53.920 Y-77.615 Z-0.100 I1.187 J0.139 K0.000 F100.000
G3 X54.168 Y-76.145 Z-0.100 I-4.505 J1.517 K0.000 F100.000
G3 X53.962 Y-75.438 Z-0.100 I-28.172 J-7.848 K0.000 F100.000
G2 X54.018 Y-74.911 Z-0.100 I0.877 J0.173 K0.000 F100.000
G2 X55.190 Y-73.259 Z-0.100 I7.828 J-4.313 K0.000 F100.000
G3 X56.799 Y-70.886 Z-0.100 I-35.647 J25.910 K0.000 F100.000
G2 X58.012 Y-69.377 Z-0.100 I8.667 J-5.724 K0.000 F100.000
G3 X59.152 Y-68.351 Z-0.100 I-6.345 J8.194 K0.000 F100.000
G3 X59.172 Y-67.722 Z-0.100 I-0.299 J0.324 K0.000 F100.000
G3 X57.987 Y-66.810 Z-0.100 I-2.393 J-1.885 K0.000 F100.000
G3 X57.825 Y-66.880 Z-0.100 I-0.050 J-0.108 K0.000 F100.000
G2 X57.053 Y-68.355 Z-0.100 I-2.600 J0.420 K0.000 F100.000
G3 X55.710 Y-70.561 Z-0.100 I37.224 J-24.184 K0.000 F100.000
G3 X54.061 Y-72.831 Z-0.100 I35.135 J-27.256 K0.000 F100.000
G3 X53.668 Y-73.618 Z-0.100 I4.023 J-2.501 K0.000 F100.000
G2 X53.043 Y-73.623 Z-0.100 I-0.314 J0.229 K0.000 F100.000
G3 X52.332 Y-72.454 Z-0.100 I-6.787 J-3.329 K0.000 F100.000
G2 X52.022 Y-70.855 Z-0.100 I2.066 J1.231 K0.000 F100.000
G2 X52.859 Y-68.600 Z-0.100 I5.158 J-0.632 K0.000 F100.000
G2 X54.955 Y-65.841 Z-0.100 I58.238 J-42.063 K0.000 F100.000
G3 X55.342 Y-63.705 Z-0.100 I-1.601 J1.393 K0.000 F100.000
G3 X54.816 Y-62.645 Z-0.100 I-2.810 J-0.732 K0.000 F100.000
G3 X54.798 Y-62.618 Z-0.100 I-0.131 J-0.069 K0.000 F100.000
G0 Z5.000
G0 X54.724 Y-62.732 Z5.000
G0 X54.724 Y-62.732 Z3.000
G1 X54.724 Y-62.732 Z-0.100 F150.000
G3 X54.669 Y-62.703 Z-0.100 I-0.181 J-0.277 K0.000 F100.000
G1 X54.664 Y-62.706 Z-0.100 F100.000
G3 X54.592 Y-63.032 Z-0.100 I0.838 J-0.356 K0.000 F100.000
G2 X54.861 Y-62.918 Z-0.100 I0.253 J-0.222 K0.000 F100.000
G3 X54.724 Y-62.732 Z-0.100 I-0.318 J-0.091 K0.000 F100.000
G0 Z5.000
G0 X54.804 Y-63.178 Z5.000
G0 X54.804 Y-63.178 Z3.000
G1 X54.804 Y-63.178 Z-0.100 F150.000
G3 X54.612 Y-64.005 Z-0.100 I1.361 J-0.753 K0.000 F100.000
G2 X54.435 Y-64.995 Z-0.100 I-2.791 J-0.011 K0.000 F100.000
G2 X53.179 Y-66.645 Z-0.100 I-6.528 J3.664 K0.000 F100.000
G3 X51.657 Y-68.501 Z-0.100 I10.957 J-10.535 K0.000 F100.000
G2 X50.838 Y-69.960 Z-0.100 I-12.762 J6.210 K0.000 F100.000
G2 X49.992 Y-70.375 Z-0.100 I-0.804 J0.568 K0.000 F100.000
G3 X49.878 Y-70.526 Z-0.100 I0.008 J-0.125 K0.000 F100.000
G3 X50.403 Y-72.553 Z-0.100 I13.224 J2.342 K0.000 F100.000
G3 X52.533 Y-74.799 Z-0.100 I4.754 J2.377 K0.000 F100.000
G1 X52.624 Y-74.816 Z-0.100 F100.000
G3 X52.978 Y-73.898 Z-0.100 I-0.692 J0.794 K0.000 F100.000
G3 X52.436 Y-72.953 Z-0.100 I-4.815 J-2.137 K0.000 F100.000
G2 X51.819 Y-71.587 Z-0.100 I2.334 J1.877 K0.000 F100.000
G2 X52.389 Y-68.789 Z-0.100 I7.002 J0.029 K0.000 F100.000
G2 X54.375 Y-66.217 Z-0.100 I18.037 J-11.872 K0.000 F100.000
G3 X55.234 Y-64.831 Z-0.100 I-2.901 J2.756 K0.000 F100.000
G3 X55.009 Y-63.340 Z-0.100 I-3.193 J0.281 K0.000 F100.000
G3 X54.804 Y-63.178 Z-0.100 I-0.167 J-0.001 K0.000 F100.000
G0 Z5.000
G0 X51.022 Y-62.971 Z5.000
G0 X51.022 Y-62.971 Z3.000
G1 X51.022 Y-62.971 Z-0.100 F150.000
G3 X51.010 Y-62.753 Z-0.100 I-1.001 J0.055 K0.000 F100.000
G2 X51.028 Y-61.535 Z-0.100 I3.766 J0.552 K0.000 F100.000
G2 X51.532 Y-60.669 Z-0.100 I4.268 J-1.906 K0.000 F100.000
G1 X51.530 Y-60.534 Z-0.100 F100.000
G3 X51.298 Y-60.450 Z-0.100 I-0.218 J-0.238 K0.000 F100.000
G3 X50.474 Y-60.440 Z-0.100 I-0.425 J-1.096 K0.000 F100.000
G3 X49.345 Y-61.381 Z-0.100 I3.749 J-5.645 K0.000 F100.000
G2 X47.233 Y-62.630 Z-0.100 I-3.279 J3.135 K0.000 F100.000
G3 X45.677 Y-63.535 Z-0.100 I0.687 J-2.969 K0.000 F100.000
G2 X44.929 Y-64.399 Z-0.100 I-4.003 J2.711 K0.000 F100.000
G2 X44.751 Y-64.357 Z-0.100 I-0.077 J0.070 K0.000 F100.000
G2 X45.123 Y-63.664 Z-0.100 I1.982 J-0.619 K0.000 F100.000
G3 X45.011 Y-63.421 Z-0.100 I-0.078 J0.111 K0.000 F100.000
G3 X43.254 Y-64.145 Z-0.100 I9.491 J-25.530 K0.000 F100.000
G3 X42.247 Y-64.361 Z-0.100 I0.408 J-4.352 K0.000 F100.000
G3 X40.778 Y-65.482 Z-0.100 I1.899 J-4.014 K0.000 F100.000
G3 X41.043 Y-66.231 Z-0.100 I0.339 J-0.302 K0.000 F100.000
G3 X41.855 Y-65.944 Z-0.100 I-0.015 J1.334 K0.000 F100.000
G2 X42.741 Y-65.440 Z-0.100 I2.534 J-3.422 K0.000 F100.000
G2 X42.946 Y-65.441 Z-0.100 I0.101 J-0.231 K0.000 F100.000
G2 X42.792 Y-66.048 Z-0.100 I-0.688 J-0.148 K0.000 F100.000
G3 X42.337 Y-66.845 Z-0.100 I9.165 J-5.759 K0.000 F100.000
G3 X42.399 Y-67.007 Z-0.100 I0.115 J-0.048 K0.000 F100.000
G2 X44.927 Y-69.218 Z-0.100 I-2.149 J-5.009 K0.000 F100.000
G2 X45.589 Y-71.703 Z-0.100 I-3.221 J-2.188 K0.000 F100.000
G2 X44.963 Y-72.371 Z-0.100 I-0.677 J0.008 K0.000 F100.000
G2 X43.521 Y-71.747 Z-0.100 I0.183 J2.398 K0.000 F100.000
G2 X39.102 Y-67.728 Z-0.100 I31.553 J39.135 K0.000 F100.000
G3 X37.078 Y-65.789 Z-0.100 I-12.588 J-11.117 K0.000 F100.000
G3 X36.908 Y-65.803 Z-0.100 I-0.077 J-0.099 K0.000 F100.000
G3 X37.057 Y-66.976 Z-0.100 I2.213 J-0.315 K0.000 F100.000
G3 X38.236 Y-68.487 Z-0.100 I6.356 J3.747 K0.000 F100.000
G3 X42.354 Y-72.226 Z-0.100 I22.633 J20.787 K0.000 F100.000
G2 X45.641 Y-75.292 Z-0.100 I-13.061 J-17.299 K0.000 F100.000
G2 X46.478 Y-76.573 Z-0.100 I-5.217 J-4.321 K0.000 F100.000
G3 X47.203 Y-78.520 Z-0.100 I29.583 J9.904 K0.000 F100.000
G3 X47.402 Y-78.559 Z-0.100 I0.113 J0.053 K0.000 F100.000
G1 X48.232 Y-77.786 Z-0.100 F100.000
G1 X49.861 Y-76.724 Z-0.100 F100.000
G1 X49.907 Y-76.670 Z-0.100 F100.000
G1 X50.522 Y-75.276 Z-0.100 F100.000
G1 X51.421 Y-74.539 Z-0.100 F100.000
G3 X51.440 Y-74.364 Z-0.100 I-0.079 J0.097 K0.000 F100.000
G3 X50.967 Y-73.791 Z-0.100 I-5.482 J-4.043 K0.000 F100.000
G2 X50.034 Y-72.402 Z-0.100 I2.864 J2.931 K0.000 F100.000
G2 X49.676 Y-70.949 Z-0.100 I22.444 J6.302 K0.000 F100.000
G3 X49.312 Y-70.137 Z-0.100 I-1.786 J-0.312 K0.000 F100.000
G2 X48.879 Y-69.476 Z-0.100 I1.343 J1.352 K0.000 F100.000
G2 X49.190 Y-67.654 Z-0.100 I3.520 J0.336 K0.000 F100.000
G2 X49.961 Y-66.906 Z-0.100 I2.210 J-1.506 K0.000 F100.000
G3 X51.049 Y-65.818 Z-0.100 I-1.998 J3.085 K0.000 F100.000
G3 X50.932 Y-64.614 Z-0.100 I-1.003 J0.510 K0.000 F100.000
G3 X50.138 Y-64.555 Z-0.100 I-0.455 J-0.744 K0.000 F100.000
G3 X48.825 Y-65.514 Z-0.100 I1.134 J-2.931 K0.000 F100.000
G2 X47.828 Y-66.456 Z-0.100 I-4.705 J3.981 K0.000 F100.000
G2 X47.501 Y-66.321 Z-0.100 I-0.132 J0.145 K0.000 F100.000
G2 X47.778 Y-65.779 Z-0.100 I0.898 J-0.118 K0.000 F100.000
G2 X50.390 Y-63.849 Z-0.100 I7.225 J-7.041 K0.000 F100.000
G3 X51.022 Y-62.971 Z-0.100 I-0.369 J0.932 K0.000 F100.000
G0 Z5.000
G0 X50.643 Y-63.989 Z5.000
G0 X50.643 Y-63.989 Z3.000
G1 X50.643 Y-63.989 Z-0.100 F150.000
G3 X50.070 Y-64.315 Z-0.100 I6.784 J-12.590 K0.000 F100.000
G2 X50.708 Y-64.266 Z-0.100 I0.444 J-1.586 K0.000 F100.000
G2 X50.643 Y-63.989 Z-0.100 I0.234 J0.201 K0.000 F100.000
G0 Z5.000
G0 X48.786 Y-65.198 Z5.000
G0 X48.786 Y-65.198 Z3.000
G1 X48.786 Y-65.198 Z-0.100 F150.000
G3 X47.803 Y-66.170 Z-0.100 I2.100 J-3.106 K0.000 F100.000
G3 X48.786 Y-65.198 Z-0.100 I-7.496 J8.559 K0.000 F100.000
G0 Z5.000
G0 X45.750 Y-63.098 Z5.000
G0 X45.750 Y-63.098 Z3.000
G1 X45.750 Y-63.098 Z-0.100 F150.000
G3 X45.243 Y-63.219 Z-0.100 I40.858 J-172.698 K0.000 F100.000
G2 X45.413 Y-63.466 Z-0.100 I-0.154 J-0.289 K0.000 F100.000
G2 X45.750 Y-63.098 Z-0.100 I2.256 J-1.727 K0.000 F100.000
G0 Z5.000
G0 X42.712 Y-63.971 Z5.000
G0 X42.712 Y-63.971 Z3.000
G1 X42.712 Y-63.971 Z-0.100 F150.000
G2 X42.300 Y-63.855 Z-0.100 I0.347 J2.026 K0.000 F100.000
G2 X42.300 Y-64.074 Z-0.100 I-0.227 J-0.110 K0.000 F100.000
G2 X42.712 Y-63.971 Z-0.100 I0.513 J-1.172 K0.000 F100.000
G0 Z5.000
G0 X42.199 Y-63.963 Z5.000
G0 X42.199 Y-63.963 Z3.000
G1 X42.199 Y-63.963 Z-0.100 F150.000
G3 X41.989 Y-63.712 Z-0.100 I-0.250 J0.004 K0.000 F100.000
G1 X41.019 Y-63.554 Z-0.100 F100.000
G3 X40.739 Y-63.731 Z-0.100 I-0.040 J-0.247 K0.000 F100.000
G1 X40.450 Y-64.728 Z-0.100 F100.000
G3 X40.483 Y-64.936 Z-0.100 I0.240 J-0.070 K0.000 F100.000
G3 X40.829 Y-65.005 Z-0.100 I0.208 J0.139 K0.000 F100.000
G1 X42.088 Y-64.166 Z-0.100 F100.000
G3 X42.199 Y-63.963 Z-0.100 I-0.139 J0.208 K0.000 F100.000
G0 Z5.000
G0 X42.074 Y-63.960 Z5.000
G0 X42.074 Y-63.960 Z3.000
G1 X42.074 Y-63.960 Z-0.100 F150.000
G3 X41.969 Y-63.835 Z-0.100 I-0.125 J0.002 K0.000 F100.000
G1 X40.999 Y-63.677 Z-0.100 F100.000
G3 X40.859 Y-63.766 Z-0.100 I-0.020 J-0.123 K0.000 F100.000
G1 X40.570 Y-64.762 Z-0.100 F100.000
G3 X40.760 Y-64.901 Z-0.100 I0.120 J-0.035 K0.000 F100.000
G1 X42.018 Y-64.062 Z-0.100 F100.000
G3 X42.074 Y-63.960 Z-0.100 I-0.069 J0.104 K0.000 F100.000
G0 Z5.000
G0 X40.705 Y-65.165 Z5.000
G0 X40.705 Y-65.165 Z3.000
G1 X40.705 Y-65.165 Z-0.100 F150.000
G2 X40.516 Y-65.118 Z-0.100 I-0.046 J0.220 K0.000 F100.000
G3 X40.529 Y-65.415 Z-0.100 I2.223 J-0.053 K0.000 F100.000
G2 X40.705 Y-65.165 Z-0.100 I0.901 J-0.448 K0.000 F100.000
G0 Z5.000
G0 X42.019 Y-66.135 Z5.000
G0 X42.019 Y-66.135 Z3.000
G1 X42.019 Y-66.135 Z-0.100 F150.000
G2 X42.235 Y-66.459 Z-0.100 I-0.142 J-0.328 K0.000 F100.000
G3 X42.658 Y-65.750 Z-0.100 I-2.725 J2.106 K0.000 F100.000
G3 X42.019 Y-66.135 Z-0.100 I1.752 J-3.631 K0.000 F100.000
G0 Z5.000
G0 X42.230 Y-66.145 Z5.000
G0 X42.230 Y-66.145 Z3.000
G1 X42.230 Y-66.145 Z-0.100 F150.000
G1 X42.256 Y-66.179 Z-0.100 F100.000
G1 X42.320 Y-66.084 Z-0.100 F100.000
G1 X42.230 Y-66.145 Z-0.100 F100.000
G0 Z5.000
G0 X36.908 Y-65.526 Z5.000
G0 X36.908 Y-65.526 Z3.000
G1 X36.908 Y-65.526 Z-0.100 F150.000
G3 X36.793 Y-65.584 Z-0.100 I-0.039 J-0.065 K0.000 F100.000
G2 X36.908 Y-65.526 Z-0.100 I0.118 J-0.090 K0.000 F100.000
G0 Z5.000
G0 X49.561 Y-70.057 Z5.000
G0 X49.561 Y-70.057 Z3.000
G1 X49.561 Y-70.057 Z-0.100 F150.000
G2 X49.704 Y-70.274 Z-0.100 I-0.529 J-0.504 K0.000 F100.000
G2 X49.828 Y-70.170 Z-0.100 I0.170 J-0.077 K0.000 F100.000
G2 X49.561 Y-70.057 Z-0.100 I0.260 J0.983 K0.000 F100.000
G0 Z5.000
G0 X51.704 Y-74.531 Z5.000
G0 X51.704 Y-74.531 Z3.000
G1 X51.704 Y-74.531 Z-0.100 F150.000
G1 X51.598 Y-74.702 Z-0.100 F100.000
G2 X51.895 Y-74.685 Z-0.100 I0.182 J-0.563 K0.000 F100.000
G2 X51.704 Y-74.531 Z-0.100 I0.875 J1.280 K0.000 F100.000
G0 Z5.000
G0 X51.715 Y-74.923 Z5.000
G0 X51.715 Y-74.923 Z3.000
G1 X51.715 Y-74.923 Z-0.100 F150.000
G3 X51.118 Y-75.112 Z-0.100 I0.031 J-1.130 K0.000 F100.000
G3 X50.459 Y-76.171 Z-0.100 I1.085 J-1.409 K0.000 F100.000
G2 X49.747 Y-77.244 Z-0.100 I-1.832 J0.443 K0.000 F100.000
G2 X48.476 Y-78.004 Z-0.100 I-11.567 J17.891 K0.000 F100.000
G3 X47.633 Y-79.112 Z-0.100 I0.851 J-1.521 K0.000 F100.000
G2 X47.723 Y-80.775 Z-0.100 I-103.195 J-6.420 K0.000 F100.000
G3 X48.016 Y-82.042 Z-0.100 I2.940 J0.013 K0.000 F100.000
G3 X49.133 Y-82.829 Z-0.100 I1.463 J0.890 K0.000 F100.000
G3 X51.197 Y-82.799 Z-0.100 I0.985 J3.195 K0.000 F100.000
G3 X52.396 Y-80.439 Z-0.100 I-0.635 J1.807 K0.000 F100.000
G2 X52.456 Y-79.098 Z-0.100 I1.681 J0.596 K0.000 F100.000
G3 X53.493 Y-77.511 Z-0.100 I-182.391 J120.266 K0.000 F100.000
G3 X53.457 Y-75.964 Z-0.100 I-1.173 J0.747 K0.000 F100.000
G3 X53.248 Y-75.970 Z-0.100 I-0.103 J-0.071 K0.000 F100.000
G2 X52.874 Y-76.582 Z-0.100 I-289.108 J176.417 K0.000 F100.000
G2 X51.125 Y-78.846 Z-0.100 I-7.932 J4.320 K0.000 F100.000
G1 X51.044 Y-78.521 Z-0.100 F100.000
G3 X50.923 Y-78.426 Z-0.100 I-0.121 J-0.030 K0.000 F100.000
G1 X50.524 Y-78.426 Z-0.100 F100.000
G1 X50.671 Y-78.077 Z-0.100 F100.000
G2 X51.767 Y-76.531 Z-0.100 I12.933 J-8.005 K0.000 F100.000
G3 X52.379 Y-75.573 Z-0.100 I-1.935 J1.912 K0.000 F100.000
G3 X52.079 Y-74.972 Z-0.100 I-0.503 J0.123 K0.000 F100.000
G3 X51.715 Y-74.923 Z-0.100 I-0.333 J-1.080 K0.000 F100.000
G0 Z5.000
G0 X52.528 Y-75.041 Z5.000
G0 X52.528 Y-75.041 Z3.000
G1 X52.528 Y-75.041 Z-0.100 F150.000
G2 X52.492 Y-75.990 Z-0.100 I-0.816 J-0.443 K0.000 F100.000
G3 X51.221 Y-77.666 Z-0.100 I477.188 J-362.804 K0.000 F100.000
G1 X50.904 Y-78.176 Z-0.100 F100.000
G2 X51.250 Y-78.387 Z-0.100 I0.022 J-0.353 K0.000 F100.000
G3 X53.035 Y-75.840 Z-0.100 I-11.051 J9.644 K0.000 F100.000
G2 X53.663 Y-75.821 Z-0.100 I0.320 J-0.196 K0.000 F100.000
G2 X53.710 Y-77.635 Z-0.100 I-1.297 J-0.942 K0.000 F100.000
G2 X53.195 Y-78.448 Z-0.100 I-6.112 J3.307 K0.000 F100.000
G2 X53.546 Y-78.345 Z-0.100 I0.401 J-0.718 K0.000 F100.000
G1 X53.638 Y-78.372 Z-0.100 F100.000
G2 X53.804 Y-77.569 Z-0.100 I1.304 J0.150 K0.000 F100.000
G3 X54.043 Y-76.158 Z-0.100 I-4.404 J1.474 K0.000 F100.000
G3 X53.838 Y-75.456 Z-0.100 I-55.423 J-15.837 K0.000 F100.000
G2 X53.834 Y-75.101 Z-0.100 I1.000 J0.190 K0.000 F100.000
G2 X53.099 Y-75.488 Z-0.100 I-1.045 J1.094 K0.000 F100.000
G2 X52.739 Y-75.033 Z-0.100 I0.003 J0.373 K0.000 F100.000
G2 X52.528 Y-75.041 Z-0.100 I-0.112 J0.167 K0.000 F100.000
G0 Z5.000
G0 X52.855 Y-75.082 Z5.000
G0 X52.855 Y-75.082 Z3.000
G1 X52.855 Y-75.082 Z-0.100 F150.000
G3 X53.082 Y-75.362 Z-0.100 I0.248 J-0.031 K0.000 F100.000
G3 X54.138 Y-74.589 Z-0.100 I-0.474 J1.758 K0.000 F100.000
G3 X57.473 Y-69.816 Z-0.100 I-424.103 J299.820 K0.000 F100.000
G2 X58.604 Y-68.751 Z-0.100 I10.482 J-9.999 K0.000 F100.000
G3 X59.030 Y-67.977 Z-0.100 I-0.706 J0.893 K0.000 F100.000
G3 X58.356 Y-67.162 Z-0.100 I-1.127 J-0.245 K0.000 F100.000
G3 X57.925 Y-67.178 Z-0.100 I-0.210 J-0.174 K0.000 F100.000
G1 X54.516 Y-72.458 Z-0.100 F100.000
G3 X52.887 Y-74.987 Z-0.100 I15.497 J-11.772 K0.000 F100.000
G3 X52.855 Y-75.082 Z-0.100 I0.216 J-0.125 K0.000 F100.000
G0 Z5.000
G0 X52.979 Y-75.097 Z5.000
G0 X52.979 Y-75.097 Z3.000
G1 X52.979 Y-75.097 Z-0.100 F150.000
G3 X53.061 Y-75.230 Z-0.100 I0.124 J-0.015 K0.000 F100.000
G3 X53.409 Y-75.108 Z-0.100 I0.026 J0.482 K0.000 F100.000
G3 X54.630 Y-73.676 Z-0.100 I-2.926 J3.731 K0.000 F100.000
G2 X57.524 Y-69.562 Z-0.100 I106.358 J-71.757 K0.000 F100.000
G3 X58.696 Y-68.454 Z-0.100 I-12.206 J14.085 K0.000 F100.000
G3 X58.895 Y-67.895 Z-0.100 I-0.517 J0.499 K0.000 F100.000
G3 X58.372 Y-67.322 Z-0.100 I-0.998 J-0.388 K0.000 F100.000
G3 X58.030 Y-67.245 Z-0.100 I-0.209 J-0.130 K0.000 F100.000
G1 X54.620 Y-72.527 Z-0.100 F100.000
G3 X52.995 Y-75.050 Z-0.100 I15.390 J-11.699 K0.000 F100.000
G3 X52.979 Y-75.097 Z-0.100 I0.108 J-0.063 K0.000 F100.000
G0 Z5.000
G0 X52.762 Y-75.476 Z5.000
G0 X52.762 Y-75.476 Z3.000
G1 X52.762 Y-75.476 Z-0.100 F150.000
G2 X52.063 Y-76.761 Z-0.100 I-2.226 J0.378 K0.000 F100.000
G3 X51.106 Y-78.088 Z-0.100 I11.771 J-9.497 K0.000 F100.000
G2 X51.263 Y-78.189 Z-0.100 I-0.044 J-0.239 K0.000 F100.000
G3 X52.928 Y-75.774 Z-0.100 I-11.592 J9.778 K0.000 F100.000
G2 X53.107 Y-75.609 Z-0.100 I0.289 J-0.133 K0.000 F100.000
G2 X52.766 Y-75.482 Z-0.100 I-0.016 J0.476 K0.000 F100.000
G1 X52.762 Y-75.476 Z-0.100 F100.000
G0 Z5.000
G0 X53.361 Y-75.544 Z5.000
G0 X53.361 Y-75.544 Z3.000
G1 X53.361 Y-75.544 Z-0.100 F150.000
G2 X53.821 Y-75.830 Z-0.100 I0.009 J-0.498 K0.000 F100.000
G2 X53.699 Y-75.363 Z-0.100 I1.540 J0.653 K0.000 F100.000
G2 X53.361 Y-75.544 Z-0.100 I-0.844 J1.172 K0.000 F100.000
G0 Z5.000
G0 X53.248 Y-74.116 Z5.000
G0 X53.248 Y-74.116 Z3.000
G1 X53.248 Y-74.116 Z-0.100 F150.000
G1 X53.377 Y-73.894 Z-0.100 F100.000
G2 X53.229 Y-73.884 Z-0.100 I-0.053 J0.330 K0.000 F100.000
G2 X53.248 Y-74.116 Z-0.100 I-0.748 J-0.179 K0.000 F100.000
G0 Z5.000
G0 X51.721 Y-77.414 Z5.000
G0 X51.721 Y-77.414 Z3.000
G1 X51.721 Y-77.414 Z-0.100 F150.000
G3 X51.432 Y-77.803 Z-0.100 I9.137 J-7.087 K0.000 F100.000
G3 X51.721 Y-77.414 Z-0.100 I-2.784 J2.369 K0.000 F100.000
G0 Z5.000
G0 X51.060 Y-78.990 Z5.000
G0 X51.060 Y-78.990 Z3.000
G1 X51.060 Y-78.990 Z-0.100 F150.000
G2 X50.388 Y-78.889 Z-0.100 I-0.037 J2.036 K0.000 F100.000
G3 X49.659 Y-79.186 Z-0.100 I-0.155 J-0.663 K0.000 F100.000
G3 X49.546 Y-80.696 Z-0.100 I1.068 J-0.839 K0.000 F100.000
G3 X50.600 Y-80.928 Z-0.100 I0.632 J0.357 K0.000 F100.000
G3 X51.352 Y-79.620 Z-0.100 I-0.727 J1.287 K0.000 F100.000
G3 X51.060 Y-78.990 Z-0.100 I-5.177 J-2.012 K0.000 F100.000
G0 Z5.000
G0 X50.962 Y-79.133 Z5.000
G0 X50.962 Y-79.133 Z3.000
G1 X50.962 Y-79.133 Z-0.100 F150.000
G3 X50.084 Y-79.016 Z-0.100 I-0.860 J-3.103 K0.000 F100.000
G3 X49.755 Y-79.268 Z-0.100 I0.164 J-0.556 K0.000 F100.000
G3 X49.647 Y-80.621 Z-0.100 I0.976 J-0.759 K0.000 F100.000
G3 X50.539 Y-80.819 Z-0.100 I0.532 J0.288 K0.000 F100.000
G3 X51.228 Y-79.646 Z-0.100 I-0.670 J1.183 K0.000 F100.000
G3 X50.962 Y-79.133 Z-0.100 I-1.302 J-0.349 K0.000 F100.000
G0 Z5.000
G0 X50.847 Y-79.271 Z5.000
G0 X50.847 Y-79.271 Z3.000
G1 X50.847 Y-79.271 Z-0.100 F150.000
G3 X50.300 Y-79.119 Z-0.100 I-0.442 J-0.530 K0.000 F100.000
G1 X50.298 Y-79.110 Z-0.100 F100.000
G3 X50.086 Y-79.148 Z-0.100 I0.111 J-1.238 K0.000 F100.000
G3 X49.549 Y-79.892 Z-0.100 I0.289 J-0.775 K0.000 F100.000
G3 X49.958 Y-80.768 Z-0.100 I0.769 J-0.174 K0.000 F100.000
G1 X50.048 Y-80.797 Z-0.100 F100.000
G3 X51.087 Y-79.901 Z-0.100 I0.129 J0.900 K0.000 F100.000
G3 X50.847 Y-79.271 Z-0.100 I-0.683 J0.099 K0.000 F100.000
G0 Z5.000
G0 X50.754 Y-79.376 Z5.000
G0 X50.754 Y-79.376 Z3.000
G1 X50.754 Y-79.376 Z-0.100 F150.000
G3 X49.864 Y-79.440 Z-0.100 I-0.413 J-0.468 K0.000 F100.000
G3 X49.957 Y-80.629 Z-0.100 I0.618 J-0.550 K0.000 F100.000
G1 X50.086 Y-80.677 Z-0.100 F100.000
G3 X50.964 Y-79.879 Z-0.100 I0.080 J0.794 K0.000 F100.000
G3 X50.754 Y-79.376 Z-0.100 I-0.624 J0.034 K0.000 F100.000
G0 Z5.000
G0 X52.545 Y-79.496 Z5.000
G0 X52.545 Y-79.496 Z3.000
G1 X52.545 Y-79.496 Z-0.100 F150.000
G3 X52.543 Y-79.543 Z-0.100 I1.099 J-0.073 K0.000 F100.000
G3 X52.674 Y-80.860 Z-0.100 I21.791 J1.502 K0.000 F100.000
G3 X52.788 Y-82.351 Z-0.100 I2.568 J-0.553 K0.000 F100.000
G2 X52.937 Y-83.750 Z-0.100 I-3.314 J-1.061 K0.000 F100.000
G3 X53.234 Y-83.996 Z-0.100 I0.250 J-0.001 K0.000 F100.000
G2 X54.456 Y-83.834 Z-0.100 I1.755 J-8.504 K0.000 F100.000
G3 X55.409 Y-83.593 Z-0.100 I0.200 J1.213 K0.000 F100.000
G3 X55.631 Y-82.609 Z-0.100 I-0.917 J0.724 K0.000 F100.000
G3 X55.298 Y-80.940 Z-0.100 I-4.162 J0.038 K0.000 F100.000
G3 X53.908 Y-78.841 Z-0.100 I-13.995 J-7.756 K0.000 F100.000
G3 X53.556 Y-78.472 Z-0.100 I-0.593 J-0.213 K0.000 F100.000
G3 X52.545 Y-79.496 Z-0.100 I0.087 J-1.098 K0.000 F100.000
G0 Z5.000
G0 X52.669 Y-79.505 Z5.000
G0 X52.669 Y-79.505 Z3.000
G1 X52.669 Y-79.505 Z-0.100 F150.000
G3 X52.667 Y-79.559 Z-0.100 I0.970 J-0.069 K0.000 F100.000
G3 X52.799 Y-80.861 Z-0.100 I25.610 J1.942 K0.000 F100.000
G3 X52.905 Y-82.309 Z-0.100 I2.457 J-0.547 K0.000 F100.000
G2 X53.062 Y-83.751 Z-0.100 I-3.416 J-1.101 K0.000 F100.000
G3 X53.211 Y-83.874 Z-0.100 I0.125 J-0.000 K0.000 F100.000
G2 X54.451 Y-83.709 Z-0.100 I1.781 J-8.633 K0.000 F100.000
G3 X55.125 Y-83.635 Z-0.100 I0.158 J1.682 K0.000 F100.000
G3 X55.513 Y-82.876 Z-0.100 I-0.374 J0.670 K0.000 F100.000
G3 X54.920 Y-80.492 Z-0.100 I-4.351 J0.183 K0.000 F100.000
G3 X53.571 Y-78.604 Z-0.100 I-26.998 J-17.864 K0.000 F100.000
G3 X52.669 Y-79.505 Z-0.100 I0.068 J-0.970 K0.000 F100.000
G0 Z5.000
G0 X52.529 Y-81.891 Z5.000
G0 X52.529 Y-81.891 Z3.000
G1 X52.529 Y-81.891 Z-0.100 F150.000
G2 X52.448 Y-82.048 Z-0.100 I-0.656 J0.239 K0.000 F100.000
G2 X52.562 Y-82.046 Z-0.100 I0.059 J-0.118 K0.000 F100.000
G1 X52.529 Y-81.891 Z-0.100 F100.000
G0 Z5.000
G0 X52.549 Y-82.288 Z5.000
G0 X52.549 Y-82.288 Z3.000
G1 X52.549 Y-82.288 Z-0.100 F150.000
G3 X51.799 Y-82.723 Z-0.100 I0.793 J-2.237 K0.000 F100.000
G2 X50.652 Y-83.348 Z-0.100 I-1.980 J2.267 K0.000 F100.000
G2 X48.138 Y-82.704 Z-0.100 I-0.345 J3.876 K0.000 F100.000
G3 X47.032 Y-82.171 Z-0.100 I-1.574 J-1.854 K0.000 F100.000
G2 X45.754 Y-81.892 Z-0.100 I0.162 J3.811 K0.000 F100.000
G3 X43.194 Y-80.983 Z-0.100 I-3.046 J-4.518 K0.000 F100.000
G1 X43.194 Y-80.990 Z-0.100 F100.000
G3 X43.024 Y-81.003 Z-0.100 I-0.069 J-0.211 K0.000 F100.000
G3 X42.201 Y-81.786 Z-0.100 I0.579 J-1.433 K0.000 F100.000
G3 X42.140 Y-82.598 Z-0.100 I0.625 J-0.455 K0.000 F100.000
G3 X42.864 Y-83.166 Z-0.100 I1.637 J1.343 K0.000 F100.000
G3 X45.462 Y-83.533 Z-0.100 I1.989 J4.694 K0.000 F100.000
G2 X47.524 Y-83.966 Z-0.100 I0.364 J-3.400 K0.000 F100.000
G3 X49.117 Y-84.737 Z-0.100 I5.762 J9.867 K0.000 F100.000
G3 X49.920 Y-84.751 Z-0.100 I0.430 J1.570 K0.000 F100.000
G2 X51.633 Y-84.371 Z-0.100 I3.066 J-9.769 K0.000 F100.000
G3 X52.556 Y-83.833 Z-0.100 I-0.158 J1.331 K0.000 F100.000
G3 X52.638 Y-82.383 Z-0.100 I-1.721 J0.825 K0.000 F100.000
G1 X52.549 Y-82.288 Z-0.100 F100.000
G0 Z5.000
G0 X52.830 Y-83.837 Z5.000
G0 X52.830 Y-83.837 Z3.000
G1 X52.830 Y-83.837 Z-0.100 F150.000
G2 X52.688 Y-84.073 Z-0.100 I-0.766 J0.301 K0.000 F100.000
G2 X52.911 Y-83.993 Z-0.100 I0.357 J-0.639 K0.000 F100.000
G2 X52.830 Y-83.837 Z-0.100 I0.127 J0.165 K0.000 F100.000
G0 Z5.000
G0 X47.814 Y-82.182 Z5.000
G0 X47.814 Y-82.182 Z3.000
G1 X47.814 Y-82.182 Z-0.100 F150.000
G2 X47.554 Y-81.471 Z-0.100 I1.836 J1.074 K0.000 F100.000
G2 X47.422 Y-79.779 Z-0.100 I49.124 J4.682 K0.000 F100.000
G2 X47.459 Y-78.808 Z-0.100 I1.488 J0.431 K0.000 F100.000
G2 X47.194 Y-78.812 Z-0.100 I-0.136 J0.225 K0.000 F100.000
G2 X47.215 Y-79.896 Z-0.100 I-1.640 J-0.574 K0.000 F100.000
G3 X47.496 Y-81.597 Z-0.100 I3.041 J-0.372 K0.000 F100.000
G2 X47.404 Y-82.001 Z-0.100 I-0.299 J-0.144 K0.000 F100.000
G2 X47.814 Y-82.182 Z-0.100 I-0.287 J-1.204 K0.000 F100.000
G0 Z5.000
G0 X47.336 Y-80.511 Z5.000
G0 X47.336 Y-80.511 Z3.000
G1 X47.336 Y-80.511 Z-0.100 F150.000
G3 X47.320 Y-80.066 Z-0.100 I-21.125 J-0.558 K0.000 F100.000
G3 X47.336 Y-80.511 Z-0.100 I1.900 J-0.152 K0.000 F100.000
G0 Z5.000
G0 X59.140 Y-68.117 Z5.000
G0 X59.140 Y-68.117 Z3.000
G1 X59.140 Y-68.117 Z-0.100 F150.000
G3 X59.150 Y-67.919 Z-0.100 I-0.199 J0.108 K0.000 F100.000
G2 X59.140 Y-68.117 Z-0.100 I-0.417 J-0.080 K0.000 F100.000
G0 Z5.000
G0 X58.041 Y-66.959 Z5.000
G0 X58.041 Y-66.959 Z3.000
G1 X58.041 Y-66.959 Z-0.100 F150.000
G3 X57.915 Y-67.017 Z-0.100 I-0.063 J-0.030 K0.000 F100.000
G2 X58.041 Y-66.959 Z-0.100 I0.123 J-0.102 K0.000 F100.000
G0 Z5.000
G0 X51.766 Y-60.458 Z5.000
G0 X51.766 Y-60.458 Z3.000
G1 X51.766 Y-60.458 Z-0.100 F150.000
G3 X52.005 Y-59.549 Z-0.100 I-1.149 J0.787 K0.000 F100.000
G3 X51.846 Y-59.344 Z-0.100 I-0.304 J-0.071 K0.000 F100.000
G3 X50.646 Y-59.335 Z-0.100 I-0.613 J-1.657 K0.000 F100.000
G3 X50.449 Y-59.781 Z-0.100 I0.330 J-0.412 K0.000 F100.000
G2 X50.337 Y-60.232 Z-0.100 I-1.141 J0.044 K0.000 F100.000
G2 X51.500 Y-60.236 Z-0.100 I0.576 J-1.503 K0.000 F100.000
G2 X51.766 Y-60.458 Z-0.100 I-0.006 J-0.278 K0.000 F100.000
G0 Z5.000
G0 X51.747 Y-60.215 Z5.000
G0 X51.747 Y-60.215 Z3.000
G1 X51.747 Y-60.215 Z-0.100 F150.000
G1 X51.862 Y-59.875 Z-0.100 F100.000
G3 X51.858 Y-59.522 Z-0.100 I-0.320 J0.173 K0.000 F100.000
G3 X51.560 Y-59.382 Z-0.100 I-0.291 J-0.235 K0.000 F100.000
G3 X50.715 Y-59.441 Z-0.100 I-0.317 J-1.560 K0.000 F100.000
G3 X50.558 Y-59.919 Z-0.100 I0.389 J-0.392 K0.000 F100.000
G1 X50.536 Y-60.023 Z-0.100 F100.000
G2 X51.747 Y-60.215 Z-0.100 I0.258 J-2.288 K0.000 F100.000
G0 Z5.000
G0 X51.674 Y-60.040 Z5.000
G0 X51.674 Y-60.040 Z3.000
G1 X51.674 Y-60.040 Z-0.100 F150.000
G3 X51.730 Y-59.569 Z-0.100 I-0.360 J0.281 K0.000 F100.000
G3 X50.729 Y-59.593 Z-0.100 I-0.473 J-1.199 K0.000 F100.000
G3 X50.690 Y-59.869 Z-0.100 I1.616 J-0.366 K0.000 F100.000
G2 X51.674 Y-60.040 Z-0.100 I-0.040 J-3.158 K0.000 F100.000
G0 Z5.000
G0 X51.598 Y-59.877 Z5.000
G0 X51.598 Y-59.877 Z3.000
G1 X51.598 Y-59.877 Z-0.100 F150.000
G3 X51.638 Y-59.671 Z-0.100 I-0.497 J0.204 K0.000 F100.000
G3 X50.836 Y-59.675 Z-0.100 I-0.394 J-1.191 K0.000 F100.000
G3 X50.829 Y-59.742 Z-0.100 I1.256 J-0.172 K0.000 F100.000
G2 X51.598 Y-59.877 Z-0.100 I-0.460 J-4.875 K0.000 F100.000
G0 Z5.000
G0 X51.560 Y-59.793 Z5.000
G0 X51.560 Y-59.793 Z3.000
G1 X51.560 Y-59.793 Z-0.100 F150.000
G1 X51.569 Y-59.749 Z-0.100 F100.000
G1 X51.572 Y-59.715 Z-0.100 F100.000
G3 X51.007 Y-59.692 Z-0.100 I-0.332 J-1.216 K0.000 F100.000
G3 X51.560 Y-59.793 Z-0.100 I5.076 J26.255 K0.000 F100.000
G1 X51.560 Y-59.793 Z-0.200 F150.000
G1 X51.569 Y-59.749 Z-0.200 F100.000
G1 X51.572 Y-59.715 Z-0.200 F100.000
G3 X51.007 Y-59.692 Z-0.200 I-0.332 J-1.216 K0.000 F100.000
G3 X51.560 Y-59.793 Z-0.200 I5.076 J26.255 K0.000 F100.000
G0 Z5.000
G0 X51.620 Y-59.809 Z5.000
G0 X51.620 Y-59.809 Z3.000
G1 X51.620 Y-59.809 Z-0.200 F150.000
G3 X51.638 Y-59.671 Z-0.200 I-0.520 J0.136 K0.000 F100.000
G3 X50.836 Y-59.675 Z-0.200 I-0.394 J-1.191 K0.000 F100.000
G3 X50.829 Y-59.742 Z-0.200 I1.256 J-0.172 K0.000 F100.000
G2 X51.598 Y-59.877 Z-0.200 I-0.460 J-4.875 K0.000 F100.000
G3 X51.620 Y-59.809 Z-0.200 I-0.497 J0.204 K0.000 F100.000
G0 Z5.000
G0 X51.765 Y-59.833 Z5.000
G0 X51.765 Y-59.833 Z3.000
G1 X51.765 Y-59.833 Z-0.200 F150.000
G3 X51.730 Y-59.569 Z-0.200 I-0.451 J0.074 K0.000 F100.000
G3 X50.729 Y-59.593 Z-0.200 I-0.473 J-1.199 K0.000 F100.000
G3 X50.690 Y-59.869 Z-0.200 I1.616 J-0.366 K0.000 F100.000
G2 X51.674 Y-60.040 Z-0.200 I-0.040 J-3.158 K0.000 F100.000
G3 X51.765 Y-59.833 Z-0.200 I-0.360 J0.281 K0.000 F100.000
G0 Z5.000
G0 X51.862 Y-59.875 Z5.000
G0 X51.862 Y-59.875 Z3.000
G1 X51.862 Y-59.875 Z-0.200 F150.000
G3 X51.858 Y-59.522 Z-0.200 I-0.320 J0.173 K0.000 F100.000
G3 X51.560 Y-59.382 Z-0.200 I-0.291 J-0.235 K0.000 F100.000
G3 X50.715 Y-59.441 Z-0.200 I-0.317 J-1.560 K0.000 F100.000
G3 X50.558 Y-59.919 Z-0.200 I0.389 J-0.392 K0.000 F100.000
G1 X50.536 Y-60.023 Z-0.200 F100.000
G2 X51.747 Y-60.215 Z-0.200 I0.258 J-2.288 K0.000 F100.000
G1 X51.862 Y-59.875 Z-0.200 F100.000
G0 Z5.000
G0 X51.991 Y-59.897 Z5.000
G0 X51.991 Y-59.897 Z3.000
G1 X51.991 Y-59.897 Z-0.200 F150.000
G3 X52.005 Y-59.549 Z-0.200 I-1.374 J0.226 K0.000 F100.000
G3 X51.846 Y-59.344 Z-0.200 I-0.304 J-0.071 K0.000 F100.000
G3 X50.646 Y-59.335 Z-0.200 I-0.613 J-1.657 K0.000 F100.000
G3 X50.449 Y-59.781 Z-0.200 I0.330 J-0.412 K0.000 F100.000
G2 X50.337 Y-60.232 Z-0.200 I-1.141 J0.044 K0.000 F100.000
G2 X51.500 Y-60.236 Z-0.200 I0.576 J-1.503 K0.000 F100.000
G2 X51.766 Y-60.458 Z-0.200 I-0.006 J-0.278 K0.000 F100.000
G3 X51.991 Y-59.897 Z-0.200 I-1.149 J0.787 K0.000 F100.000
G0 Z5.000
G0 X52.096 Y-59.921 Z5.000
G0 X52.096 Y-59.921 Z3.000
G1 X52.096 Y-59.921 Z-0.200 F150.000
G3 X52.140 Y-59.684 Z-0.200 I-2.870 J0.657 K0.000 F100.000
G3 X51.899 Y-59.230 Z-0.200 I-0.445 J0.054 K0.000 F100.000
G3 X50.577 Y-59.230 Z-0.200 I-0.662 J-1.744 K0.000 F100.000
G3 X50.325 Y-59.768 Z-0.200 I0.392 J-0.511 K0.000 F100.000
G2 X50.140 Y-60.322 Z-0.200 I-1.024 J0.033 K0.000 F100.000
G2 X48.165 Y-62.001 Z-0.200 I-5.420 J4.376 K0.000 F100.000
G2 X47.236 Y-62.303 Z-0.200 I-3.098 J7.932 K0.000 F100.000
G2 X45.541 Y-63.022 Z-0.200 I-4.298 J7.779 K0.000 F100.000
G3 X43.823 Y-63.683 Z-0.200 I1.394 J-6.185 K0.000 F100.000
G2 X43.117 Y-63.876 Z-0.200 I-0.894 J1.880 K0.000 F100.000
G2 X41.906 Y-63.563 Z-0.200 I0.110 J2.925 K0.000 F100.000
G3 X41.109 Y-63.351 Z-0.200 I-0.866 J-1.647 K0.000 F100.000
G3 X40.465 Y-64.099 Z-0.200 I0.043 J-0.688 K0.000 F100.000
G3 X40.512 Y-66.107 Z-0.200 I5.342 J-0.879 K0.000 F100.000
G3 X41.215 Y-66.479 Z-0.200 I0.495 J0.085 K0.000 F100.000
G3 X41.755 Y-66.250 Z-0.200 I-0.795 J2.625 K0.000 F100.000
G2 X42.114 Y-66.494 Z-0.200 I0.109 J-0.225 K0.000 F100.000
G3 X42.566 Y-67.334 Z-0.200 I0.685 J-0.173 K0.000 F100.000
G2 X45.272 Y-70.480 Z-0.200 I-3.065 J-5.374 K0.000 F100.000
G2 X45.403 Y-71.581 Z-0.200 I-2.018 J-0.799 K0.000 F100.000
G2 X44.709 Y-72.067 Z-0.200 I-0.562 J0.064 K0.000 F100.000
G2 X43.628 Y-71.502 Z-0.200 I0.663 J2.586 K0.000 F100.000
G2 X39.132 Y-67.457 Z-0.200 I24.293 J31.524 K0.000 F100.000
G3 X37.189 Y-65.531 Z-0.200 I-25.000 J-23.276 K0.000 F100.000
G3 X36.794 Y-65.401 Z-0.200 I-0.320 J-0.309 K0.000 F100.000
G3 X36.673 Y-65.880 Z-0.200 I0.237 J-0.315 K0.000 F100.000
G3 X36.845 Y-66.947 Z-0.200 I6.848 J0.556 K0.000 F100.000
G3 X38.247 Y-68.866 Z-0.200 I5.420 J2.486 K0.000 F100.000
G3 X40.519 Y-71.124 Z-0.200 I34.919 J32.863 K0.000 F100.000
G2 X44.376 Y-74.364 Z-0.200 I-36.123 J-46.923 K0.000 F100.000
G2 X45.822 Y-75.912 Z-0.200 I-6.214 J-7.252 K0.000 F100.000
G2 X46.720 Y-77.893 Z-0.200 I-4.424 J-3.201 K0.000 F100.000
G2 X47.164 Y-79.216 Z-0.200 I-10.428 J-4.235 K0.000 F100.000
G2 X47.066 Y-80.078 Z-0.200 I-9.503 J0.648 K0.000 F100.000
G3 X47.380 Y-81.644 Z-0.200 I3.583 J-0.096 K0.000 F100.000
G2 X47.114 Y-81.986 Z-0.200 I-0.232 J-0.094 K0.000 F100.000
G2 X45.295 Y-81.356 Z-0.200 I0.822 J5.315 K0.000 F100.000
G3 X43.017 Y-80.755 Z-0.200 I-2.482 J-4.788 K0.000 F100.000
G3 X41.881 Y-82.577 Z-0.200 I0.458 J-1.551 K0.000 F100.000
G3 X42.690 Y-83.325 Z-0.200 I1.324 J0.619 K0.000 F100.000
G3 X44.693 Y-83.697 Z-0.200 I1.777 J3.983 K0.000 F100.000
G2 X46.874 Y-83.911 Z-0.200 I0.328 J-7.872 K0.000 F100.000
G2 X48.402 Y-84.702 Z-0.200 I-5.634 J-12.755 K0.000 F100.000
G3 X49.290 Y-85.053 Z-0.200 I1.586 J2.718 K0.000 F100.000
G3 X50.154 Y-84.946 Z-0.200 I0.200 J1.934 K0.000 F100.000
G2 X51.596 Y-84.603 Z-0.200 I2.645 J-7.915 K0.000 F100.000
G3 X52.878 Y-84.129 Z-0.200 I-0.997 J4.663 K0.000 F100.000
G2 X54.936 Y-83.911 Z-0.200 I1.999 J-9.041 K0.000 F100.000
G3 X55.676 Y-83.364 Z-0.200 I0.067 J0.683 K0.000 F100.000
G3 X55.667 Y-81.631 Z-0.200 I-11.183 J0.808 K0.000 F100.000
G3 X54.787 Y-79.964 Z-0.200 I-3.915 J-1.000 K0.000 F100.000
G2 X53.761 Y-78.363 Z-0.200 I5.934 J4.930 K0.000 F100.000
G2 X53.920 Y-77.615 Z-0.200 I1.187 J0.139 K0.000 F100.000
G3 X54.168 Y-76.145 Z-0.200 I-4.505 J1.517 K0.000 F100.000
G3 X53.962 Y-75.438 Z-0.200 I-28.172 J-7.848 K0.000 F100.000
G2 X54.018 Y-74.911 Z-0.200 I0.877 J0.173 K0.000 F100.000
G2 X55.190 Y-73.259 Z-0.200 I7.828 J-4.313 K0.000 F100.000
G3 X56.799 Y-70.886 Z-0.200 I-35.647 J25.910 K0.000 F100.000
G2 X58.012 Y-69.377 Z-0.200 I8.667 J-5.724 K0.000 F100.000
G3 X59.152 Y-68.351 Z-0.200 I-6.345 J8.194 K0.000 F100.000
G3 X59.172 Y-67.722 Z-0.200 I-0.299 J0.324 K0.000 F100.000
G3 X57.987 Y-66.810 Z-0.200 I-2.393 J-1.885 K0.000 F100.000
G3 X57.825 Y-66.880 Z-0.200 I-0.050 J-0.108 K0.000 F100.000
G2 X57.053 Y-68.355 Z-0.200 I-2.600 J0.420 K0.000 F100.000
G3 X55.710 Y-70.561 Z-0.200 I37.224 J-24.184 K0.000 F100.000
G3 X54.061 Y-72.831 Z-0.200 I35.135 J-27.256 K0.000 F100.000
G3 X53.668 Y-73.618 Z-0.200 I4.023 J-2.501 K0.000 F100.000
G2 X53.043 Y-73.623 Z-0.200 I-0.314 J0.229 K0.000 F100.000
G3 X52.332 Y-72.454 Z-0.200 I-6.787 J-3.329 K0.000 F100.000
G2 X52.022 Y-70.855 Z-0.200 I2.066 J1.231 K0.000 F100.000
G2 X52.859 Y-68.600 Z-0.200 I5.158 J-0.632 K0.000 F100.000
G2 X54.955 Y-65.841 Z-0.200 I58.238 J-42.063 K0.000 F100.000
G3 X55.342 Y-63.705 Z-0.200 I-1.601 J1.393 K0.000 F100.000
G3 X54.816 Y-62.645 Z-0.200 I-2.810 J-0.732 K0.000 F100.000
G3 X54.550 Y-62.652 Z-0.200 I-0.131 J-0.069 K0.000 F100.000
G3 X54.461 Y-63.700 Z-0.200 I2.547 J-0.744 K0.000 F100.000
G2 X53.969 Y-65.353 Z-0.200 I-2.367 J-0.195 K0.000 F100.000
G2 X52.577 Y-66.886 Z-0.200 I-13.185 J10.570 K0.000 F100.000
G3 X51.131 Y-69.012 Z-0.200 I5.868 J-5.547 K0.000 F100.000
G1 X50.678 Y-69.735 Z-0.200 F100.000
G2 X49.483 Y-69.880 Z-0.200 I-0.666 J0.495 K0.000 F100.000
G2 X49.085 Y-68.869 Z-0.200 I0.575 J0.810 K0.000 F100.000
G2 X49.441 Y-67.665 Z-0.200 I2.500 J-0.085 K0.000 F100.000
G2 X50.663 Y-66.678 Z-0.200 I5.074 J-5.030 K0.000 F100.000
G3 X51.323 Y-65.478 Z-0.200 I-0.886 J1.269 K0.000 F100.000
G3 X51.195 Y-64.489 Z-0.200 I-1.470 J0.312 K0.000 F100.000
G3 X50.884 Y-64.260 Z-0.200 I-0.507 J-0.364 K0.000 F100.000
G2 X50.964 Y-63.733 Z-0.200 I0.198 J0.239 K0.000 F100.000
G3 X51.135 Y-62.808 Z-0.200 I-0.984 J0.660 K0.000 F100.000
G2 X50.450 Y-63.958 Z-0.200 I-1.097 J-0.126 K0.000 F100.000
G3 X47.874 Y-65.860 Z-0.200 I4.565 J-8.879 K0.000 F100.000
G3 X47.631 Y-66.328 Z-0.200 I0.490 J-0.551 K0.000 F100.000
G3 X47.766 Y-66.347 Z-0.200 I0.072 J0.021 K0.000 F100.000
G3 X48.736 Y-65.426 Z-0.200 I-3.712 J4.882 K0.000 F100.000
G2 X50.106 Y-64.434 Z-0.200 I2.525 J-2.045 K0.000 F100.000
G2 X51.017 Y-64.523 Z-0.200 I0.372 J-0.907 K0.000 F100.000
G2 X51.290 Y-65.266 Z-0.200 I-0.636 J-0.655 K0.000 F100.000
G2 X50.532 Y-66.621 Z-0.200 I-1.707 J0.065 K0.000 F100.000
G3 X49.478 Y-67.486 Z-0.200 I7.987 J-10.810 K0.000 F100.000
G3 X49.059 Y-68.448 Z-0.200 I1.712 J-1.318 K0.000 F100.000
G3 X49.001 Y-69.445 Z-0.200 I1.988 J-0.616 K0.000 F100.000
G3 X49.413 Y-70.063 Z-0.200 I1.705 J0.691 K0.000 F100.000
G2 X49.798 Y-70.920 Z-0.200 I-1.553 J-1.212 K0.000 F100.000
G3 X50.306 Y-72.732 Z-0.200 I11.576 J2.273 K0.000 F100.000
G3 X50.752 Y-73.364 Z-0.200 I2.948 J1.610 K0.000 F100.000
G2 X49.992 Y-71.665 Z-0.200 I3.012 J2.369 K0.000 F100.000
G2 X49.762 Y-70.423 Z-0.200 I8.892 J2.286 K0.000 F100.000
G2 X50.244 Y-70.234 Z-0.200 I0.380 J-0.259 K0.000 F100.000
G3 X50.739 Y-69.883 Z-0.200 I-0.262 J0.894 K0.000 F100.000
G3 X51.554 Y-68.431 Z-0.200 I-12.178 J7.789 K0.000 F100.000
G2 X53.087 Y-66.560 Z-0.200 I12.579 J-8.746 K0.000 F100.000
G3 X54.321 Y-64.941 Z-0.200 I-5.167 J5.217 K0.000 F100.000
G3 X54.487 Y-63.997 Z-0.200 I-2.516 J0.929 K0.000 F100.000
G2 X54.692 Y-63.107 Z-0.200 I1.797 J0.056 K0.000 F100.000
G2 X55.129 Y-63.305 Z-0.200 I0.172 J-0.202 K0.000 F100.000
G2 X55.354 Y-64.864 Z-0.200 I-3.048 J-1.236 K0.000 F100.000
G2 X54.472 Y-66.295 Z-0.200 I-3.880 J1.403 K0.000 F100.000
G3 X52.502 Y-68.845 Z-0.200 I16.075 J-14.463 K0.000 F100.000
G3 X51.944 Y-71.577 Z-0.200 I6.320 J-2.713 K0.000 F100.000
G3 X52.541 Y-72.885 Z-0.200 I2.837 J0.504 K0.000 F100.000
G2 X53.102 Y-73.883 Z-0.200 I-3.303 J-2.516 K0.000 F100.000
G2 X52.711 Y-74.917 Z-0.200 I-1.151 J-0.155 K0.000 F100.000
G2 X52.466 Y-74.904 Z-0.200 I-0.111 J0.224 K0.000 F100.000
G2 X51.308 Y-73.999 Z-0.200 I2.461 J4.342 K0.000 F100.000
G2 X51.589 Y-74.404 Z-0.200 I-0.615 J-0.728 K0.000 F100.000
G2 X51.501 Y-74.635 Z-0.200 I-0.247 J-0.038 K0.000 F100.000
G1 X51.002 Y-75.044 Z-0.200 F100.000
G2 X52.133 Y-74.860 Z-0.200 I0.742 J-0.992 K0.000 F100.000
G2 X52.498 Y-75.613 Z-0.200 I-0.243 J-0.582 K0.000 F100.000
G2 X51.865 Y-76.608 Z-0.200 I-2.666 J0.996 K0.000 F100.000
G3 X50.712 Y-78.301 Z-0.200 I8.918 J-7.312 K0.000 F100.000
G2 X51.048 Y-78.335 Z-0.200 I0.105 J-0.642 K0.000 F100.000
G2 X51.195 Y-78.611 Z-0.200 I-0.252 J-0.312 K0.000 F100.000
G3 X52.768 Y-76.515 Z-0.200 I-6.517 J6.530 K0.000 F100.000
G3 X53.142 Y-75.905 Z-0.200 I-288.212 J176.708 K0.000 F100.000
G2 X53.560 Y-75.892 Z-0.200 I0.213 J-0.130 K0.000 F100.000
G2 X53.601 Y-77.573 Z-0.200 I-1.192 J-0.870 K0.000 F100.000
G2 X52.567 Y-79.157 Z-0.200 I-161.905 J104.644 K0.000 F100.000
G3 X52.519 Y-80.417 Z-0.200 I1.526 J-0.689 K0.000 F100.000
G2 X51.991 Y-82.429 Z-0.200 I-1.914 J-0.573 K0.000 F100.000
G2 X52.518 Y-82.159 Z-0.200 I0.738 J-0.790 K0.000 F100.000
G2 X52.761 Y-82.357 Z-0.200 I-0.001 J-0.250 K0.000 F100.000
G2 X52.656 Y-83.907 Z-0.200 I-1.906 J-0.650 K0.000 F100.000
G2 X51.654 Y-84.494 Z-0.200 I-1.185 J0.874 K0.000 F100.000
G3 X49.935 Y-84.875 Z-0.200 I1.389 J-10.335 K0.000 F100.000
G2 X49.072 Y-84.854 Z-0.200 I-0.389 J1.704 K0.000 F100.000
G2 X47.467 Y-84.077 Z-0.200 I4.210 J10.744 K0.000 F100.000
G3 X45.464 Y-83.658 Z-0.200 I-1.644 J-2.865 K0.000 F100.000
G2 X42.799 Y-83.272 Z-0.200 I-0.614 J5.160 K0.000 F100.000
G2 X41.971 Y-82.545 Z-0.200 I0.626 J1.548 K0.000 F100.000
G2 X42.095 Y-81.721 Z-0.200 I0.871 J0.290 K0.000 F100.000
G2 X43.008 Y-80.879 Z-0.200 I1.483 J-0.693 K0.000 F100.000
G2 X43.202 Y-80.866 Z-0.200 I0.121 J-0.355 K0.000 F100.000
G1 X43.202 Y-80.858 Z-0.200 F100.000
G2 X45.807 Y-81.779 Z-0.200 I-0.490 J-5.531 K0.000 F100.000
G3 X47.055 Y-82.048 Z-0.200 I1.401 J3.465 K0.000 F100.000
G2 X48.208 Y-82.600 Z-0.200 I-0.490 J-2.505 K0.000 F100.000
G3 X50.632 Y-83.224 Z-0.200 I2.098 J3.128 K0.000 F100.000
G3 X51.508 Y-82.786 Z-0.200 I-0.623 J2.341 K0.000 F100.000
G2 X48.446 Y-82.671 Z-0.200 I-1.417 J3.090 K0.000 F100.000
G2 X47.678 Y-81.456 Z-0.200 I0.984 J1.471 K0.000 F100.000
G2 X47.546 Y-79.765 Z-0.200 I49.662 J4.722 K0.000 F100.000
G2 X48.036 Y-78.189 Z-0.200 I1.441 J0.417 K0.000 F100.000
G2 X49.321 Y-77.375 Z-0.200 I5.633 J-7.479 K0.000 F100.000
G3 X50.396 Y-75.975 Z-0.200 I-0.884 J1.791 K0.000 F100.000
G2 X50.836 Y-75.180 Z-0.200 I1.932 J-0.550 K0.000 F100.000
G1 X50.624 Y-75.354 Z-0.200 F100.000
G1 X50.021 Y-76.720 Z-0.200 F100.000
G1 X49.929 Y-76.828 Z-0.200 F100.000
G1 X48.310 Y-77.885 Z-0.200 F100.000
G1 X47.487 Y-78.651 Z-0.200 F100.000
G2 X47.090 Y-78.573 Z-0.200 I-0.170 J0.183 K0.000 F100.000
G2 X46.364 Y-76.625 Z-0.200 I28.706 J11.800 K0.000 F100.000
G3 X45.545 Y-75.371 Z-0.200 I-5.937 J-2.986 K0.000 F100.000
G3 X42.276 Y-72.323 Z-0.200 I-16.257 J-14.159 K0.000 F100.000
G2 X38.143 Y-68.570 Z-0.200 I18.589 J24.619 K0.000 F100.000
G2 X36.942 Y-67.024 Z-0.200 I5.212 J5.291 K0.000 F100.000
G2 X36.779 Y-65.773 Z-0.200 I2.352 J0.943 K0.000 F100.000
G2 X37.154 Y-65.690 Z-0.200 I0.222 J-0.115 K0.000 F100.000
G2 X39.191 Y-67.640 Z-0.200 I-10.641 J-13.154 K0.000 F100.000
G3 X43.596 Y-71.647 Z-0.200 I35.884 J35.029 K0.000 F100.000
G3 X44.957 Y-72.245 Z-0.200 I1.556 J1.690 K0.000 F100.000
G3 X45.464 Y-71.689 Z-0.200 I-0.045 J0.550 K0.000 F100.000
G3 X44.820 Y-69.281 Z-0.200 I-3.758 J0.284 K0.000 F100.000
G3 X42.346 Y-67.120 Z-0.200 I-4.572 J-2.737 K0.000 F100.000
G2 X42.221 Y-66.797 Z-0.200 I0.106 J0.226 K0.000 F100.000
G2 X42.683 Y-65.987 Z-0.200 I9.585 J-4.920 K0.000 F100.000
G3 X42.842 Y-65.547 Z-0.200 I-1.114 J0.651 K0.000 F100.000
G3 X41.915 Y-66.054 Z-0.200 I1.283 J-3.447 K0.000 F100.000
G2 X41.048 Y-66.356 Z-0.200 I-0.885 J1.144 K0.000 F100.000
G2 X40.676 Y-65.410 Z-0.200 I0.076 J0.576 K0.000 F100.000
G2 X42.201 Y-64.245 Z-0.200 I3.468 J-2.962 K0.000 F100.000
G2 X43.218 Y-64.025 Z-0.200 I1.447 J-4.226 K0.000 F100.000
G2 X44.971 Y-63.303 Z-0.200 I11.165 J-24.616 K0.000 F100.000
G2 X45.187 Y-63.794 Z-0.200 I0.052 J-0.270 K0.000 F100.000
G3 X44.893 Y-64.270 Z-0.200 I2.191 J-1.680 K0.000 F100.000
G3 X45.586 Y-63.449 Z-0.200 I-3.874 J3.975 K0.000 F100.000
G2 X47.194 Y-62.511 Z-0.200 I2.336 J-2.155 K0.000 F100.000
G3 X49.262 Y-61.287 Z-0.200 I-1.133 J4.276 K0.000 F100.000
G2 X50.431 Y-60.323 Z-0.200 I4.737 J-4.549 K0.000 F100.000
G2 X51.325 Y-60.328 Z-0.200 I0.440 J-1.228 K0.000 F100.000
G2 X51.671 Y-60.653 Z-0.200 I0.051 J-0.292 K0.000 F100.000
G3 X51.148 Y-61.572 Z-0.200 I5.378 J-3.669 K0.000 F100.000
G3 X51.114 Y-62.384 Z-0.200 I1.906 J-0.486 K0.000 F100.000
G2 X51.605 Y-60.999 Z-0.200 I2.195 J0.001 K0.000 F100.000
G3 X52.096 Y-59.921 Z-0.200 I-2.379 J1.735 K0.000 F100.000
G0 Z5.000
G0 X52.219 Y-59.948 Z5.000
G0 X52.219 Y-59.948 Z3.000
G1 X52.219 Y-59.948 Z-0.200 F150.000
G3 X52.266 Y-59.685 Z-0.200 I-2.834 J0.640 K0.000 F100.000
G3 X51.951 Y-59.116 Z-0.200 I-0.565 J0.059 K0.000 F100.000
G3 X50.508 Y-59.124 Z-0.200 I-0.711 J-1.841 K0.000 F100.000
G3 X50.200 Y-59.754 Z-0.200 I0.454 J-0.611 K0.000 F100.000
G2 X50.045 Y-60.241 Z-0.200 I-0.911 J0.023 K0.000 F100.000
G2 X48.118 Y-61.885 Z-0.200 I-5.352 J4.323 K0.000 F100.000
G2 X47.192 Y-62.186 Z-0.200 I-3.063 J7.840 K0.000 F100.000
G2 X45.720 Y-62.848 Z-0.200 I-7.571 J14.865 K0.000 F100.000
G3 X43.784 Y-63.564 Z-0.200 I1.312 J-6.524 K0.000 F100.000
G2 X43.120 Y-63.751 Z-0.200 I-0.876 J1.836 K0.000 F100.000
G2 X41.953 Y-63.447 Z-0.200 I0.105 J2.794 K0.000 F100.000
G3 X41.099 Y-63.226 Z-0.200 I-0.906 J-1.732 K0.000 F100.000
G3 X40.341 Y-64.081 Z-0.200 I0.051 J-0.808 K0.000 F100.000
G3 X40.395 Y-66.151 Z-0.200 I5.445 J-0.894 K0.000 F100.000
G3 X41.247 Y-66.600 Z-0.200 I0.609 J0.122 K0.000 F100.000
G3 X41.810 Y-66.362 Z-0.200 I-0.826 J2.739 K0.000 F100.000
G2 X41.989 Y-66.484 Z-0.200 I0.055 J-0.112 K0.000 F100.000
G3 X42.499 Y-67.440 Z-0.200 I0.800 J-0.187 K0.000 F100.000
G2 X45.153 Y-70.518 Z-0.200 I-3.001 J-5.270 K0.000 F100.000
G2 X45.283 Y-71.546 Z-0.200 I-1.916 J-0.765 K0.000 F100.000
G2 X44.743 Y-71.947 Z-0.200 I-0.442 J0.031 K0.000 F100.000
G2 X43.703 Y-71.402 Z-0.200 I0.615 J2.440 K0.000 F100.000
G2 X39.221 Y-67.369 Z-0.200 I24.215 J31.422 K0.000 F100.000
G3 X37.345 Y-65.489 Z-0.200 I-37.533 J-35.583 K0.000 F100.000
G3 X36.752 Y-65.281 Z-0.200 I-0.476 J-0.408 K0.000 F100.000
G3 X36.549 Y-65.895 Z-0.200 I0.267 J-0.429 K0.000 F100.000
G3 X36.729 Y-66.993 Z-0.200 I6.883 J0.563 K0.000 F100.000
G3 X38.157 Y-68.953 Z-0.200 I5.525 J2.526 K0.000 F100.000
G3 X40.437 Y-71.219 Z-0.200 I35.010 J32.951 K0.000 F100.000
G2 X44.290 Y-74.455 Z-0.200 I-36.103 J-46.899 K0.000 F100.000
G2 X45.718 Y-75.981 Z-0.200 I-6.172 J-7.204 K0.000 F100.000
G2 X46.601 Y-77.931 Z-0.200 I-4.316 J-3.132 K0.000 F100.000
G2 X47.039 Y-79.219 Z-0.200 I-11.351 J-4.579 K0.000 F100.000
G2 X46.941 Y-80.069 Z-0.200 I-9.476 J0.664 K0.000 F100.000
G3 X47.264 Y-81.691 Z-0.200 I3.695 J-0.107 K0.000 F100.000
G2 X47.131 Y-81.862 Z-0.200 I-0.116 J-0.047 K0.000 F100.000
G2 X45.349 Y-81.243 Z-0.200 I0.803 J5.190 K0.000 F100.000
G3 X43.281 Y-80.623 Z-0.200 I-2.889 J-5.877 K0.000 F100.000
G3 X42.008 Y-81.369 Z-0.200 I-0.012 J-1.439 K0.000 F100.000
G3 X41.763 Y-82.620 Z-0.200 I1.251 J-0.894 K0.000 F100.000
G3 X42.634 Y-83.437 Z-0.200 I1.438 J0.659 K0.000 F100.000
G3 X44.691 Y-83.822 Z-0.200 I1.830 J4.087 K0.000 F100.000
G2 X46.825 Y-84.026 Z-0.200 I0.327 J-7.847 K0.000 F100.000
G2 X48.345 Y-84.814 Z-0.200 I-5.603 J-12.677 K0.000 F100.000
G3 X49.267 Y-85.177 Z-0.200 I1.644 J2.825 K0.000 F100.000
G3 X50.191 Y-85.066 Z-0.200 I0.223 J2.045 K0.000 F100.000
G2 X51.622 Y-84.725 Z-0.200 I2.614 J-7.815 K0.000 F100.000
G3 X52.906 Y-84.250 Z-0.200 I-0.968 J4.592 K0.000 F100.000
G2 X54.949 Y-84.035 Z-0.200 I1.982 J-9.001 K0.000 F100.000
G3 X55.799 Y-83.387 Z-0.200 I0.057 J0.806 K0.000 F100.000
G3 X55.790 Y-81.610 Z-0.200 I-11.234 J0.833 K0.000 F100.000
G3 X54.887 Y-79.889 Z-0.200 I-4.024 J-1.014 K0.000 F100.000
G2 X53.927 Y-78.470 Z-0.200 I7.479 J6.095 K0.000 F100.000
G2 X54.036 Y-77.660 Z-0.200 I0.917 J0.288 K0.000 F100.000
G3 X54.293 Y-76.132 Z-0.200 I-4.610 J1.561 K0.000 F100.000
G3 X54.086 Y-75.419 Z-0.200 I-18.713 J-5.073 K0.000 F100.000
G2 X54.128 Y-74.970 Z-0.200 I0.743 J0.156 K0.000 F100.000
G2 X55.288 Y-73.336 Z-0.200 I7.723 J-4.256 K0.000 F100.000
G3 X56.900 Y-70.960 Z-0.200 I-35.480 J25.805 K0.000 F100.000
G2 X58.097 Y-69.469 Z-0.200 I8.574 J-5.656 K0.000 F100.000
G3 X59.253 Y-68.424 Z-0.200 I-6.280 J8.114 K0.000 F100.000
G3 X59.271 Y-67.645 Z-0.200 I-0.392 J0.399 K0.000 F100.000
G3 X58.013 Y-66.687 Z-0.200 I-2.478 J-1.949 K0.000 F100.000
G3 X57.664 Y-66.982 Z-0.200 I-0.073 J-0.267 K0.000 F100.000
G2 X57.133 Y-68.064 Z-0.200 I-1.955 J0.290 K0.000 F100.000
G3 X56.013 Y-69.829 Z-0.200 I8.733 J-6.777 K0.000 F100.000
G2 X54.406 Y-72.096 Z-0.200 I-20.233 J12.641 K0.000 F100.000
G3 X53.553 Y-73.569 Z-0.200 I5.235 J-4.012 K0.000 F100.000
G2 X53.157 Y-73.571 Z-0.200 I-0.199 J0.179 K0.000 F100.000
G3 X52.444 Y-72.397 Z-0.200 I-6.747 J-3.298 K0.000 F100.000
G2 X52.146 Y-70.871 Z-0.200 I1.945 J1.172 K0.000 F100.000
G2 X52.962 Y-68.671 Z-0.200 I5.029 J-0.614 K0.000 F100.000
G2 X55.057 Y-65.914 Z-0.200 I58.359 J-42.160 K0.000 F100.000
G3 X55.463 Y-63.672 Z-0.200 I-1.696 J1.465 K0.000 F100.000
G3 X54.902 Y-62.553 Z-0.200 I-2.905 J-0.756 K0.000 F100.000
G3 X54.435 Y-62.602 Z-0.200 I-0.220 J-0.151 K0.000 F100.000
G3 X54.336 Y-63.702 Z-0.200 I2.632 J-0.791 K0.000 F100.000
G2 X53.871 Y-65.276 Z-0.200 I-2.234 J-0.195 K0.000 F100.000
G2 X52.487 Y-66.800 Z-0.200 I-13.101 J10.505 K0.000 F100.000
G3 X51.025 Y-68.946 Z-0.200 I5.932 J-5.611 K0.000 F100.000
G1 X50.583 Y-69.654 Z-0.200 F100.000
G2 X49.839 Y-69.914 Z-0.200 I-0.542 J0.355 K0.000 F100.000
G2 X49.379 Y-69.623 Z-0.200 I0.243 J0.894 K0.000 F100.000
G2 X49.226 Y-68.741 Z-0.200 I0.952 J0.619 K0.000 F100.000
G2 X49.938 Y-67.350 Z-0.200 I1.782 J-0.035 K0.000 F100.000
G3 X51.017 Y-66.530 Z-0.200 I-5.877 J8.857 K0.000 F100.000
G3 X51.465 Y-64.935 Z-0.200 I-1.758 J1.354 K0.000 F100.000
G3 X50.945 Y-64.151 Z-0.200 I-0.816 J0.023 K0.000 F100.000
G2 X50.919 Y-63.953 Z-0.200 I0.061 J0.109 K0.000 F100.000
G3 X51.271 Y-62.976 Z-0.200 I-0.694 J0.802 K0.000 F100.000
G2 X51.300 Y-61.811 Z-0.200 I3.632 J0.493 K0.000 F100.000
G2 X51.798 Y-60.926 Z-0.200 I5.157 J-2.323 K0.000 F100.000
G3 X52.219 Y-59.948 Z-0.200 I-2.413 J1.617 K0.000 F100.000
G0 Z5.000
G0 X51.530 Y-60.534 Z5.000
G0 X51.530 Y-60.534 Z3.000
G1 X51.530 Y-60.534 Z-0.200 F150.000
G3 X51.298 Y-60.450 Z-0.200 I-0.218 J-0.238 K0.000 F100.000
G3 X50.474 Y-60.440 Z-0.200 I-0.425 J-1.096 K0.000 F100.000
G3 X49.345 Y-61.381 Z-0.200 I3.749 J-5.645 K0.000 F100.000
G2 X47.233 Y-62.630 Z-0.200 I-3.279 J3.135 K0.000 F100.000
G3 X45.677 Y-63.535 Z-0.200 I0.687 J-2.969 K0.000 F100.000
G2 X44.929 Y-64.399 Z-0.200 I-4.003 J2.711 K0.000 F100.000
G2 X44.751 Y-64.357 Z-0.200 I-0.077 J0.070 K0.000 F100.000
G2 X45.123 Y-63.664 Z-0.200 I1.982 J-0.619 K0.000 F100.000
G3 X45.011 Y-63.421 Z-0.200 I-0.078 J0.111 K0.000 F100.000
G3 X43.254 Y-64.145 Z-0.200 I9.491 J-25.530 K0.000 F100.000
G3 X42.247 Y-64.361 Z-0.200 I0.408 J-4.352 K0.000 F100.000
G3 X40.778 Y-65.482 Z-0.200 I1.899 J-4.014 K0.000 F100.000
G3 X41.043 Y-66.231 Z-0.200 I0.339 J-0.302 K0.000 F100.000
G3 X41.855 Y-65.944 Z-0.200 I-0.015 J1.334 K0.000 F100.000
G2 X42.741 Y-65.440 Z-0.200 I2.534 J-3.422 K0.000 F100.000
G2 X42.946 Y-65.441 Z-0.200 I0.101 J-0.231 K0.000 F100.000
G2 X42.792 Y-66.048 Z-0.200 I-0.688 J-0.148 K0.000 F100.000
G3 X42.337 Y-66.845 Z-0.200 I9.165 J-5.759 K0.000 F100.000
G3 X42.399 Y-67.007 Z-0.200 I0.115 J-0.048 K0.000 F100.000
G2 X44.927 Y-69.218 Z-0.200 I-2.149 J-5.009 K0.000 F100.000
G2 X45.589 Y-71.703 Z-0.200 I-3.221 J-2.188 K0.000 F100.000
G2 X44.963 Y-72.371 Z-0.200 I-0.677 J0.008 K0.000 F100.000
G2 X43.521 Y-71.747 Z-0.200 I0.183 J2.398 K0.000 F100.000
G2 X39.102 Y-67.728 Z-0.200 I31.553 J39.135 K0.000 F100.000
G3 X37.078 Y-65.789 Z-0.200 I-12.588 J-11.117 K0.000 F100.000
G3 X36.908 Y-65.803 Z-0.200 I-0.077 J-0.099 K0.000 F100.000
G3 X37.057 Y-66.976 Z-0.200 I2.213 J-0.315 K0.000 F100.000
G3 X38.236 Y-68.487 Z-0.200 I6.356 J3.747 K0.000 F100.000
G3 X42.354 Y-72.226 Z-0.200 I22.633 J20.787 K0.000 F100.000
G2 X45.641 Y-75.292 Z-0.200 I-13.061 J-17.299 K0.000 F100.000
G2 X46.478 Y-76.573 Z-0.200 I-5.217 J-4.321 K0.000 F100.000
G3 X47.203 Y-78.520 Z-0.200 I29.583 J9.904 K0.000 F100.000
G3 X47.402 Y-78.559 Z-0.200 I0.113 J0.053 K0.000 F100.000
G1 X48.232 Y-77.786 Z-0.200 F100.000
G1 X49.861 Y-76.724 Z-0.200 F100.000
G1 X49.907 Y-76.670 Z-0.200 F100.000
G1 X50.522 Y-75.276 Z-0.200 F100.000
G1 X51.421 Y-74.539 Z-0.200 F100.000
G3 X51.440 Y-74.364 Z-0.200 I-0.079 J0.097 K0.000 F100.000
G3 X50.967 Y-73.791 Z-0.200 I-5.482 J-4.043 K0.000 F100.000
G2 X50.034 Y-72.402 Z-0.200 I2.864 J2.931 K0.000 F100.000
G2 X49.676 Y-70.949 Z-0.200 I22.444 J6.302 K0.000 F100.000
G3 X49.312 Y-70.137 Z-0.200 I-1.786 J-0.312 K0.000 F100.000
G2 X48.879 Y-69.476 Z-0.200 I1.343 J1.352 K0.000 F100.000
G2 X49.190 Y-67.654 Z-0.200 I3.520 J0.336 K0.000 F100.000
G2 X49.961 Y-66.906 Z-0.200 I2.210 J-1.506 K0.000 F100.000
G3 X51.049 Y-65.818 Z-0.200 I-1.998 J3.085 K0.000 F100.000
G3 X50.932 Y-64.614 Z-0.200 I-1.003 J0.510 K0.000 F100.000
G3 X50.138 Y-64.555 Z-0.200 I-0.455 J-0.744 K0.000 F100.000
G3 X48.825 Y-65.514 Z-0.200 I1.134 J-2.931 K0.000 F100.000
G2 X47.828 Y-66.456 Z-0.200 I-4.705 J3.981 K0.000 F100.000
G2 X47.501 Y-66.321 Z-0.200 I-0.132 J0.145 K0.000 F100.000
G2 X47.778 Y-65.779 Z-0.200 I0.898 J-0.118 K0.000 F100.000
G2 X50.390 Y-63.849 Z-0.200 I7.225 J-7.041 K0.000 F100.000
G3 X51.010 Y-62.753 Z-0.200 I-0.369 J0.932 K0.000 F100.000
G2 X51.028 Y-61.535 Z-0.200 I3.766 J0.552 K0.000 F100.000
G2 X51.532 Y-60.669 Z-0.200 I4.268 J-1.906 K0.000 F100.000
G1 X51.530 Y-60.534 Z-0.200 F100.000
G0 Z5.000
G0 X50.643 Y-63.989 Z5.000
G0 X50.643 Y-63.989 Z3.000
G1 X50.643 Y-63.989 Z-0.200 F150.000
G3 X50.070 Y-64.315 Z-0.200 I6.784 J-12.590 K0.000 F100.000
G2 X50.708 Y-64.266 Z-0.200 I0.444 J-1.586 K0.000 F100.000
G2 X50.643 Y-63.989 Z-0.200 I0.234 J0.201 K0.000 F100.000
G0 Z5.000
G0 X48.786 Y-65.198 Z5.000
G0 X48.786 Y-65.198 Z3.000
G1 X48.786 Y-65.198 Z-0.200 F150.000
G3 X47.803 Y-66.170 Z-0.200 I2.100 J-3.106 K0.000 F100.000
G3 X48.786 Y-65.198 Z-0.200 I-7.496 J8.559 K0.000 F100.000
G0 Z5.000
G0 X45.750 Y-63.098 Z5.000
G0 X45.750 Y-63.098 Z3.000
G1 X45.750 Y-63.098 Z-0.200 F150.000
G3 X45.243 Y-63.219 Z-0.200 I40.858 J-172.698 K0.000 F100.000
G2 X45.413 Y-63.466 Z-0.200 I-0.154 J-0.289 K0.000 F100.000
G2 X45.750 Y-63.098 Z-0.200 I2.256 J-1.727 K0.000 F100.000
G0 Z5.000
G0 X42.712 Y-63.971 Z5.000
G0 X42.712 Y-63.971 Z3.000
G1 X42.712 Y-63.971 Z-0.200 F150.000
G2 X42.300 Y-63.855 Z-0.200 I0.347 J2.026 K0.000 F100.000
G2 X42.300 Y-64.074 Z-0.200 I-0.227 J-0.110 K0.000 F100.000
G2 X42.712 Y-63.971 Z-0.200 I0.513 J-1.172 K0.000 F100.000
G0 Z5.000
G0 X42.199 Y-63.963 Z5.000
G0 X42.199 Y-63.963 Z3.000
G1 X42.199 Y-63.963 Z-0.200 F150.000
G3 X41.989 Y-63.712 Z-0.200 I-0.250 J0.004 K0.000 F100.000
G1 X41.019 Y-63.554 Z-0.200 F100.000
G3 X40.739 Y-63.731 Z-0.200 I-0.040 J-0.247 K0.000 F100.000
G1 X40.450 Y-64.728 Z-0.200 F100.000
G3 X40.483 Y-64.936 Z-0.200 I0.240 J-0.070 K0.000 F100.000
G3 X40.829 Y-65.005 Z-0.200 I0.208 J0.139 K0.000 F100.000
G1 X42.088 Y-64.166 Z-0.200 F100.000
G3 X42.199 Y-63.963 Z-0.200 I-0.139 J0.208 K0.000 F100.000
G0 Z5.000
G0 X42.074 Y-63.960 Z5.000
G0 X42.074 Y-63.960 Z3.000
G1 X42.074 Y-63.960 Z-0.200 F150.000
G3 X41.969 Y-63.835 Z-0.200 I-0.125 J0.002 K0.000 F100.000
G1 X40.999 Y-63.677 Z-0.200 F100.000
G3 X40.859 Y-63.766 Z-0.200 I-0.020 J-0.123 K0.000 F100.000
G1 X40.570 Y-64.762 Z-0.200 F100.000
G3 X40.760 Y-64.901 Z-0.200 I0.120 J-0.035 K0.000 F100.000
G1 X42.018 Y-64.062 Z-0.200 F100.000
G3 X42.074 Y-63.960 Z-0.200 I-0.069 J0.104 K0.000 F100.000
G0 Z5.000
G0 X40.705 Y-65.165 Z5.000
G0 X40.705 Y-65.165 Z3.000
G1 X40.705 Y-65.165 Z-0.200 F150.000
G2 X40.516 Y-65.118 Z-0.200 I-0.046 J0.220 K0.000 F100.000
G3 X40.529 Y-65.415 Z-0.200 I2.223 J-0.053 K0.000 F100.000
G2 X40.705 Y-65.165 Z-0.200 I0.901 J-0.448 K0.000 F100.000
G0 Z5.000
G0 X42.019 Y-66.135 Z5.000
G0 X42.019 Y-66.135 Z3.000
G1 X42.019 Y-66.135 Z-0.200 F150.000
G2 X42.235 Y-66.459 Z-0.200 I-0.142 J-0.328 K0.000 F100.000
G3 X42.658 Y-65.750 Z-0.200 I-2.725 J2.106 K0.000 F100.000
G3 X42.019 Y-66.135 Z-0.200 I1.752 J-3.631 K0.000 F100.000
G0 Z5.000
G0 X42.230 Y-66.145 Z5.000
G0 X42.230 Y-66.145 Z3.000
G1 X42.230 Y-66.145 Z-0.200 F150.000
G1 X42.256 Y-66.179 Z-0.200 F100.000
G1 X42.320 Y-66.084 Z-0.200 F100.000
G1 X42.230 Y-66.145 Z-0.200 F100.000
G0 Z5.000
G0 X36.908 Y-65.526 Z5.000
G0 X36.908 Y-65.526 Z3.000
G1 X36.908 Y-65.526 Z-0.200 F150.000
G3 X36.793 Y-65.584 Z-0.200 I-0.039 J-0.065 K0.000 F100.000
G2 X36.908 Y-65.526 Z-0.200 I0.118 J-0.090 K0.000 F100.000
G0 Z5.000
G0 X49.561 Y-70.057 Z5.000
G0 X49.561 Y-70.057 Z3.000
G1 X49.561 Y-70.057 Z-0.200 F150.000
G2 X49.704 Y-70.274 Z-0.200 I-0.529 J-0.504 K0.000 F100.000
G2 X49.828 Y-70.170 Z-0.200 I0.170 J-0.077 K0.000 F100.000
G2 X49.561 Y-70.057 Z-0.200 I0.260 J0.983 K0.000 F100.000
G0 Z5.000
G0 X49.912 Y-70.411 Z5.000
G0 X49.912 Y-70.411 Z3.000
G1 X49.912 Y-70.411 Z-0.200 F150.000
G3 X49.878 Y-70.526 Z-0.200 I0.088 J-0.089 K0.000 F100.000
G3 X50.403 Y-72.553 Z-0.200 I13.224 J2.342 K0.000 F100.000
G3 X52.533 Y-74.799 Z-0.200 I4.754 J2.377 K0.000 F100.000
G1 X52.624 Y-74.816 Z-0.200 F100.000
G3 X52.978 Y-73.898 Z-0.200 I-0.692 J0.794 K0.000 F100.000
G3 X52.436 Y-72.953 Z-0.200 I-4.815 J-2.137 K0.000 F100.000
G2 X51.819 Y-71.587 Z-0.200 I2.334 J1.877 K0.000 F100.000
G2 X52.389 Y-68.789 Z-0.200 I7.002 J0.029 K0.000 F100.000
G2 X54.375 Y-66.217 Z-0.200 I18.037 J-11.872 K0.000 F100.000
G3 X55.234 Y-64.831 Z-0.200 I-2.901 J2.756 K0.000 F100.000
G3 X55.009 Y-63.340 Z-0.200 I-3.193 J0.281 K0.000 F100.000
G3 X54.804 Y-63.178 Z-0.200 I-0.167 J-0.001 K0.000 F100.000
G3 X54.612 Y-64.005 Z-0.200 I1.361 J-0.753 K0.000 F100.000
G2 X54.435 Y-64.995 Z-0.200 I-2.791 J-0.011 K0.000 F100.000
G2 X53.179 Y-66.645 Z-0.200 I-6.528 J3.664 K0.000 F100.000
G3 X51.657 Y-68.501 Z-0.200 I10.957 J-10.535 K0.000 F100.000
G2 X50.838 Y-69.960 Z-0.200 I-12.762 J6.210 K0.000 F100.000
G2 X49.992 Y-70.375 Z-0.200 I-0.804 J0.568 K0.000 F100.000
G3 X49.912 Y-70.411 Z-0.200 I0.008 J-0.125 K0.000 F100.000
G0 Z5.000
G0 X51.704 Y-74.531 Z5.000
G0 X51.704 Y-74.531 Z3.000
G1 X51.704 Y-74.531 Z-0.200 F150.000
G1 X51.598 Y-74.702 Z-0.200 F100.000
G2 X51.895 Y-74.685 Z-0.200 I0.182 J-0.563 K0.000 F100.000
G2 X51.704 Y-74.531 Z-0.200 I0.875 J1.280 K0.000 F100.000
G0 Z5.000
G0 X51.715 Y-74.923 Z5.000
G0 X51.715 Y-74.923 Z3.000
G1 X51.715 Y-74.923 Z-0.200 F150.000
G3 X51.118 Y-75.112 Z-0.200 I0.031 J-1.130 K0.000 F100.000
G3 X50.459 Y-76.171 Z-0.200 I1.085 J-1.409 K0.000 F100.000
G2 X49.747 Y-77.244 Z-0.200 I-1.832 J0.443 K0.000 F100.000
G2 X48.476 Y-78.004 Z-0.200 I-11.567 J17.891 K0.000 F100.000
G3 X47.633 Y-79.112 Z-0.200 I0.851 J-1.521 K0.000 F100.000
G2 X47.723 Y-80.775 Z-0.200 I-103.195 J-6.420 K0.000 F100.000
G3 X48.016 Y-82.042 Z-0.200 I2.940 J0.013 K0.000 F100.000
G3 X49.133 Y-82.829 Z-0.200 I1.463 J0.890 K0.000 F100.000
G3 X51.197 Y-82.799 Z-0.200 I0.985 J3.195 K0.000 F100.000
G3 X52.396 Y-80.439 Z-0.200 I-0.635 J1.807 K0.000 F100.000
G2 X52.456 Y-79.098 Z-0.200 I1.681 J0.596 K0.000 F100.000
G3 X53.493 Y-77.511 Z-0.200 I-182.391 J120.266 K0.000 F100.000
G3 X53.457 Y-75.964 Z-0.200 I-1.173 J0.747 K0.000 F100.000
G3 X53.248 Y-75.970 Z-0.200 I-0.103 J-0.071 K0.000 F100.000
G2 X52.874 Y-76.582 Z-0.200 I-289.108 J176.417 K0.000 F100.000
G2 X51.125 Y-78.846 Z-0.200 I-7.932 J4.320 K0.000 F100.000
G1 X51.044 Y-78.521 Z-0.200 F100.000
G3 X50.923 Y-78.426 Z-0.200 I-0.121 J-0.030 K0.000 F100.000
G1 X50.524 Y-78.426 Z-0.200 F100.000
G1 X50.671 Y-78.077 Z-0.200 F100.000
G2 X51.767 Y-76.531 Z-0.200 I12.933 J-8.005 K0.000 F100.000
G3 X52.379 Y-75.573 Z-0.200 I-1.935 J1.912 K0.000 F100.000
G3 X52.079 Y-74.972 Z-0.200 I-0.503 J0.123 K0.000 F100.000
G3 X51.715 Y-74.923 Z-0.200 I-0.333 J-1.080 K0.000 F100.000
G0 Z5.000
G0 X52.528 Y-75.041 Z5.000
G0 X52.528 Y-75.041 Z3.000
G1 X52.528 Y-75.041 Z-0.200 F150.000
G2 X52.492 Y-75.990 Z-0.200 I-0.816 J-0.443 K0.000 F100.000
G3 X51.221 Y-77.666 Z-0.200 I477.188 J-362.804 K0.000 F100.000
G1 X50.904 Y-78.176 Z-0.200 F100.000
G2 X51.250 Y-78.387 Z-0.200 I0.022 J-0.353 K0.000 F100.000
G3 X53.035 Y-75.840 Z-0.200 I-11.051 J9.644 K0.000 F100.000
G2 X53.663 Y-75.821 Z-0.200 I0.320 J-0.196 K0.000 F100.000
G2 X53.710 Y-77.635 Z-0.200 I-1.297 J-0.942 K0.000 F100.000
G2 X53.195 Y-78.448 Z-0.200 I-6.112 J3.307 K0.000 F100.000
G2 X53.546 Y-78.345 Z-0.200 I0.401 J-0.718 K0.000 F100.000
G1 X53.638 Y-78.372 Z-0.200 F100.000
G2 X53.804 Y-77.569 Z-0.200 I1.304 J0.150 K0.000 F100.000
G3 X54.043 Y-76.158 Z-0.200 I-4.404 J1.474 K0.000 F100.000
G3 X53.838 Y-75.456 Z-0.200 I-55.423 J-15.837 K0.000 F100.000
G2 X53.834 Y-75.101 Z-0.200 I1.000 J0.190 K0.000 F100.000
G2 X53.099 Y-75.488 Z-0.200 I-1.045 J1.094 K0.000 F100.000
G2 X52.739 Y-75.033 Z-0.200 I0.003 J0.373 K0.000 F100.000
G2 X52.528 Y-75.041 Z-0.200 I-0.112 J0.167 K0.000 F100.000
G0 Z5.000
G0 X52.855 Y-75.082 Z5.000
G0 X52.855 Y-75.082 Z3.000
G1 X52.855 Y-75.082 Z-0.200 F150.000
G3 X53.082 Y-75.362 Z-0.200 I0.248 J-0.031 K0.000 F100.000
G3 X54.138 Y-74.589 Z-0.200 I-0.474 J1.758 K0.000 F100.000
G3 X57.473 Y-69.816 Z-0.200 I-424.103 J299.820 K0.000 F100.000
G2 X58.604 Y-68.751 Z-0.200 I10.482 J-9.999 K0.000 F100.000
G3 X59.030 Y-67.977 Z-0.200 I-0.706 J0.893 K0.000 F100.000
G3 X58.356 Y-67.162 Z-0.200 I-1.127 J-0.245 K0.000 F100.000
G3 X57.925 Y-67.178 Z-0.200 I-0.210 J-0.174 K0.000 F100.000
G1 X54.516 Y-72.458 Z-0.200 F100.000
G3 X52.887 Y-74.987 Z-0.200 I15.497 J-11.772 K0.000 F100.000
G3 X52.855 Y-75.082 Z-0.200 I0.216 J-0.125 K0.000 F100.000
G0 Z5.000
G0 X52.979 Y-75.097 Z5.000
G0 X52.979 Y-75.097 Z3.000
G1 X52.979 Y-75.097 Z-0.200 F150.000
G3 X53.061 Y-75.230 Z-0.200 I0.124 J-0.015 K0.000 F100.000
G3 X53.409 Y-75.108 Z-0.200 I0.026 J0.482 K0.000 F100.000
G3 X54.630 Y-73.676 Z-0.200 I-2.926 J3.731 K0.000 F100.000
G2 X57.524 Y-69.562 Z-0.200 I106.358 J-71.757 K0.000 F100.000
G3 X58.696 Y-68.454 Z-0.200 I-12.206 J14.085 K0.000 F100.000
G3 X58.895 Y-67.895 Z-0.200 I-0.517 J0.499 K0.000 F100.000
G3 X58.372 Y-67.322 Z-0.200 I-0.998 J-0.388 K0.000 F100.000
G3 X58.030 Y-67.245 Z-0.200 I-0.209 J-0.130 K0.000 F100.000
G1 X54.620 Y-72.527 Z-0.200 F100.000
G3 X52.995 Y-75.050 Z-0.200 I15.390 J-11.699 K0.000 F100.000
G3 X52.979 Y-75.097 Z-0.200 I0.108 J-0.063 K0.000 F100.000
G0 Z5.000
G0 X52.762 Y-75.476 Z5.000
G0 X52.762 Y-75.476 Z3.000
G1 X52.762 Y-75.476 Z-0.200 F150.000
G2 X52.063 Y-76.761 Z-0.200 I-2.226 J0.378 K0.000 F100.000
G3 X51.106 Y-78.088 Z-0.200 I11.771 J-9.497 K0.000 F100.000
G2 X51.263 Y-78.189 Z-0.200 I-0.044 J-0.239 K0.000 F100.000
G3 X52.928 Y-75.774 Z-0.200 I-11.592 J9.778 K0.000 F100.000
G2 X53.107 Y-75.609 Z-0.200 I0.289 J-0.133 K0.000 F100.000
G2 X52.766 Y-75.482 Z-0.200 I-0.016 J0.476 K0.000 F100.000
G1 X52.762 Y-75.476 Z-0.200 F100.000
G0 Z5.000
G0 X53.361 Y-75.544 Z5.000
G0 X53.361 Y-75.544 Z3.000
G1 X53.361 Y-75.544 Z-0.200 F150.000
G2 X53.821 Y-75.830 Z-0.200 I0.009 J-0.498 K0.000 F100.000
G2 X53.699 Y-75.363 Z-0.200 I1.540 J0.653 K0.000 F100.000
G2 X53.361 Y-75.544 Z-0.200 I-0.844 J1.172 K0.000 F100.000
G0 Z5.000
G0 X53.248 Y-74.116 Z5.000
G0 X53.248 Y-74.116 Z3.000
G1 X53.248 Y-74.116 Z-0.200 F150.000
G1 X53.377 Y-73.894 Z-0.200 F100.000
G2 X53.229 Y-73.884 Z-0.200 I-0.053 J0.330 K0.000 F100.000
G2 X53.248 Y-74.116 Z-0.200 I-0.748 J-0.179 K0.000 F100.000
G0 Z5.000
G0 X51.721 Y-77.414 Z5.000
G0 X51.721 Y-77.414 Z3.000
G1 X51.721 Y-77.414 Z-0.200 F150.000
G3 X51.432 Y-77.803 Z-0.200 I9.137 J-7.087 K0.000 F100.000
G3 X51.721 Y-77.414 Z-0.200 I-2.784 J2.369 K0.000 F100.000
G0 Z5.000
G0 X51.060 Y-78.990 Z5.000
G0 X51.060 Y-78.990 Z3.000
G1 X51.060 Y-78.990 Z-0.200 F150.000
G2 X50.388 Y-78.889 Z-0.200 I-0.037 J2.036 K0.000 F100.000
G3 X49.659 Y-79.186 Z-0.200 I-0.155 J-0.663 K0.000 F100.000
G3 X49.546 Y-80.696 Z-0.200 I1.068 J-0.839 K0.000 F100.000
G3 X50.600 Y-80.928 Z-0.200 I0.632 J0.357 K0.000 F100.000
G3 X51.352 Y-79.620 Z-0.200 I-0.727 J1.287 K0.000 F100.000
G3 X51.060 Y-78.990 Z-0.200 I-5.177 J-2.012 K0.000 F100.000
G0 Z5.000
G0 X50.962 Y-79.133 Z5.000
G0 X50.962 Y-79.133 Z3.000
G1 X50.962 Y-79.133 Z-0.200 F150.000
G3 X50.084 Y-79.016 Z-0.200 I-0.860 J-3.103 K0.000 F100.000
G3 X49.755 Y-79.268 Z-0.200 I0.164 J-0.556 K0.000 F100.000
G3 X49.647 Y-80.621 Z-0.200 I0.976 J-0.759 K0.000 F100.000
G3 X50.539 Y-80.819 Z-0.200 I0.532 J0.288 K0.000 F100.000
G3 X51.228 Y-79.646 Z-0.200 I-0.670 J1.183 K0.000 F100.000
G3 X50.962 Y-79.133 Z-0.200 I-1.302 J-0.349 K0.000 F100.000
G0 Z5.000
G0 X50.847 Y-79.271 Z5.000
G0 X50.847 Y-79.271 Z3.000
G1 X50.847 Y-79.271 Z-0.200 F150.000
G3 X50.300 Y-79.119 Z-0.200 I-0.442 J-0.530 K0.000 F100.000
G1 X50.298 Y-79.110 Z-0.200 F100.000
G3 X50.086 Y-79.148 Z-0.200 I0.111 J-1.238 K0.000 F100.000
G3 X49.549 Y-79.892 Z-0.200 I0.289 J-0.775 K0.000 F100.000
G3 X49.958 Y-80.768 Z-0.200 I0.769 J-0.174 K0.000 F100.000
G1 X50.048 Y-80.797 Z-0.200 F100.000
G3 X51.087 Y-79.901 Z-0.200 I0.129 J0.900 K0.000 F100.000
G3 X50.847 Y-79.271 Z-0.200 I-0.683 J0.099 K0.000 F100.000
G0 Z5.000
G0 X50.754 Y-79.376 Z5.000
G0 X50.754 Y-79.376 Z3.000
G1 X50.754 Y-79.376 Z-0.200 F150.000
G3 X49.864 Y-79.440 Z-0.200 I-0.413 J-0.468 K0.000 F100.000
G3 X49.957 Y-80.629 Z-0.200 I0.618 J-0.550 K0.000 F100.000
G1 X50.086 Y-80.677 Z-0.200 F100.000
G3 X50.964 Y-79.879 Z-0.200 I0.080 J0.794 K0.000 F100.000
G3 X50.754 Y-79.376 Z-0.200 I-0.624 J0.034 K0.000 F100.000
G0 Z5.000
G0 X52.545 Y-79.496 Z5.000
G0 X52.545 Y-79.496 Z3.000
G1 X52.545 Y-79.496 Z-0.200 F150.000
G3 X52.543 Y-79.543 Z-0.200 I1.099 J-0.073 K0.000 F100.000
G3 X52.674 Y-80.860 Z-0.200 I21.791 J1.502 K0.000 F100.000
G3 X52.788 Y-82.351 Z-0.200 I2.568 J-0.553 K0.000 F100.000
G2 X52.937 Y-83.750 Z-0.200 I-3.314 J-1.061 K0.000 F100.000
G3 X53.234 Y-83.996 Z-0.200 I0.250 J-0.001 K0.000 F100.000
G2 X54.456 Y-83.834 Z-0.200 I1.755 J-8.504 K0.000 F100.000
G3 X55.409 Y-83.593 Z-0.200 I0.200 J1.213 K0.000 F100.000
G3 X55.631 Y-82.609 Z-0.200 I-0.917 J0.724 K0.000 F100.000
G3 X55.298 Y-80.940 Z-0.200 I-4.162 J0.038 K0.000 F100.000
G3 X53.908 Y-78.841 Z-0.200 I-13.995 J-7.756 K0.000 F100.000
G3 X53.556 Y-78.472 Z-0.200 I-0.593 J-0.213 K0.000 F100.000
G3 X52.545 Y-79.496 Z-0.200 I0.087 J-1.098 K0.000 F100.000
G0 Z5.000
G0 X52.669 Y-79.505 Z5.000
G0 X52.669 Y-79.505 Z3.000
G1 X52.669 Y-79.505 Z-0.200 F150.000
G3 X52.667 Y-79.559 Z-0.200 I0.970 J-0.069 K0.000 F100.000
G3 X52.799 Y-80.861 Z-0.200 I25.610 J1.942 K0.000 F100.000
G3 X52.905 Y-82.309 Z-0.200 I2.457 J-0.547 K0.000 F100.000
G2 X53.062 Y-83.751 Z-0.200 I-3.416 J-1.101 K0.000 F100.000
G3 X53.211 Y-83.874 Z-0.200 I0.125 J-0.000 K0.000 F100.000
G2 X54.451 Y-83.709 Z-0.200 I1.781 J-8.633 K0.000 F100.000
G3 X55.125 Y-83.635 Z-0.200 I0.158 J1.682 K0.000 F100.000
G3 X55.513 Y-82.876 Z-0.200 I-0.374 J0.670 K0.000 F100.000
G3 X54.920 Y-80.492 Z-0.200 I-4.351 J0.183 K0.000 F100.000
G3 X53.571 Y-78.604 Z-0.200 I-26.998 J-17.864 K0.000 F100.000
G3 X52.669 Y-79.505 Z-0.200 I0.068 J-0.970 K0.000 F100.000
G0 Z5.000
G0 X52.529 Y-81.891 Z5.000
G0 X52.529 Y-81.891 Z3.000
G1 X52.529 Y-81.891 Z-0.200 F150.000
G2 X52.448 Y-82.048 Z-0.200 I-0.656 J0.239 K0.000 F100.000
G2 X52.562 Y-82.046 Z-0.200 I0.059 J-0.118 K0.000 F100.000
G1 X52.529 Y-81.891 Z-0.200 F100.000
G0 Z5.000
G0 X52.549 Y-82.288 Z5.000
G0 X52.549 Y-82.288 Z3.000
G1 X52.549 Y-82.288 Z-0.200 F150.000
G3 X51.799 Y-82.723 Z-0.200 I0.793 J-2.237 K0.000 F100.000
G2 X50.652 Y-83.348 Z-0.200 I-1.980 J2.267 K0.000 F100.000
G2 X48.138 Y-82.704 Z-0.200 I-0.345 J3.876 K0.000 F100.000
G3 X47.032 Y-82.171 Z-0.200 I-1.574 J-1.854 K0.000 F100.000
G2 X45.754 Y-81.892 Z-0.200 I0.162 J3.811 K0.000 F100.000
G3 X43.194 Y-80.983 Z-0.200 I-3.046 J-4.518 K0.000 F100.000
G1 X43.194 Y-80.990 Z-0.200 F100.000
G3 X43.024 Y-81.003 Z-0.200 I-0.069 J-0.211 K0.000 F100.000
G3 X42.201 Y-81.786 Z-0.200 I0.579 J-1.433 K0.000 F100.000
G3 X42.140 Y-82.598 Z-0.200 I0.625 J-0.455 K0.000 F100.000
G3 X42.864 Y-83.166 Z-0.200 I1.637 J1.343 K0.000 F100.000
G3 X45.462 Y-83.533 Z-0.200 I1.989 J4.694 K0.000 F100.000
G2 X47.524 Y-83.966 Z-0.200 I0.364 J-3.400 K0.000 F100.000
G3 X49.117 Y-84.737 Z-0.200 I5.762 J9.867 K0.000 F100.000
G3 X49.920 Y-84.751 Z-0.200 I0.430 J1.570 K0.000 F100.000
G2 X51.633 Y-84.371 Z-0.200 I3.066 J-9.769 K0.000 F100.000
G3 X52.556 Y-83.833 Z-0.200 I-0.158 J1.331 K0.000 F100.000
G3 X52.638 Y-82.383 Z-0.200 I-1.721 J0.825 K0.000 F100.000
G1 X52.549 Y-82.288 Z-0.200 F100.000
G0 Z5.000
G0 X52.830 Y-83.837 Z5.000
G0 X52.830 Y-83.837 Z3.000
G1 X52.830 Y-83.837 Z-0.200 F150.000
G2 X52.688 Y-84.073 Z-0.200 I-0.766 J0.301 K0.000 F100.000
G2 X52.911 Y-83.993 Z-0.200 I0.357 J-0.639 K0.000 F100.000
G2 X52.830 Y-83.837 Z-0.200 I0.127 J0.165 K0.000 F100.000
G0 Z5.000
G0 X47.814 Y-82.182 Z5.000
G0 X47.814 Y-82.182 Z3.000
G1 X47.814 Y-82.182 Z-0.200 F150.000
G2 X47.554 Y-81.471 Z-0.200 I1.836 J1.074 K0.000 F100.000
G2 X47.422 Y-79.779 Z-0.200 I49.124 J4.682 K0.000 F100.000
G2 X47.459 Y-78.808 Z-0.200 I1.488 J0.431 K0.000 F100.000
G2 X47.194 Y-78.812 Z-0.200 I-0.136 J0.225 K0.000 F100.000
G2 X47.215 Y-79.896 Z-0.200 I-1.640 J-0.574 K0.000 F100.000
G3 X47.496 Y-81.597 Z-0.200 I3.041 J-0.372 K0.000 F100.000
G2 X47.404 Y-82.001 Z-0.200 I-0.299 J-0.144 K0.000 F100.000
G2 X47.814 Y-82.182 Z-0.200 I-0.287 J-1.204 K0.000 F100.000
G0 Z5.000
G0 X47.336 Y-80.511 Z5.000
G0 X47.336 Y-80.511 Z3.000
G1 X47.336 Y-80.511 Z-0.200 F150.000
G3 X47.320 Y-80.066 Z-0.200 I-21.125 J-0.558 K0.000 F100.000
G3 X47.336 Y-80.511 Z-0.200 I1.900 J-0.152 K0.000 F100.000
G0 Z5.000
G0 X59.140 Y-68.117 Z5.000
G0 X59.140 Y-68.117 Z3.000
G1 X59.140 Y-68.117 Z-0.200 F150.000
G3 X59.150 Y-67.919 Z-0.200 I-0.199 J0.108 K0.000 F100.000
G2 X59.140 Y-68.117 Z-0.200 I-0.417 J-0.080 K0.000 F100.000
G0 Z5.000
G0 X58.041 Y-66.959 Z5.000
G0 X58.041 Y-66.959 Z3.000
G1 X58.041 Y-66.959 Z-0.200 F150.000
G3 X57.915 Y-67.017 Z-0.200 I-0.063 J-0.030 K0.000 F100.000
G2 X58.041 Y-66.959 Z-0.200 I0.123 J-0.102 K0.000 F100.000
G0 Z5.000
G0 X54.861 Y-62.918 Z5.000
G0 X54.861 Y-62.918 Z3.000
G1 X54.861 Y-62.918 Z-0.200 F150.000
G3 X54.669 Y-62.703 Z-0.200 I-0.318 J-0.091 K0.000 F100.000
G1 X54.664 Y-62.706 Z-0.200 F100.000
G3 X54.592 Y-63.032 Z-0.200 I0.838 J-0.356 K0.000 F100.000
G2 X54.861 Y-62.918 Z-0.200 I0.253 J-0.222 K0.000 F100.000
G0 Z5.000
G0 Z5.000
G0 X54.861 Y-62.918
G0 X48.709 Y-80.625
G0 X48.709 Y-80.625 Z3.000
G1 X48.709 Y-80.625 Z-0.100 F150.000
G3 X48.562 Y-80.582 Z-0.100 I-0.545 J-1.568 K0.000 F100.000
G3 X48.404 Y-80.669 Z-0.100 I-0.042 J-0.110 K0.000 F100.000
G3 X48.888 Y-81.303 Z-0.100 I1.086 J0.328 K0.000 F100.000
G3 X49.709 Y-81.744 Z-0.100 I1.060 J0.988 K0.000 F100.000
G3 X49.827 Y-81.649 Z-0.100 I0.010 J0.108 K0.000 F100.000
G3 X49.397 Y-81.082 Z-0.100 I-1.015 J-0.322 K0.000 F100.000
G3 X48.709 Y-80.625 Z-0.100 I-1.233 J-1.112 K0.000 F100.000
G0 Z5.000
G0 X48.669 Y-80.741 Z5.000
G0 X48.669 Y-80.741 Z3.000
G1 X48.669 Y-80.741 Z-0.100 F150.000
G3 X48.543 Y-80.706 Z-0.100 I-0.374 J-1.074 K0.000 F100.000
G3 X49.082 Y-81.299 Z-0.100 I1.282 J0.621 K0.000 F100.000
G3 X49.687 Y-81.618 Z-0.100 I0.814 J0.811 K0.000 F100.000
G3 X49.039 Y-80.955 Z-0.100 I-1.484 J-0.804 K0.000 F100.000
G3 X48.669 Y-80.741 Z-0.100 I-0.744 J-0.860 K0.000 F100.000
G0 Z5.000
G0 X48.647 Y-80.801 Z5.000
G0 X48.647 Y-80.801 Z3.000
G1 X48.647 Y-80.801 Z-0.100 F150.000
G3 X49.586 Y-81.533 Z-0.100 I2.185 J1.837 K0.000 F100.000
G3 X48.647 Y-80.801 Z-0.100 I-2.319 J-2.008 K0.000 F100.000
G1 X48.647 Y-80.801 Z-0.200 F150.000
G3 X49.586 Y-81.533 Z-0.200 I2.185 J1.837 K0.000 F100.000
G3 X48.647 Y-80.801 Z-0.200 I-2.319 J-2.008 K0.000 F100.000
G0 Z5.000
G0 X48.608 Y-80.824 Z5.000
G0 X48.608 Y-80.824 Z3.000
G1 X48.608 Y-80.824 Z-0.200 F150.000
G3 X49.082 Y-81.299 Z-0.200 I1.217 J0.740 K0.000 F100.000
G3 X49.687 Y-81.618 Z-0.200 I0.814 J0.811 K0.000 F100.000
G3 X49.039 Y-80.955 Z-0.200 I-1.484 J-0.804 K0.000 F100.000
G3 X48.543 Y-80.706 Z-0.200 I-0.744 J-0.860 K0.000 F100.000
G3 X48.608 Y-80.824 Z-0.200 I1.282 J0.621 K0.000 F100.000
G0 Z5.000
G0 X48.495 Y-80.886 Z5.000
G0 X48.495 Y-80.886 Z3.000
G1 X48.495 Y-80.886 Z-0.200 F150.000
G3 X48.888 Y-81.303 Z-0.200 I0.996 J0.545 K0.000 F100.000
G3 X49.709 Y-81.744 Z-0.200 I1.060 J0.988 K0.000 F100.000
G3 X49.827 Y-81.649 Z-0.200 I0.010 J0.108 K0.000 F100.000
G3 X49.397 Y-81.082 Z-0.200 I-1.015 J-0.322 K0.000 F100.000
G3 X48.562 Y-80.582 Z-0.200 I-1.233 J-1.112 K0.000 F100.000
G3 X48.404 Y-80.669 Z-0.200 I-0.042 J-0.110 K0.000 F100.000
G3 X48.495 Y-80.886 Z-0.200 I1.086 J0.328 K0.000 F100.000
G0 Z5.000
G0 Z5.000
(Finish operation: Pocket_Shape)
(Begin postamble)
M5
G17 G90
M2
