(Exported by FreeCAD)
(Post Processor: grbl_post)
(Output Time:2022-08-25 12:11:42.541200)
(Begin preamble)
G17 G90
G21
(Begin operation: Fixture)
(Path: Fixture)
G54
(Finish operation: Fixture)
(Begin operation: endmill-3mm007)
(Path: endmill-3mm007)
(endmill-3mm007)
(Begin toolchange)
( M6 T2 )
M3 S10000
(Finish operation: endmill-3mm007)
(Begin operation: Profile)
(Path: Profile)
(Profile)
(Compensated Tool Path. Diameter: 3.0)
G0 Z5.000
G0 X49.264 Y0.764
G0 Z3.000
G1 X49.264 Y0.764 Z-0.500 F100.000
G2 X50.000 Y-1.000 Z-0.500 I-1.777 J-1.777 K0.000 F200.000
G1 X50.000 Y-141.000 Z-0.500 F200.000
G2 X47.500 Y-143.500 Z-0.500 I-2.513 J0.013 K0.000 F200.000
G1 X-47.500 Y-143.500 Z-0.500 F200.000
G2 X-50.000 Y-141.000 Z-0.500 I0.013 J2.513 K0.000 F200.000
G1 X-50.000 Y-1.000 Z-0.500 F200.000
G2 X-47.500 Y1.500 Z-0.500 I2.513 J-0.013 K0.000 F200.000
G1 X47.500 Y1.500 Z-0.500 F200.000
G2 X49.264 Y0.764 Z-0.500 I-0.013 J-2.513 K0.000 F200.000
G1 X49.264 Y0.764 Z-1.000 F100.000
G2 X50.000 Y-1.000 Z-1.000 I-1.777 J-1.777 K0.000 F200.000
G1 X50.000 Y-141.000 Z-1.000 F200.000
G2 X47.500 Y-143.500 Z-1.000 I-2.513 J0.013 K0.000 F200.000
G1 X-47.500 Y-143.500 Z-1.000 F200.000
G2 X-50.000 Y-141.000 Z-1.000 I0.013 J2.513 K0.000 F200.000
G1 X-50.000 Y-1.000 Z-1.000 F200.000
G2 X-47.500 Y1.500 Z-1.000 I2.513 J-0.013 K0.000 F200.000
G1 X47.500 Y1.500 Z-1.000 F200.000
G2 X49.264 Y0.764 Z-1.000 I-0.013 J-2.513 K0.000 F200.000
G1 X49.264 Y0.764 Z-1.500 F100.000
G2 X50.000 Y-1.000 Z-1.500 I-1.777 J-1.777 K0.000 F200.000
G1 X50.000 Y-141.000 Z-1.500 F200.000
G2 X47.500 Y-143.500 Z-1.500 I-2.513 J0.013 K0.000 F200.000
G1 X-47.500 Y-143.500 Z-1.500 F200.000
G2 X-50.000 Y-141.000 Z-1.500 I0.013 J2.513 K0.000 F200.000
G1 X-50.000 Y-1.000 Z-1.500 F200.000
G2 X-47.500 Y1.500 Z-1.500 I2.513 J-0.013 K0.000 F200.000
G1 X47.500 Y1.500 Z-1.500 F200.000
G2 X49.264 Y0.764 Z-1.500 I-0.013 J-2.513 K0.000 F200.000
G1 X49.264 Y0.764 Z-2.000 F100.000
G2 X50.000 Y-1.000 Z-2.000 I-1.777 J-1.777 K0.000 F200.000
G1 X50.000 Y-141.000 Z-2.000 F200.000
G2 X47.500 Y-143.500 Z-2.000 I-2.513 J0.013 K0.000 F200.000
G1 X-47.500 Y-143.500 Z-2.000 F200.000
G2 X-50.000 Y-141.000 Z-2.000 I0.013 J2.513 K0.000 F200.000
G1 X-50.000 Y-1.000 Z-2.000 F200.000
G2 X-47.500 Y1.500 Z-2.000 I2.513 J-0.013 K0.000 F200.000
G1 X47.500 Y1.500 Z-2.000 F200.000
G2 X49.264 Y0.764 Z-2.000 I-0.013 J-2.513 K0.000 F200.000
G1 X49.264 Y0.764 Z-2.400 F100.000
G2 X50.000 Y-1.000 Z-2.400 I-1.777 J-1.777 K0.000 F200.000
G1 X50.000 Y-141.000 Z-2.400 F200.000
G2 X47.500 Y-143.500 Z-2.400 I-2.513 J0.013 K0.000 F200.000
G1 X-47.500 Y-143.500 Z-2.400 F200.000
G2 X-50.000 Y-141.000 Z-2.400 I0.013 J2.513 K0.000 F200.000
G1 X-50.000 Y-1.000 Z-2.400 F200.000
G2 X-47.500 Y1.500 Z-2.400 I2.513 J-0.013 K0.000 F200.000
G1 X47.500 Y1.500 Z-2.400 F200.000
G2 X49.264 Y0.764 Z-2.400 I-0.013 J-2.513 K0.000 F200.000
G0 Z5.000
G0 Z5.000
(Finish operation: Profile)
(Begin postamble)
M5
G17 G90
M2
