(Exported by FreeCAD)
(Post Processor: grbl_post)
(Output Time:2022-08-26 18:08:57.808763)
(Begin preamble)
G17 G90
G21
(Begin operation: Fixture)
(Path: Fixture)
G54
(Finish operation: Fixture)
(Begin operation: surfacing-25mm009)
(Path: surfacing-25mm009)
(surfacing-25mm009)
(Begin toolchange)
( M6 T2 )
M3 S10000
(Finish operation: surfacing-25mm009)
(Begin operation: MillFace001)
(Path: MillFace001)
(MillFace001)
G0 Z5.000
G0 X-60.100 Y0.100
G0 Z3.000
G1 X-60.100 Y0.100 Z-0.100 F100.000
G1 X-60.100 Y-150.100 Z-0.100 F250.000
G1 X-53.850 Y-150.100 Z-0.100 F250.000
G1 X-53.850 Y0.100 Z-0.100 F250.000
G1 X-47.600 Y0.100 Z-0.100 F250.000
G1 X-47.600 Y-150.100 Z-0.100 F250.000
G1 X-41.350 Y-150.100 Z-0.100 F250.000
G1 X-41.350 Y0.100 Z-0.100 F250.000
G1 X-35.100 Y0.100 Z-0.100 F250.000
G1 X-35.100 Y-150.100 Z-0.100 F250.000
G1 X-28.850 Y-150.100 Z-0.100 F250.000
G1 X-28.850 Y0.100 Z-0.100 F250.000
G1 X-22.600 Y0.100 Z-0.100 F250.000
G1 X-22.600 Y-150.100 Z-0.100 F250.000
G1 X-16.350 Y-150.100 Z-0.100 F250.000
G1 X-16.350 Y0.100 Z-0.100 F250.000
G1 X-10.100 Y0.100 Z-0.100 F250.000
G1 X-10.100 Y-150.100 Z-0.100 F250.000
G1 X-3.850 Y-150.100 Z-0.100 F250.000
G1 X-3.850 Y0.100 Z-0.100 F250.000
G1 X2.400 Y0.100 Z-0.100 F250.000
G1 X2.400 Y-150.100 Z-0.100 F250.000
G1 X8.650 Y-150.100 Z-0.100 F250.000
G1 X8.650 Y0.100 Z-0.100 F250.000
G1 X14.900 Y0.100 Z-0.100 F250.000
G1 X14.900 Y-150.100 Z-0.100 F250.000
G1 X21.150 Y-150.100 Z-0.100 F250.000
G1 X21.150 Y0.100 Z-0.100 F250.000
G1 X27.400 Y0.100 Z-0.100 F250.000
G1 X27.400 Y-150.100 Z-0.100 F250.000
G1 X33.650 Y-150.100 Z-0.100 F250.000
G1 X33.650 Y0.100 Z-0.100 F250.000
G1 X39.900 Y0.100 Z-0.100 F250.000
G1 X39.900 Y-150.100 Z-0.100 F250.000
G1 X46.150 Y-150.100 Z-0.100 F250.000
G1 X46.150 Y0.100 Z-0.100 F250.000
G1 X52.400 Y0.100 Z-0.100 F250.000
G1 X52.400 Y-150.100 Z-0.100 F250.000
G1 X58.650 Y-150.100 Z-0.100 F250.000
G1 X60.100 Y-150.100 Z-0.100 F250.000
G1 X60.100 Y0.100 Z-0.100 F250.000
G1 X58.650 Y0.100 Z-0.100 F250.000
G1 X58.650 Y-150.100 Z-0.100 F250.000
G0 Z5.000
G0 Z5.000
(Finish operation: MillFace001)
(Begin postamble)
M5
G17 G90
M2
