(Exported by FreeCAD)
(Post Processor: grbl_post)
(Output Time:2022-08-26 18:09:15.853408)
(Begin preamble)
G17 G90
G21
(Begin operation: Fixture)
(Path: Fixture)
G54
(Finish operation: Fixture)
(Begin operation: surfacing-25mm007)
(Path: surfacing-25mm007)
(surfacing-25mm007)
(Begin toolchange)
( M6 T2 )
M3 S10000
(Finish operation: surfacing-25mm007)
(Begin operation: MillFace)
(Path: MillFace)
(MillFace)
G0 Z5.000
G0 X60.100 Y0.100
G0 Z3.000
G1 X60.100 Y0.100 Z-0.100 F100.000
G1 X-60.100 Y0.100 Z-0.100 F250.000
G1 X-60.100 Y-6.150 Z-0.100 F250.000
G1 X60.100 Y-6.150 Z-0.100 F250.000
G1 X60.100 Y-12.400 Z-0.100 F250.000
G1 X-60.100 Y-12.400 Z-0.100 F250.000
G1 X-60.100 Y-18.650 Z-0.100 F250.000
G1 X60.100 Y-18.650 Z-0.100 F250.000
G1 X60.100 Y-24.900 Z-0.100 F250.000
G1 X-60.100 Y-24.900 Z-0.100 F250.000
G1 X-60.100 Y-31.150 Z-0.100 F250.000
G1 X60.100 Y-31.150 Z-0.100 F250.000
G1 X60.100 Y-37.400 Z-0.100 F250.000
G1 X-60.100 Y-37.400 Z-0.100 F250.000
G1 X-60.100 Y-43.650 Z-0.100 F250.000
G1 X60.100 Y-43.650 Z-0.100 F250.000
G1 X60.100 Y-49.900 Z-0.100 F250.000
G1 X-60.100 Y-49.900 Z-0.100 F250.000
G1 X-60.100 Y-56.150 Z-0.100 F250.000
G1 X60.100 Y-56.150 Z-0.100 F250.000
G1 X60.100 Y-62.400 Z-0.100 F250.000
G1 X-60.100 Y-62.400 Z-0.100 F250.000
G1 X-60.100 Y-68.650 Z-0.100 F250.000
G1 X60.100 Y-68.650 Z-0.100 F250.000
G1 X60.100 Y-74.900 Z-0.100 F250.000
G1 X-60.100 Y-74.900 Z-0.100 F250.000
G1 X-60.100 Y-81.150 Z-0.100 F250.000
G1 X60.100 Y-81.150 Z-0.100 F250.000
G1 X60.100 Y-87.400 Z-0.100 F250.000
G1 X-60.100 Y-87.400 Z-0.100 F250.000
G1 X-60.100 Y-93.650 Z-0.100 F250.000
G1 X60.100 Y-93.650 Z-0.100 F250.000
G1 X60.100 Y-99.900 Z-0.100 F250.000
G1 X-60.100 Y-99.900 Z-0.100 F250.000
G1 X-60.100 Y-106.150 Z-0.100 F250.000
G1 X60.100 Y-106.150 Z-0.100 F250.000
G1 X60.100 Y-112.400 Z-0.100 F250.000
G1 X-60.100 Y-112.400 Z-0.100 F250.000
G1 X-60.100 Y-118.650 Z-0.100 F250.000
G1 X60.100 Y-118.650 Z-0.100 F250.000
G1 X60.100 Y-124.900 Z-0.100 F250.000
G1 X-60.100 Y-124.900 Z-0.100 F250.000
G1 X-60.100 Y-131.150 Z-0.100 F250.000
G1 X60.100 Y-131.150 Z-0.100 F250.000
G1 X60.100 Y-137.400 Z-0.100 F250.000
G1 X-60.100 Y-137.400 Z-0.100 F250.000
G1 X-60.100 Y-143.650 Z-0.100 F250.000
G1 X60.100 Y-143.650 Z-0.100 F250.000
G1 X60.100 Y-149.900 Z-0.100 F250.000
G1 X-60.100 Y-149.900 Z-0.100 F250.000
G1 X-60.100 Y-150.100 Z-0.100 F250.000
G1 X60.100 Y-150.100 Z-0.100 F250.000
G1 X60.100 Y-149.900 Z-0.100 F250.000
G0 Z5.000
G0 Z5.000
(Finish operation: MillFace)
(Begin postamble)
M5
G17 G90
M2
