(Exported by FreeCAD)
(Post Processor: grbl_post)
(Output Time:2022-08-23 12:14:02.570935)
(Begin preamble)
G17 G90
G21
(Begin operation: Fixture)
(Path: Fixture)
G54
(Finish operation: Fixture)
(Begin operation: ballend-025mm001)
(Path: ballend-025mm001)
(ballend-025mm001)
(Begin toolchange)
( M6 T3 )
M3 S1000
(Finish operation: ballend-025mm001)
(Begin operation: Profile)
(Path: Profile)
(Profile)
(Compensated Tool Path. Diameter: 0.25)
G0 Z5.000
G0 X5.295 Y-18.705
G0 Z3.000
G1 X5.295 Y-18.705 Z-0.150 F100.000
G3 X3.861 Y-18.575 Z-0.150 I-0.795 J-0.795 K0.000 F250.000
G3 X5.139 Y-20.425 Z-0.150 I0.639 J-0.925 K0.000 F250.000
G3 X5.295 Y-18.705 Z-0.150 I-0.639 J0.925 K0.000 F250.000
G0 Z5.000
G0 Z5.000
G0 X5.295 Y-18.705
G0 X-0.123 Y-18.706
G0 X-0.123 Y-18.706 Z3.000
G1 X-0.123 Y-18.706 Z-0.150 F100.000
G1 X-0.125 Y-0.250 Z-0.150 F250.000
G2 X0.226 Y0.123 Z-0.150 I0.376 J-0.003 K0.000 F250.000
G1 X38.750 Y0.125 Z-0.150 F250.000
G2 X39.123 Y-0.226 Z-0.150 I-0.003 J-0.376 K0.000 F250.000
G1 X39.125 Y-23.750 Z-0.150 F250.000
G2 X38.774 Y-24.123 Z-0.150 I-0.376 J0.003 K0.000 F250.000
G1 X0.250 Y-24.125 Z-0.150 F250.000
G2 X-0.123 Y-23.774 Z-0.150 I0.003 J0.376 K0.000 F250.000
G1 X-0.123 Y-18.706 Z-0.150 F250.000
G0 Z5.000
G0 Z5.000
(Finish operation: Profile)
(Begin postamble)
M5
G17 G90
M2
