(Exported by FreeCAD)
(Post Processor: grbl_post)
(Output Time:2022-08-23 16:13:05.598360)
(Begin preamble)
G17 G90
G21
(Begin operation: Fixture)
(Path: Fixture)
G54
(Finish operation: Fixture)
(Begin operation: ballend-010mm001)
(Path: ballend-010mm001)
(ballend-010mm001)
(Begin toolchange)
( M6 T4 )
M3 S1000
(Finish operation: ballend-010mm001)
(Begin operation: Profile)
(Path: Profile)
(Profile)
(Compensated Tool Path. Diameter: 0.1)
G0 Z5.000
G0 X5.348 Y-18.652
G0 Z3.000
G1 X5.348 Y-18.652 Z-0.150 F100.000
G3 X3.819 Y-18.513 Z-0.150 I-0.848 J-0.848 K0.000 F100.000
G3 X3.513 Y-20.181 Z-0.150 I0.681 J-0.987 K0.000 F100.000
G3 X5.181 Y-20.487 Z-0.150 I0.987 J0.681 K0.000 F100.000
G3 X5.348 Y-18.652 Z-0.150 I-0.681 J0.987 K0.000 F100.000
G0 Z5.000
G0 Z5.000
G0 X5.348 Y-18.652
G0 X-0.049 Y-18.652
G0 X-0.049 Y-18.652 Z3.000
G1 X-0.049 Y-18.652 Z-0.150 F100.000
G1 X-0.050 Y-0.250 Z-0.150 F100.000
G2 X0.240 Y0.049 Z-0.150 I0.301 J-0.001 K0.000 F100.000
G1 X38.750 Y0.050 Z-0.150 F100.000
G2 X39.049 Y-0.240 Z-0.150 I-0.001 J-0.301 K0.000 F100.000
G1 X39.050 Y-23.750 Z-0.150 F100.000
G2 X38.760 Y-24.049 Z-0.150 I-0.301 J0.001 K0.000 F100.000
G1 X0.250 Y-24.050 Z-0.150 F100.000
G2 X-0.049 Y-23.760 Z-0.150 I0.001 J0.301 K0.000 F100.000
G1 X-0.049 Y-18.652 Z-0.150 F100.000
G0 Z5.000
G0 Z5.000
(Finish operation: Profile)
(Begin postamble)
M5
G17 G90
M2
