; generated by PrusaSlicer 2.4.2 on 2022-08-20 at 17:54:20 UTC

; 

; external perimeters extrusion width = 0.45mm
; perimeters extrusion width = 0.45mm
; infill extrusion width = 0.45mm
; solid infill extrusion width = 0.45mm
; top infill extrusion width = 0.40mm
; support material extrusion width = 0.38mm
; first layer extrusion width = 0.80mm

M107
;TYPE:Custom
G90 ; use absolute coordinates
M83 ; extruder relative mode
M140 S55 ; set final bed temp
M104 S150 ; set temporary nozzle temp to prevent oozing during homing
G4 S10 ; allow partial nozzle warmup
G28 ; home all axis
G1 Z50 F240
G1 X2 Y10 F3000
M104 S205 ; set final nozzle temp
M190 S55 ; wait for bed temp to stabilize
M109 S205 ; wait for nozzle temp to stabilize
G1 Z0.28 F240
G92 E0
G1 Y140 E10 F1500 ; prime the nozzle
G1 X2.3 F5000
G92 E0
G1 Y10 E10 F1200 ; prime the nozzle
G92 E0
G21 ; set units to millimeters
G90 ; use absolute coordinates
M83 ; use relative distances for extrusion
; Filament gcode
M107
;LAYER_CHANGE
;Z:0.4
;HEIGHT:0.4
;BEFORE_LAYER_CHANGE
G92 E0
;0.4


G1 E-5 F3600
G1 Z.4 F9000
;AFTER_LAYER_CHANGE
;0.4
G1 X82.78 Y94.522
G1 E5 F2400
M204 S500
;TYPE:Skirt/Brim
;WIDTH:0.8
G1 F1200
G1 X85 Y93.786 E.27773
G1 X135 Y93.786 E5.93826
G1 X136.666 Y94.18 E.20334
G1 X137.978 Y95.28 E.20334
G1 X138.714 Y97.5 E.27773
G1 X138.714 Y122.5 E2.96913
G1 X138.32 Y124.166 E.20334
G1 X137.22 Y125.478 E.20334
G1 X135 Y126.214 E.27773
G1 X85 Y126.214 E5.93826
G1 X83.334 Y125.82 E.20334
G1 X82.022 Y124.72 E.20334
G1 X81.286 Y122.5 E.27773
G1 X81.286 Y97.5 E2.96913
G1 X81.68 Y95.834 E.20334
G1 X82.742 Y94.568 E.19621
G1 E-3.5 F3600
;WIPE_START
G1 F7200
G1 X85 Y93.786 E-1.13511
G1 X85.61 Y93.786 E-.28989
;WIPE_END
G1 E-.075 F3600
G1 X89.238 Y114.655 F9000
G1 E5 F2400
;TYPE:Perimeter
G1 F1200
G1 X89.947 Y114.562 E.08492
G1 X90.741 Y114.646 E.09483
G1 X91.472 Y114.95 E.09407
G1 X92.101 Y115.432 E.09407
G1 X92.571 Y116.077 E.09483
G1 X92.845 Y116.738 E.08492
G1 X92.945 Y117.5 E.0913
G1 X92.845 Y118.262 E.09131
G1 X92.55 Y118.972 E.0913
G1 X92.082 Y119.582 E.09131
G1 X91.472 Y120.05 E.09131
G1 X90.762 Y120.345 E.0913
G1 X90 Y120.445 E.09131
G1 X89.238 Y120.345 E.09131
G1 X88.528 Y120.05 E.0913
G1 X87.918 Y119.582 E.09131
G1 X87.45 Y118.972 E.09131
G1 X87.155 Y118.262 E.0913
G1 X87.055 Y117.5 E.09131
G1 X87.155 Y116.738 E.0913
G1 X87.45 Y116.028 E.09131
G1 X87.918 Y115.418 E.09131
G1 X88.528 Y114.95 E.09131
G1 X89.182 Y114.678 E.08418
G1 X89.424 Y115.351 F9000
G1 F1200
G1 X89.956 Y115.281 E.06366
G1 X90.563 Y115.346 E.0725
G1 X91.112 Y115.573 E.07065
G1 X91.584 Y115.936 E.07065
G1 X91.944 Y116.429 E.0725
G1 X92.149 Y116.924 E.06367
G1 X92.225 Y117.5 E.06897
G1 X92.149 Y118.076 E.06897
G1 X91.927 Y118.612 E.06897
G1 X91.573 Y119.073 E.06897
G1 X91.112 Y119.427 E.06897
G1 X90.576 Y119.649 E.06897
G1 X90 Y119.725 E.06897
G1 X89.424 Y119.649 E.06897
G1 X88.888 Y119.427 E.06897
G1 X88.427 Y119.073 E.06897
G1 X88.073 Y118.612 E.06897
G1 X87.851 Y118.076 E.06897
G1 X87.775 Y117.5 E.06897
G1 X87.851 Y116.924 E.06897
G1 X88.073 Y116.388 E.06897
G1 X88.427 Y115.927 E.06897
G1 X88.888 Y115.573 E.06897
G1 X89.369 Y115.374 E.06185
G1 X89.611 Y116.047 F9000
;TYPE:External perimeter
G1 F1200
G1 X89.965 Y116 E.04241
G1 X90.385 Y116.045 E.05016
G1 X90.752 Y116.197 E.04724
G1 X91.068 Y116.439 E.04724
G1 X91.316 Y116.781 E.05016
G1 X91.453 Y117.111 E.04241
G1 X91.504 Y117.5 E.04664
G1 X91.453 Y117.889 E.04664
G1 X91.303 Y118.252 E.04664
G1 X91.064 Y118.564 E.04664
G1 X90.752 Y118.803 E.04664
G1 X90.389 Y118.953 E.04664
G1 X90 Y119.004 E.04664
G1 X89.611 Y118.953 E.04664
G1 X89.248 Y118.803 E.04664
G1 X88.936 Y118.564 E.04664
G1 X88.697 Y118.252 E.04664
G1 X88.547 Y117.889 E.04664
G1 X88.496 Y117.5 E.04664
G1 X88.547 Y117.111 E.04664
G1 X88.697 Y116.748 E.04664
G1 X88.936 Y116.436 E.04664
G1 X89.248 Y116.197 E.04664
G1 X89.555 Y116.07 E.03951
G1 X89.703 Y115.702 F9000
G1 E-3.5 F3600
;WIPE_START
G1 F7200
G1 X89.965 Y116 E-.19727
G1 X90.385 Y116.045 E-.20062
G1 X90.752 Y116.197 E-.18895
G1 X91.068 Y116.439 E-.18895
G1 X91.316 Y116.781 E-.20061
G1 X91.453 Y117.111 E-.16961
G1 X91.504 Y117.5 E-.18654
G1 X91.479 Y117.693 E-.09245
;WIPE_END
G1 E-.075 F3600
G1 X89.051 Y113.96 F9000
G1 E5 F2400
;TYPE:Perimeter
G1 F1200
G1 X88.167 Y114.326 E.11364
G1 X87.642 Y114.729 E.07857
G1 X87.642 Y100.142 E1.73232
G1 X132.358 Y100.142 E5.31059
G1 X132.358 Y119.858 E2.34146
G1 X92.771 Y119.858 E4.70144
G1 X93.174 Y119.333 E.07858
G1 X93.54 Y118.449 E.11364
G1 X93.665 Y117.5 E.11364
G1 X93.54 Y116.551 E.11364
G1 X93.198 Y115.725 E.10618
G1 X92.617 Y114.928 E.11717
G1 X91.833 Y114.326 E.11748
G1 X90.919 Y113.947 E.11748
G1 X89.938 Y113.843 E.11717
G1 X89.111 Y113.952 E.09905
G1 E-3.5 F3600
;WIPE_START
G1 F7200
G1 X88.167 Y114.326 E-.48208
G1 X87.642 Y114.729 E-.31426
G1 X87.642 Y113.405 E-.62866
;WIPE_END
G1 E-.075 F3600
G1 X86.928 Y120.572 F9000
G1 E5 F2400
G1 F1200
G1 X86.928 Y99.428 E2.5111
G1 X133.072 Y99.428 E5.48022
G1 X133.072 Y120.572 E2.5111
G1 X86.988 Y120.572 E5.4731
G1 X86.214 Y121.286 F9000
G1 F1200
G1 X86.214 Y98.714 E2.68073
G1 X133.786 Y98.714 E5.64986
G1 X133.786 Y121.286 E2.68073
G1 X86.274 Y121.286 E5.64273
G1 X85.5 Y122 F9000
;TYPE:External perimeter
G1 F1200
G1 X85.5 Y98 E2.85036
G1 X134.5 Y98 E5.81949
G1 X134.5 Y122 E2.85036
G1 X85.56 Y122 E5.81237
G1 X85.645 Y121.627 F9000
G1 E-3.5 F3600
;WIPE_START
G1 F7200
G1 X85.553 Y119 E-1.425
;WIPE_END
G1 E-.075 F3600
G1 X87.507 Y119.993 F9000
G1 E5 F2400
;TYPE:Gap fill
;WIDTH:0.528143
G1 F1200
G1 X87.301 Y119.447 E.04296
G1 X87.507 Y119.993 F9000
;WIDTH:0.528144
G1 F1200
G1 X88.053 Y120.199 E.04296
G1 E-3.5 F3600
;WIPE_START
G1 F7200
G1 X87.507 Y119.993 E-.27743
;WIPE_END
G1 E-1.22257 F3600
G1 X132.143 Y101.82 F9000
G1 E5 F2400
;TYPE:Solid infill
;WIDTH:0.809235
G1 F1200
G1 X131.001 Y100.678 E.19426
G1 X129.978 Y100.678 E.12307
G1 X131.822 Y102.522 E.31364
G1 X131.822 Y103.545 E.12307
G1 X128.955 Y100.678 E.48769
G1 X127.932 Y100.678 E.12307
G1 X131.822 Y104.568 E.66174
G1 X131.822 Y105.591 E.12307
G1 X126.909 Y100.678 E.83579
G1 X125.886 Y100.678 E.12307
G1 X131.822 Y106.614 E1.00984
G1 X131.822 Y107.637 E.12307
G1 X124.863 Y100.678 E1.18389
G1 X123.84 Y100.678 E.12307
G1 X131.822 Y108.66 E1.35794
G1 X131.822 Y109.683 E.12307
G1 X122.817 Y100.678 E1.53199
G1 X121.794 Y100.678 E.12307
G1 X131.822 Y110.706 E1.70604
G1 X131.822 Y111.729 E.12307
G1 X120.771 Y100.678 E1.88009
G1 X119.748 Y100.678 E.12307
G1 X131.822 Y112.752 E2.05414
G1 X131.822 Y113.775 E.12307
G1 X118.725 Y100.678 E2.22819
G1 X117.702 Y100.678 E.12307
G1 X131.822 Y114.798 E2.40224
G1 X131.822 Y115.821 E.12307
G1 X116.679 Y100.678 E2.57629
G1 X115.656 Y100.678 E.12307
G1 X131.822 Y116.844 E2.75034
G1 X131.822 Y117.867 E.12307
G1 X114.633 Y100.678 E2.92439
G1 X113.61 Y100.678 E.12307
G1 X131.822 Y118.89 E3.09843
G1 X131.822 Y119.322 E.05195
G1 X131.231 Y119.322 E.07113
G1 X112.587 Y100.678 E3.1719
G1 X111.564 Y100.678 E.12307
G1 X130.208 Y119.322 E3.1719
G1 X129.185 Y119.322 E.12307
G1 X110.541 Y100.678 E3.1719
G1 X109.518 Y100.678 E.12307
G1 X128.162 Y119.322 E3.1719
G1 X127.139 Y119.322 E.12307
G1 X108.495 Y100.678 E3.1719
G1 X107.472 Y100.678 E.12307
G1 X126.116 Y119.322 E3.1719
G1 X125.092 Y119.322 E.12307
G1 X106.449 Y100.678 E3.1719
G1 X105.426 Y100.678 E.12307
G1 X124.069 Y119.322 E3.1719
G1 X123.046 Y119.322 E.12307
G1 X104.403 Y100.678 E3.1719
G1 X103.38 Y100.678 E.12307
G1 X122.023 Y119.322 E3.1719
G1 X121 Y119.322 E.12307
G1 X102.357 Y100.678 E3.1719
G1 X101.333 Y100.678 E.12307
G1 X119.977 Y119.322 E3.1719
G1 X118.954 Y119.322 E.12307
G1 X100.31 Y100.678 E3.1719
G1 X99.287 Y100.678 E.12307
G1 X117.931 Y119.322 E3.1719
G1 X116.908 Y119.322 E.12307
G1 X98.264 Y100.678 E3.1719
G1 X97.241 Y100.678 E.12307
G1 X115.885 Y119.322 E3.1719
G1 X114.862 Y119.322 E.12307
G1 X96.218 Y100.678 E3.1719
G1 X95.195 Y100.678 E.12307
G1 X113.839 Y119.322 E3.1719
G1 X112.816 Y119.322 E.12307
G1 X94.172 Y100.678 E3.1719
G1 X93.149 Y100.678 E.12307
G1 X111.793 Y119.322 E3.1719
G1 X110.77 Y119.322 E.12307
G1 X92.126 Y100.678 E3.1719
G1 X91.103 Y100.678 E.12307
G1 X109.747 Y119.322 E3.1719
G1 X108.724 Y119.322 E.12307
G1 X90.08 Y100.678 E3.1719
G1 X89.057 Y100.678 E.12307
G1 X107.701 Y119.322 E3.1719
G1 X106.678 Y119.322 E.12307
G1 X88.178 Y100.822 E3.14739
G1 X88.178 Y101.845 E.12307
G1 X105.655 Y119.322 E2.97334
G1 X104.632 Y119.322 E.12307
G1 X88.178 Y102.868 E2.79929
G1 X88.178 Y103.891 E.12307
G1 X103.609 Y119.322 E2.62524
G1 X102.586 Y119.322 E.12307
G1 X88.178 Y104.914 E2.45119
G1 X88.178 Y105.937 E.12307
G1 X101.563 Y119.322 E2.27714
G1 X100.54 Y119.322 E.12307
G1 X88.178 Y106.96 E2.10309
G1 X88.178 Y107.983 E.12307
G1 X99.517 Y119.322 E1.92904
G1 X98.494 Y119.322 E.12307
G1 X88.178 Y109.006 E1.75499
G1 X88.178 Y110.029 E.12307
G1 X97.471 Y119.322 E1.58094
G1 X96.448 Y119.322 E.12307
G1 X94.142 Y117.016 E.39227
G1 X94.206 Y117.5 E.0587
G1 X94.135 Y118.033 E.06465
G1 X95.425 Y119.322 E.21932
G1 X94.401 Y119.322 E.12307
G1 X93.701 Y118.621 E.11921
G1 E-3.5 F3600
;WIPE_START
G1 F7200
G1 X94.401 Y119.322 E-.47068
G1 X95.425 Y119.322 E-.48594
G1 X94.727 Y118.625 E-.46838
;WIPE_END
G1 E-.075 F3600
G1 X90.85 Y113.724 F9000
G1 E5 F2400
G1 F1200
G1 X88.178 Y111.052 E.4546
G1 X88.178 Y112.076 E.12307
G1 X89.467 Y113.365 E.21932
G1 X88.912 Y113.438 E.06743
G1 X88.633 Y113.553 E.03629
G1 X87.857 Y112.777 E.13204
M106 S255
;LAYER_CHANGE
;Z:0.6
;HEIGHT:0.2
;BEFORE_LAYER_CHANGE
G92 E0
;0.6


G1 E-3.5 F3600
;WIPE_START
G1 F7200
G1 X88.633 Y113.553 E-.52134
G1 X88.912 Y113.438 E-.1433
G1 X89.467 Y113.365 E-.26623
G1 X88.732 Y112.629 E-.49413
;WIPE_END
G1 E-.075 F3600
G1 Z.6 F9000
;AFTER_LAYER_CHANGE
;0.6
M104 S200 ; set temperature
M140 S50 ; set bed temperature
G1 X81.286 Y112.629
G1 E5 F2400
;TYPE:Skirt/Brim
;WIDTH:0.8
G1 X81.286 Y97.5 E.9524
G1 X81.68 Y95.834 E.10778
G1 X82.78 Y94.522 E.10778
G1 X85 Y93.786 E.14721
G1 X135 Y93.786 E3.14757
G1 X136.666 Y94.18 E.10778
G1 X137.978 Y95.28 E.10778
G1 X138.714 Y97.5 E.14721
G1 X138.714 Y122.5 E1.57379
G1 X138.32 Y124.166 E.10778
G1 X137.22 Y125.478 E.10778
G1 X135 Y126.214 E.14721
G1 X85 Y126.214 E3.14757
G1 X83.334 Y125.82 E.10778
G1 X82.022 Y124.72 E.10778
G1 X81.286 Y122.5 E.14721
G1 X81.286 Y112.689 E.61761
G1 E-3.5 F3600
;WIPE_START
G1 F7200
G1 X81.286 Y109.689 E-1.425
;WIPE_END
G1 E-.075 F3600
G1 X87.871 Y116.271 F9000
G1 E5 F2400
;TYPE:Perimeter
;WIDTH:0.45
G1 X88.261 Y115.761 E.02173
G1 X88.771 Y115.371 E.02173
G1 X89.364 Y115.125 E.02173
G1 X89.93 Y115.051 E.01933
G1 X90.611 Y115.115 E.02316
G1 X91.229 Y115.371 E.02265
G1 X91.739 Y115.761 E.02173
G1 X92.129 Y116.271 E.02173
G1 X92.375 Y116.864 E.02173
G1 X92.459 Y117.5 E.02173
G1 X92.375 Y118.136 E.02173
G1 X92.129 Y118.729 E.02173
G1 X91.739 Y119.239 E.02173
G1 X91.229 Y119.629 E.02173
G1 X90.636 Y119.875 E.02173
G1 X90 Y119.959 E.02173
G1 X89.364 Y119.875 E.02173
G1 X88.771 Y119.629 E.02173
G1 X88.261 Y119.239 E.02173
G1 X87.871 Y118.729 E.02173
G1 X87.625 Y118.136 E.02173
G1 X87.541 Y117.5 E.02173
G1 X87.625 Y116.864 E.02173
G1 X87.848 Y116.326 E.01969
G1 X88.226 Y116.476 F9000
G1 F2400
G1 X88.552 Y116.052 E.0181
G1 X88.976 Y115.726 E.0181
G1 X89.47 Y115.522 E.0181
G1 X89.937 Y115.46 E.01596
G1 X90.512 Y115.514 E.01953
G1 X91.024 Y115.726 E.01876
G1 X91.448 Y116.052 E.0181
G1 X91.774 Y116.476 E.0181
G1 X91.978 Y116.97 E.0181
G1 X92.048 Y117.5 E.0181
G1 X91.978 Y118.03 E.0181
G1 X91.774 Y118.524 E.0181
G1 X91.448 Y118.948 E.0181
G1 X91.024 Y119.274 E.0181
G1 X90.53 Y119.478 E.0181
G1 X90 Y119.548 E.0181
G1 X89.47 Y119.478 E.0181
G1 X88.976 Y119.274 E.0181
G1 X88.552 Y118.948 E.0181
G1 X88.226 Y118.524 E.0181
G1 X88.022 Y118.03 E.0181
G1 X87.952 Y117.5 E.0181
G1 X88.022 Y116.97 E.0181
G1 X88.203 Y116.531 E.01607
G1 X88.582 Y116.681 F9000
G1 F2400
G1 X88.842 Y116.342 E.01447
G1 X89.181 Y116.082 E.01447
G1 X89.576 Y115.918 E.01447
G1 X89.945 Y115.87 E.01259
G1 X90.413 Y115.914 E.0159
G1 X90.819 Y116.082 E.01487
G1 X91.158 Y116.342 E.01447
G1 X91.418 Y116.681 E.01447
G1 X91.582 Y117.076 E.01447
G1 X91.638 Y117.5 E.01447
G1 X91.582 Y117.924 E.01447
G1 X91.418 Y118.319 E.01447
G1 X91.158 Y118.658 E.01447
G1 X90.819 Y118.918 E.01447
G1 X90.424 Y119.082 E.01447
G1 X90 Y119.138 E.01447
G1 X89.576 Y119.082 E.01447
G1 X89.181 Y118.918 E.01447
G1 X88.842 Y118.658 E.01447
G1 X88.582 Y118.319 E.01447
G1 X88.418 Y117.924 E.01447
G1 X88.362 Y117.5 E.01447
G1 X88.418 Y117.076 E.01447
G1 X88.559 Y116.737 E.01244
G1 X88.937 Y116.887 F9000
;TYPE:External perimeter
G1 F2400
G1 X89.132 Y116.632 E.01084
G1 X89.387 Y116.437 E.01084
G1 X89.682 Y116.315 E.01084
G1 X89.953 Y116.279 E.00923
G1 X90.314 Y116.313 E.01227
G1 X90.613 Y116.437 E.01099
G1 X90.868 Y116.632 E.01084
G1 X91.063 Y116.887 E.01084
G1 X91.185 Y117.182 E.01084
G1 X91.227 Y117.5 E.01084
G1 X91.185 Y117.818 E.01084
G1 X91.063 Y118.113 E.01084
G1 X90.868 Y118.368 E.01084
G1 X90.613 Y118.563 E.01084
G1 X90.318 Y118.685 E.01084
G1 X90 Y118.727 E.01084
G1 X89.682 Y118.685 E.01084
G1 X89.387 Y118.563 E.01084
G1 X89.132 Y118.368 E.01084
G1 X88.937 Y118.113 E.01084
G1 X88.815 Y117.818 E.01084
G1 X88.773 Y117.5 E.01084
G1 X88.815 Y117.182 E.01084
G1 X88.914 Y116.942 E.00881
G1 X88.777 Y116.609 F9000
G1 E-3.5 F3600
;WIPE_START
G1 F7200
G1 X89.132 Y116.632 E-.17982
G1 X89.387 Y116.437 E-.15214
G1 X89.682 Y116.315 E-.15214
G1 X89.953 Y116.279 E-.12946
G1 X90.314 Y116.313 E-.17221
G1 X90.613 Y116.437 E-.15416
G1 X90.868 Y116.632 E-.15214
G1 X91.063 Y116.887 E-.15214
G1 X91.185 Y117.182 E-.15214
G1 X91.193 Y117.242 E-.02864
;WIPE_END
G1 E-.075 F3600
G1 X86.446 Y121.054 F9000
G1 E5 F2400
;TYPE:Perimeter
G1 X86.446 Y98.946 E.74831
G1 X133.554 Y98.946 E1.59453
G1 X133.554 Y121.054 E.74831
G1 X86.506 Y121.054 E1.5925
G1 X86.039 Y121.461 F9000
G1 F2400
G1 X86.039 Y98.539 E.77587
G1 X133.961 Y98.539 E1.62209
G1 X133.961 Y121.461 E.77587
G1 X86.099 Y121.461 E1.62006
G1 X85.632 Y121.868 F9000
G1 F2400
G1 X85.632 Y98.132 E.80343
G1 X134.368 Y98.132 E1.64965
G1 X134.368 Y121.868 E.80343
G1 X85.692 Y121.868 E1.64762
G1 X85.225 Y122.275 F9000
;TYPE:External perimeter
G1 F2400
G1 X85.225 Y97.725 E.83099
G1 X134.775 Y97.725 E1.67721
G1 X134.775 Y122.275 E.83099
G1 X85.285 Y122.275 E1.67518
G1 X85.37 Y121.902 F9000
G1 E-3.5 F3600
;WIPE_START
G1 F7200
G1 X85.278 Y119.275 E-1.425
;WIPE_END
G1 E-.075 F3600
G1 X132.605 Y120.932 F9000
G1 E5 F2400
;TYPE:Solid infill
;WIDTH:0.451782
G1 F1200
G1 X133.248 Y120.288 E.03094
G1 X133.248 Y119.71 E.01966
G1 X132.21 Y120.748 E.04993
G1 X131.632 Y120.748 E.01966
G1 X133.248 Y119.132 E.07773
G1 X133.248 Y118.553 E.01966
G1 X131.053 Y120.748 E.10553
G1 X130.475 Y120.748 E.01966
G1 X133.248 Y117.975 E.13333
G1 X133.248 Y117.397 E.01966
G1 X129.897 Y120.748 E.16113
G1 X129.319 Y120.748 E.01966
G1 X133.248 Y116.819 E.18893
G1 X133.248 Y116.241 E.01966
G1 X128.741 Y120.748 E.21673
G1 X128.162 Y120.748 E.01966
G1 X133.248 Y115.662 E.24453
G1 X133.248 Y115.084 E.01966
G1 X127.584 Y120.748 E.27233
G1 X127.006 Y120.748 E.01966
G1 X133.248 Y114.506 E.30013
G1 X133.248 Y113.928 E.01966
G1 X126.428 Y120.748 E.32793
G1 X125.85 Y120.748 E.01966
G1 X133.248 Y113.35 E.35573
G1 X133.248 Y112.771 E.01966
G1 X125.271 Y120.748 E.38353
G1 X124.693 Y120.748 E.01966
G1 X133.248 Y112.193 E.41133
G1 X133.248 Y111.615 E.01966
G1 X124.115 Y120.748 E.43913
G1 X123.537 Y120.748 E.01966
G1 X133.248 Y111.037 E.46693
G1 X133.248 Y110.458 E.01966
G1 X122.958 Y120.748 E.49473
G1 X122.38 Y120.748 E.01966
G1 X133.248 Y109.88 E.52253
G1 X133.248 Y109.302 E.01966
G1 X121.802 Y120.748 E.55033
G1 X121.224 Y120.748 E.01966
G1 X133.248 Y108.724 E.57814
G1 X133.248 Y108.146 E.01966
G1 X120.646 Y120.748 E.60594
G1 X120.067 Y120.748 E.01966
G1 X133.248 Y107.567 E.63374
G1 X133.248 Y106.989 E.01966
G1 X119.489 Y120.748 E.66154
G1 X118.911 Y120.748 E.01966
G1 X133.248 Y106.411 E.68934
G1 X133.248 Y105.833 E.01966
G1 X118.333 Y120.748 E.71714
G1 X117.754 Y120.748 E.01966
G1 X133.248 Y105.254 E.74494
G1 X133.248 Y104.676 E.01966
G1 X117.176 Y120.748 E.77274
G1 X116.598 Y120.748 E.01966
G1 X133.248 Y104.098 E.80054
G1 X133.248 Y103.52 E.01966
G1 X116.02 Y120.748 E.82834
