(Exported by FreeCAD)
(Post Processor: grbl_post)
(Output Time:2022-08-13 16:00:28.902176)
(Begin preamble)
G17 G90
G21
(Begin operation: G54)
(Path: G54)
G54
G0 Z5.000
(Finish operation: G54)
(Begin operation: surfacing-25mm003)
(Path: surfacing-25mm003)
(surfacing-25mm003)
(Begin toolchange)
( M6 T2 )
M3 S10000
(Finish operation: surfacing-25mm003)
(Begin operation: MillFace)
(Path: MillFace)
(MillFace)
G0 Z5.000
G0 X278.100 Y163.743
G0 Z3.000
G1 X278.100 Y163.743 Z-0.200 F250.000
G1 X1.900 Y163.743 Z-0.200 F300.000
G0 Z5.000
G0 Y156.243 Z5.000
G0 Y156.243 Z3.000
G1 X1.900 Y156.243 Z-0.200 F250.000
G1 X278.100 Y156.243 Z-0.200 F300.000
G0 Z5.000
G0 Y148.743 Z5.000
G0 Y148.743 Z3.000
G1 X278.100 Y148.743 Z-0.200 F250.000
G1 X1.900 Y148.743 Z-0.200 F300.000
G0 Z5.000
G0 Y141.243 Z5.000
G0 Y141.243 Z3.000
G1 X1.900 Y141.243 Z-0.200 F250.000
G1 X278.100 Y141.243 Z-0.200 F300.000
G0 Z5.000
G0 Y133.743 Z5.000
G0 Y133.743 Z3.000
G1 X278.100 Y133.743 Z-0.200 F250.000
G1 X1.900 Y133.743 Z-0.200 F300.000
G0 Z5.000
G0 Y126.243 Z5.000
G0 Y126.243 Z3.000
G1 X1.900 Y126.243 Z-0.200 F250.000
G1 X278.100 Y126.243 Z-0.200 F300.000
G0 Z5.000
G0 Y118.743 Z5.000
G0 Y118.743 Z3.000
G1 X278.100 Y118.743 Z-0.200 F250.000
G1 X1.900 Y118.743 Z-0.200 F300.000
G0 Z5.000
G0 Y111.243 Z5.000
G0 Y111.243 Z3.000
G1 X1.900 Y111.243 Z-0.200 F250.000
G1 X278.100 Y111.243 Z-0.200 F300.000
G0 Z5.000
G0 Y103.743 Z5.000
G0 Y103.743 Z3.000
G1 X278.100 Y103.743 Z-0.200 F250.000
G1 X1.900 Y103.743 Z-0.200 F300.000
G0 Z5.000
G0 Y96.243 Z5.000
G0 Y96.243 Z3.000
G1 X1.900 Y96.243 Z-0.200 F250.000
G1 X278.100 Y96.243 Z-0.200 F300.000
G0 Z5.000
G0 Y88.743 Z5.000
G0 Y88.743 Z3.000
G1 X278.100 Y88.743 Z-0.200 F250.000
G1 X1.900 Y88.743 Z-0.200 F300.000
G0 Z5.000
G0 Y81.243 Z5.000
G0 Y81.243 Z3.000
G1 X1.900 Y81.243 Z-0.200 F250.000
G1 X278.100 Y81.243 Z-0.200 F300.000
G0 Z5.000
G0 Y73.743 Z5.000
G0 Y73.743 Z3.000
G1 X278.100 Y73.743 Z-0.200 F250.000
G1 X1.900 Y73.743 Z-0.200 F300.000
G0 Z5.000
G0 Y66.243 Z5.000
G0 Y66.243 Z3.000
G1 X1.900 Y66.243 Z-0.200 F250.000
G1 X278.100 Y66.243 Z-0.200 F300.000
G0 Z5.000
G0 Y58.743 Z5.000
G0 Y58.743 Z3.000
G1 X278.100 Y58.743 Z-0.200 F250.000
G1 X1.900 Y58.743 Z-0.200 F300.000
G0 Z5.000
G0 Y51.243 Z5.000
G0 Y51.243 Z3.000
G1 X1.900 Y51.243 Z-0.200 F250.000
G1 X278.100 Y51.243 Z-0.200 F300.000
G0 Z5.000
G0 Y43.743 Z5.000
G0 Y43.743 Z3.000
G1 X278.100 Y43.743 Z-0.200 F250.000
G1 X1.900 Y43.743 Z-0.200 F300.000
G0 Z5.000
G0 Y36.243 Z5.000
G0 Y36.243 Z3.000
G1 X1.900 Y36.243 Z-0.200 F250.000
G1 X278.100 Y36.243 Z-0.200 F300.000
G0 Z5.000
G0 Y28.743 Z5.000
G0 Y28.743 Z3.000
G1 X278.100 Y28.743 Z-0.200 F250.000
G1 X1.900 Y28.743 Z-0.200 F300.000
G0 Z5.000
G0 Y21.243 Z5.000
G0 Y21.243 Z3.000
G1 X1.900 Y21.243 Z-0.200 F250.000
G1 X278.100 Y21.243 Z-0.200 F300.000
G0 Z5.000
G0 Y13.743 Z5.000
G0 Y13.743 Z3.000
G1 X278.100 Y13.743 Z-0.200 F250.000
G1 X1.900 Y13.743 Z-0.200 F300.000
G0 Z5.000
G0 Y6.243 Z5.000
G0 Y6.243 Z3.000
G1 X1.900 Y6.243 Z-0.200 F250.000
G1 X278.100 Y6.243 Z-0.200 F300.000
G0 Z5.000
G0 Z5.000
(Finish operation: MillFace)
(Begin postamble)
M5
G17 G90
M2
