(Exported by FreeCAD)
(Post Processor: grbl_post)
(Output Time:2022-08-11 16:37:17.939754)
(Begin preamble)
G17 G90
G21
(Begin operation: G54)
(Path: G54)
G54
G0 Z8.000
(Finish operation: G54)
(Begin operation: endmill-3mm007)
(Path: endmill-3mm007)
(endmill-3mm007)
(Begin toolchange)
( M6 T1 )
M3 S100000
(Finish operation: endmill-3mm007)
(Begin operation: Profile)
(Path: Profile)
(Profile)
(Compensated Tool Path. Diameter: 3.0)
G0 Z8.000
G0 X0.000 Y0.000
G0 X-21.000
G0 X-21.000 Z6.000
G1 X-21.000 Y0.000 Z2.000 F15000.000
G1 X-21.000 Y-0.500 Z2.000 F30000.000
G1 X-24.000 Y-0.500 Z2.000 F30000.000
G1 X-24.000 Y109.941 Z2.000 F30000.000
G1 X-23.977 Y110.234 Z2.000 F30000.000
G2 X-21.000 Y109.941 Z2.000 I1.480 J-0.237 K0.000 F30000.000
G1 X-21.000 Y0.000 Z2.000 F30000.000
G1 X-21.000 Y0.000 Z1.000 F15000.000
G1 X-21.000 Y-0.500 Z1.000 F30000.000
G1 X-24.000 Y-0.500 Z1.000 F30000.000
G1 X-24.000 Y109.941 Z1.000 F30000.000
G1 X-23.977 Y110.234 Z1.000 F30000.000
G2 X-21.000 Y109.941 Z1.000 I1.480 J-0.237 K0.000 F30000.000
G1 X-21.000 Y0.000 Z1.000 F30000.000
G1 X-21.000 Y0.000 Z0.000 F15000.000
G1 X-21.000 Y-0.500 Z0.000 F30000.000
G1 X-24.000 Y-0.500 Z0.000 F30000.000
G1 X-24.000 Y109.941 Z0.000 F30000.000
G1 X-23.977 Y110.234 Z0.000 F30000.000
G2 X-21.000 Y109.941 Z0.000 I1.480 J-0.237 K0.000 F30000.000
G1 X-21.000 Y0.000 Z0.000 F30000.000
G0 Z8.000
G0 Z8.000
G0 X-21.000
G0 X-60.000
G0 X-60.000 Z6.000
G1 X-60.000 Y0.000 Z2.000 F15000.000
G1 X-60.000 Y-0.500 Z2.000 F30000.000
G1 X-63.000 Y-0.500 Z2.000 F30000.000
G1 X-63.000 Y109.941 Z2.000 F30000.000
G1 X-62.977 Y110.234 Z2.000 F30000.000
G2 X-60.000 Y109.941 Z2.000 I1.480 J-0.237 K0.000 F30000.000
G1 X-60.000 Y0.000 Z2.000 F30000.000
G1 X-60.000 Y0.000 Z1.000 F15000.000
G1 X-60.000 Y-0.500 Z1.000 F30000.000
G1 X-63.000 Y-0.500 Z1.000 F30000.000
G1 X-63.000 Y109.941 Z1.000 F30000.000
G1 X-62.977 Y110.234 Z1.000 F30000.000
G2 X-60.000 Y109.941 Z1.000 I1.480 J-0.237 K0.000 F30000.000
G1 X-60.000 Y0.000 Z1.000 F30000.000
G1 X-60.000 Y0.000 Z0.000 F15000.000
G1 X-60.000 Y-0.500 Z0.000 F30000.000
G1 X-63.000 Y-0.500 Z0.000 F30000.000
G1 X-63.000 Y109.941 Z0.000 F30000.000
G1 X-62.977 Y110.234 Z0.000 F30000.000
G2 X-60.000 Y109.941 Z0.000 I1.480 J-0.237 K0.000 F30000.000
G1 X-60.000 Y0.000 Z0.000 F30000.000
G0 Z8.000
G0 Z8.000
G0 X-60.000
G0 X21.000
G0 X21.000 Z6.000
G1 X21.000 Y0.000 Z2.000 F15000.000
G1 X21.000 Y109.941 Z2.000 F30000.000
G1 X21.023 Y110.234 Z2.000 F30000.000
G2 X24.000 Y109.941 Z2.000 I1.480 J-0.237 K0.000 F30000.000
G1 X24.000 Y-0.500 Z2.000 F30000.000
G1 X21.000 Y-0.500 Z2.000 F30000.000
G1 X21.000 Y0.000 Z2.000 F30000.000
G1 X21.000 Y0.000 Z1.000 F15000.000
G1 X21.000 Y109.941 Z1.000 F30000.000
G1 X21.023 Y110.234 Z1.000 F30000.000
G2 X24.000 Y109.941 Z1.000 I1.480 J-0.237 K0.000 F30000.000
G1 X24.000 Y-0.500 Z1.000 F30000.000
G1 X21.000 Y-0.500 Z1.000 F30000.000
G1 X21.000 Y0.000 Z1.000 F30000.000
G1 X21.000 Y0.000 Z0.000 F15000.000
G1 X21.000 Y109.941 Z0.000 F30000.000
G1 X21.023 Y110.234 Z0.000 F30000.000
G2 X24.000 Y109.941 Z0.000 I1.480 J-0.237 K0.000 F30000.000
G1 X24.000 Y-0.500 Z0.000 F30000.000
G1 X21.000 Y-0.500 Z0.000 F30000.000
G1 X21.000 Y0.000 Z0.000 F30000.000
G0 Z8.000
G0 Z8.000
G0 X21.000
G0 X60.000
G0 X60.000 Z6.000
G1 X60.000 Y0.000 Z2.000 F15000.000
G1 X60.000 Y109.941 Z2.000 F30000.000
G1 X60.023 Y110.234 Z2.000 F30000.000
G2 X63.000 Y109.941 Z2.000 I1.480 J-0.237 K0.000 F30000.000
G1 X63.000 Y-0.500 Z2.000 F30000.000
G1 X60.000 Y-0.500 Z2.000 F30000.000
G1 X60.000 Y0.000 Z2.000 F30000.000
G1 X60.000 Y0.000 Z1.000 F15000.000
G1 X60.000 Y109.941 Z1.000 F30000.000
G1 X60.023 Y110.234 Z1.000 F30000.000
G2 X63.000 Y109.941 Z1.000 I1.480 J-0.237 K0.000 F30000.000
G1 X63.000 Y-0.500 Z1.000 F30000.000
G1 X60.000 Y-0.500 Z1.000 F30000.000
G1 X60.000 Y0.000 Z1.000 F30000.000
G1 X60.000 Y0.000 Z0.000 F15000.000
G1 X60.000 Y109.941 Z0.000 F30000.000
G1 X60.023 Y110.234 Z0.000 F30000.000
G2 X63.000 Y109.941 Z0.000 I1.480 J-0.237 K0.000 F30000.000
G1 X63.000 Y-0.500 Z0.000 F30000.000
G1 X60.000 Y-0.500 Z0.000 F30000.000
G1 X60.000 Y0.000 Z0.000 F30000.000
G0 Z8.000
G0 Z8.000
(Finish operation: Profile)
(Begin postamble)
M5
G17 G90
M2
