(Exported by FreeCAD)
(Post Processor: grbl_post)
(Output Time:2022-08-14 08:56:50.526768)
(Begin preamble)
G17 G90
G21
(Begin operation: G54)
(Path: G54)
G54
G0 Z5.000
(Finish operation: G54)
(Begin operation: surfacing-25mm007)
(Path: surfacing-25mm007)
(surfacing-25mm007)
(Begin toolchange)
( M6 T1 )
M3 S10000
(Finish operation: surfacing-25mm007)
(Begin operation: MillFace)
(Path: MillFace)
(MillFace)
G0 Z5.000
G0 X0.100 Y-170.100
G0 Z3.000
G1 X0.100 Y-170.100 Z-0.200 F250.000
G1 X0.100 Y0.100 Z-0.200 F600.000
G1 X-12.400 Y0.100 Z-0.200 F600.000
G1 X-12.400 Y-170.100 Z-0.200 F600.000
G1 X-24.900 Y-170.100 Z-0.200 F600.000
G1 X-24.900 Y0.100 Z-0.200 F600.000
G1 X-37.400 Y0.100 Z-0.200 F600.000
G1 X-37.400 Y-170.100 Z-0.200 F600.000
G1 X-49.900 Y-170.100 Z-0.200 F600.000
G1 X-49.900 Y0.100 Z-0.200 F600.000
G1 X-62.400 Y0.100 Z-0.200 F600.000
G1 X-62.400 Y-170.100 Z-0.200 F600.000
G1 X-74.900 Y-170.100 Z-0.200 F600.000
G1 X-74.900 Y0.100 Z-0.200 F600.000
G1 X-87.400 Y0.100 Z-0.200 F600.000
G1 X-87.400 Y-170.100 Z-0.200 F600.000
G1 X-99.900 Y-170.100 Z-0.200 F600.000
G1 X-99.900 Y0.100 Z-0.200 F600.000
G1 X-112.400 Y0.100 Z-0.200 F600.000
G1 X-112.400 Y-170.100 Z-0.200 F600.000
G1 X-124.900 Y-170.100 Z-0.200 F600.000
G1 X-124.900 Y0.100 Z-0.200 F600.000
G1 X-137.400 Y0.100 Z-0.200 F600.000
G1 X-137.400 Y-170.100 Z-0.200 F600.000
G1 X-149.900 Y-170.100 Z-0.200 F600.000
G1 X-149.900 Y0.100 Z-0.200 F600.000
G1 X-162.400 Y0.100 Z-0.200 F600.000
G1 X-162.400 Y-170.100 Z-0.200 F600.000
G1 X-174.900 Y-170.100 Z-0.200 F600.000
G1 X-174.900 Y0.100 Z-0.200 F600.000
G1 X-187.400 Y0.100 Z-0.200 F600.000
G1 X-187.400 Y-170.100 Z-0.200 F600.000
G1 X-199.900 Y-170.100 Z-0.200 F600.000
G1 X-199.900 Y0.100 Z-0.200 F600.000
G1 X-212.400 Y0.100 Z-0.200 F600.000
G1 X-212.400 Y-170.100 Z-0.200 F600.000
G1 X-224.900 Y-170.100 Z-0.200 F600.000
G1 X-224.900 Y0.100 Z-0.200 F600.000
G1 X-237.400 Y0.100 Z-0.200 F600.000
G1 X-237.400 Y-170.100 Z-0.200 F600.000
G1 X-249.900 Y-170.100 Z-0.200 F600.000
G1 X-249.900 Y0.100 Z-0.200 F600.000
G1 X-262.400 Y0.100 Z-0.200 F600.000
G1 X-262.400 Y-170.100 Z-0.200 F600.000
G1 X-274.900 Y-170.100 Z-0.200 F600.000
G1 X-280.100 Y-170.100 Z-0.200 F600.000
G1 X-280.100 Y0.100 Z-0.200 F600.000
G1 X-274.900 Y0.100 Z-0.200 F600.000
G1 X-274.900 Y-170.100 Z-0.200 F600.000
G0 Z5.000
G0 Z5.000
(Finish operation: MillFace)
(Begin postamble)
M5
G17 G90
M2
