(Exported by FreeCAD)
(Post Processor: grbl_post)
(Output Time:2022-08-14 16:05:02.347024)
(Begin preamble)
G17 G90
G21
(Begin operation: G54)
(Path: G54)
G54
G0 Z5.000
(Finish operation: G54)
(Begin operation: ballend-025mm002)
(Path: ballend-025mm002)
(ballend-025mm002)
(Begin toolchange)
( M6 T2 )
M3 S10000
(Finish operation: ballend-025mm002)
(Begin operation: Pocket_Shape001)
(Path: Pocket_Shape001)
(Pocket_Shape001)
G0 Z5.000
G0 X26.730 Y-86.414
G0 Z3.000
G1 X26.730 Y-86.414 Z-0.100 F150.000
G3 X25.799 Y-86.663 Z-0.100 I-0.297 J-0.757 K0.000 F100.000
G3 X25.786 Y-90.714 Z-0.100 I120.757 J-2.402 K0.000 F100.000
G2 X25.591 Y-90.854 Z-0.100 I-0.204 J0.077 K0.000 F100.000
G2 X23.849 Y-91.122 Z-0.100 I-3.943 J19.867 K0.000 F100.000
G2 X23.630 Y-90.791 Z-0.100 I0.129 J0.323 K0.000 F100.000
G2 X23.694 Y-89.366 Z-0.100 I5.833 J0.451 K0.000 F100.000
G3 X23.658 Y-86.885 Z-0.100 I-33.388 J0.748 K0.000 F100.000
G3 X23.292 Y-86.761 Z-0.100 I-0.306 J-0.301 K0.000 F100.000
G3 X22.707 Y-87.036 Z-0.100 I-0.056 J-0.641 K0.000 F100.000
G3 X22.710 Y-87.935 Z-0.100 I369.282 J0.655 K0.000 F100.000
G3 X22.737 Y-91.421 Z-0.100 I80.557 J-1.123 K0.000 F100.000
G3 X23.487 Y-91.596 Z-0.100 I0.661 J1.138 K0.000 F100.000
G3 X24.969 Y-91.393 Z-0.100 I0.102 J4.772 K0.000 F100.000
G2 X25.603 Y-91.292 Z-0.100 I0.664 J-2.111 K0.000 F100.000
G2 X25.725 Y-91.368 Z-0.100 I-0.022 J-0.173 K0.000 F100.000
G2 X25.919 Y-92.490 Z-0.100 I-1.826 J-0.893 K0.000 F100.000
G2 X25.625 Y-94.148 Z-0.100 I-5.555 J0.129 K0.000 F100.000
G2 X25.158 Y-94.275 Z-0.100 I-0.482 J0.854 K0.000 F100.000
G2 X23.922 Y-94.429 Z-0.100 I-1.136 J4.068 K0.000 F100.000
G2 X23.579 Y-94.049 Z-0.100 I-0.038 J0.311 K0.000 F100.000
G3 X23.589 Y-93.395 Z-0.100 I-1.992 J0.359 K0.000 F100.000
G3 X23.136 Y-93.295 Z-0.100 I-0.305 J-0.307 K0.000 F100.000
G3 X22.797 Y-93.595 Z-0.100 I-0.006 J-0.334 K0.000 F100.000
G3 X22.783 Y-94.969 Z-0.100 I2.674 J-0.714 K0.000 F100.000
G3 X23.145 Y-94.999 Z-0.100 I0.219 J0.435 K0.000 F100.000
G1 X23.271 Y-94.989 Z-0.100 F100.000
G2 X24.933 Y-94.804 Z-0.100 I6.970 J-54.807 K0.000 F100.000
G3 X26.168 Y-94.494 Z-0.100 I-0.254 J3.633 K0.000 F100.000
G3 X26.687 Y-93.723 Z-0.100 I-0.353 J0.798 K0.000 F100.000
G3 X26.753 Y-91.138 Z-0.100 I-9.608 J1.538 K0.000 F100.000
G2 X26.730 Y-86.414 Z-0.100 I221.569 J3.410 K0.000 F100.000
G0 Z5.000
G0 X26.543 Y-86.557 Z5.000
G0 X26.543 Y-86.557 Z3.000
G1 X26.543 Y-86.557 Z-0.100 F150.000
G3 X25.984 Y-86.720 Z-0.100 I-0.110 J-0.665 K0.000 F100.000
G3 X25.974 Y-90.714 Z-0.100 I165.729 J-2.409 K0.000 F100.000
G2 X25.624 Y-91.039 Z-0.100 I-0.371 J0.048 K0.000 F100.000
G2 X23.856 Y-91.309 Z-0.100 I-3.934 J19.809 K0.000 F100.000
G2 X23.445 Y-90.821 Z-0.100 I0.077 J0.482 K0.000 F100.000
G2 X23.507 Y-89.356 Z-0.100 I5.928 J0.483 K0.000 F100.000
G3 X23.480 Y-86.983 Z-0.100 I-57.386 J0.542 K0.000 F100.000
G3 X22.895 Y-87.107 Z-0.100 I-0.196 J-0.521 K0.000 F100.000
G3 X22.896 Y-87.689 Z-0.100 I234.473 J0.345 K0.000 F100.000
G1 X22.896 Y-87.689 Z-0.100 F100.000
G3 X22.925 Y-91.327 Z-0.100 I80.968 J-1.190 K0.000 F100.000
G3 X24.301 Y-91.339 Z-0.100 I0.714 J2.969 K0.000 F100.000
G2 X25.523 Y-91.102 Z-0.100 I2.973 J-12.038 K0.000 F100.000
G2 X25.893 Y-91.285 Z-0.100 I0.042 J-0.382 K0.000 F100.000
G2 X26.094 Y-92.713 Z-0.100 I-2.195 J-1.036 K0.000 F100.000
G2 X25.783 Y-94.249 Z-0.100 I-5.173 J0.246 K0.000 F100.000
G2 X25.191 Y-94.459 Z-0.100 I-0.610 J0.777 K0.000 F100.000
G2 X23.886 Y-94.613 Z-0.100 I-1.142 J4.069 K0.000 F100.000
G2 X23.391 Y-94.043 Z-0.100 I-0.010 J0.491 K0.000 F100.000
G3 X23.403 Y-93.487 Z-0.100 I-3.428 J0.351 K0.000 F100.000
G3 X23.025 Y-93.529 Z-0.100 I-0.135 J-0.516 K0.000 F100.000
G3 X22.927 Y-93.948 Z-0.100 I0.858 J-0.423 K0.000 F100.000
G3 X22.938 Y-94.819 Z-0.100 I2.439 J-0.403 K0.000 F100.000
G3 X25.544 Y-94.502 Z-0.100 I-3.019 J35.599 K0.000 F100.000
G3 X26.391 Y-94.057 Z-0.100 I-0.097 J1.216 K0.000 F100.000
G3 X26.578 Y-91.420 Z-0.100 I-6.591 J1.791 K0.000 F100.000
G2 X26.543 Y-86.557 Z-0.100 I105.148 J3.178 K0.000 F100.000
G0 Z5.000
G0 X26.356 Y-86.744 Z5.000
G0 X26.356 Y-86.744 Z3.000
G1 X26.356 Y-86.744 Z-0.100 F150.000
G3 X26.169 Y-86.808 Z-0.100 I0.055 J-0.472 K0.000 F100.000
G3 X26.161 Y-90.714 Z-0.100 I206.634 J-2.347 K0.000 F100.000
G2 X25.973 Y-91.095 Z-0.100 I-0.380 J-0.050 K0.000 F100.000
G2 X26.274 Y-91.878 Z-0.100 I-1.046 J-0.851 K0.000 F100.000
G2 X26.033 Y-94.137 Z-0.100 I-6.938 J-0.401 K0.000 F100.000
G3 X26.258 Y-93.879 Z-0.100 I-0.116 J0.329 K0.000 F100.000
G3 X26.391 Y-91.429 Z-0.100 I-7.122 J1.613 K0.000 F100.000
G2 X26.356 Y-86.744 Z-0.100 I101.379 J3.085 K0.000 F100.000
G0 Z5.000
G0 X26.294 Y-86.828 Z5.000
G0 X26.294 Y-86.828 Z3.000
G1 X26.294 Y-86.828 Z-0.100 F150.000
G3 X26.229 Y-86.963 Z-0.100 I0.026 J-0.096 K0.000 F100.000
G3 X26.224 Y-90.714 Z-0.100 I295.094 J-2.267 K0.000 F100.000
G2 X26.060 Y-91.106 Z-0.100 I-0.399 J-0.063 K0.000 F100.000
G2 X26.336 Y-91.875 Z-0.100 I-1.123 J-0.839 K0.000 F100.000
G1 X26.359 Y-92.326 Z-0.100 F100.000
G2 X26.294 Y-86.828 Z-0.100 I93.092 J3.855 K0.000 F100.000
G0 Z5.000
G0 X23.298 Y-87.139 Z5.000
G0 X23.298 Y-87.139 Z3.000
G1 X23.298 Y-87.139 Z-0.100 F150.000
G3 X23.083 Y-87.193 Z-0.100 I-0.015 J-0.402 K0.000 F100.000
G3 X23.103 Y-91.184 Z-0.100 I707.713 J1.591 K0.000 F100.000
G3 X23.391 Y-91.217 Z-0.100 I0.285 J1.233 K0.000 F100.000
G2 X23.243 Y-90.206 Z-0.100 I1.695 J0.764 K0.000 F100.000
G3 X23.312 Y-87.960 Z-0.100 I-11.911 J1.492 K0.000 F100.000
G3 X23.298 Y-87.139 Z-0.100 I-36.045 J-0.202 K0.000 F100.000
G0 Z5.000
G0 X23.238 Y-87.211 Z5.000
G0 X23.238 Y-87.211 Z3.000
G1 X23.238 Y-87.211 Z-0.100 F150.000
G3 X23.145 Y-87.233 Z-0.100 I-0.007 J-0.172 K0.000 F100.000
G3 X23.171 Y-91.139 Z-0.100 I286.161 J-0.068 K0.000 F100.000
G3 X23.273 Y-91.131 Z-0.100 I0.048 J0.044 K0.000 F100.000
G1 X23.238 Y-91.026 Z-0.100 F100.000
G2 X23.257 Y-89.344 Z-0.100 I4.419 J0.792 K0.000 F100.000
G3 X23.238 Y-87.211 Z-0.100 I-84.132 J0.313 K0.000 F100.000
G0 Z5.000
G0 X26.249 Y-90.927 Z5.000
G0 X26.249 Y-90.927 Z3.000
G1 X26.249 Y-90.927 Z-0.100 F150.000
G2 X26.143 Y-91.111 Z-0.100 I-0.305 J0.054 K0.000 F100.000
G2 X26.260 Y-91.321 Z-0.100 I-0.347 J-0.331 K0.000 F100.000
G2 X26.249 Y-90.927 Z-0.100 I8.925 J0.456 K0.000 F100.000
G0 Z5.000
G0 X26.360 Y-92.366 Z5.000
G0 X26.360 Y-92.366 Z3.000
G1 X26.360 Y-92.366 Z-0.100 F150.000
G2 X26.140 Y-93.978 Z-0.100 I-7.913 J0.260 K0.000 F100.000
G3 X26.294 Y-93.447 Z-0.100 I-1.020 J0.585 K0.000 F100.000
G3 X26.360 Y-92.366 Z-0.100 I-5.706 J0.888 K0.000 F100.000
G0 Z5.000
G0 X23.216 Y-93.666 Z5.000
G0 X23.216 Y-93.666 Z3.000
G1 X23.216 Y-93.666 Z-0.100 F150.000
G3 X23.164 Y-93.673 Z-0.100 I-0.025 J-0.013 K0.000 F100.000
G3 X23.103 Y-94.625 Z-0.100 I2.570 J-0.643 K0.000 F100.000
G3 X23.396 Y-94.600 Z-0.100 I-0.266 J4.687 K0.000 F100.000
G2 X23.216 Y-93.666 Z-0.100 I0.933 J0.665 K0.000 F100.000
G0 Z5.000
G0 X23.151 Y-94.238 Z5.000
G0 X23.151 Y-94.238 Z3.000
G1 X23.151 Y-94.238 Z-0.100 F150.000
G3 X23.158 Y-94.559 Z-0.100 I1.159 J-0.135 K0.000 F100.000
G3 X23.271 Y-94.550 Z-0.100 I-0.179 J2.800 K0.000 F100.000
G2 X23.151 Y-94.238 Z-0.100 I0.448 J0.352 K0.000 F100.000
G1 X23.151 Y-94.238 Z-0.200 F150.000
G3 X23.158 Y-94.559 Z-0.200 I1.159 J-0.135 K0.000 F100.000
G3 X23.271 Y-94.550 Z-0.200 I-0.179 J2.800 K0.000 F100.000
G2 X23.151 Y-94.238 Z-0.200 I0.448 J0.352 K0.000 F100.000
G0 Z5.000
G0 X23.086 Y-94.237 Z5.000
G0 X23.086 Y-94.237 Z3.000
G1 X23.086 Y-94.237 Z-0.200 F150.000
G3 X23.103 Y-94.625 Z-0.200 I2.648 J-0.079 K0.000 F100.000
G3 X23.396 Y-94.600 Z-0.200 I-0.266 J4.687 K0.000 F100.000
G2 X23.216 Y-93.666 Z-0.200 I0.933 J0.665 K0.000 F100.000
G3 X23.164 Y-93.673 Z-0.200 I-0.025 J-0.013 K0.000 F100.000
G3 X23.086 Y-94.237 Z-0.200 I2.570 J-0.643 K0.000 F100.000
G0 Z5.000
G0 X22.897 Y-94.227 Z5.000
G0 X22.897 Y-94.227 Z3.000
G1 X22.897 Y-94.227 Z-0.200 F150.000
G3 X22.938 Y-94.819 Z-0.200 I2.469 J-0.124 K0.000 F100.000
G3 X25.544 Y-94.502 Z-0.200 I-3.019 J35.599 K0.000 F100.000
G3 X26.391 Y-94.057 Z-0.200 I-0.097 J1.216 K0.000 F100.000
G3 X26.578 Y-91.420 Z-0.200 I-6.591 J1.791 K0.000 F100.000
G2 X26.543 Y-86.557 Z-0.200 I105.148 J3.178 K0.000 F100.000
G3 X25.984 Y-86.720 Z-0.200 I-0.110 J-0.665 K0.000 F100.000
G3 X25.974 Y-90.714 Z-0.200 I165.729 J-2.409 K0.000 F100.000
G2 X25.624 Y-91.039 Z-0.200 I-0.371 J0.048 K0.000 F100.000
G2 X23.856 Y-91.309 Z-0.200 I-3.934 J19.809 K0.000 F100.000
G2 X23.445 Y-90.821 Z-0.200 I0.077 J0.482 K0.000 F100.000
G2 X23.507 Y-89.356 Z-0.200 I5.928 J0.483 K0.000 F100.000
G3 X23.480 Y-86.983 Z-0.200 I-57.386 J0.542 K0.000 F100.000
G3 X22.895 Y-87.107 Z-0.200 I-0.196 J-0.521 K0.000 F100.000
G3 X22.896 Y-87.689 Z-0.200 I234.473 J0.345 K0.000 F100.000
G1 X22.896 Y-87.689 Z-0.200 F100.000
G3 X22.925 Y-91.327 Z-0.200 I80.968 J-1.190 K0.000 F100.000
G3 X24.301 Y-91.339 Z-0.200 I0.714 J2.969 K0.000 F100.000
G2 X25.523 Y-91.102 Z-0.200 I2.973 J-12.038 K0.000 F100.000
G2 X25.893 Y-91.285 Z-0.200 I0.042 J-0.382 K0.000 F100.000
G2 X26.094 Y-92.713 Z-0.200 I-2.195 J-1.036 K0.000 F100.000
G2 X25.783 Y-94.249 Z-0.200 I-5.173 J0.246 K0.000 F100.000
G2 X25.191 Y-94.459 Z-0.200 I-0.610 J0.777 K0.000 F100.000
G2 X23.886 Y-94.613 Z-0.200 I-1.142 J4.069 K0.000 F100.000
G2 X23.391 Y-94.043 Z-0.200 I-0.010 J0.491 K0.000 F100.000
G3 X23.403 Y-93.487 Z-0.200 I-3.428 J0.351 K0.000 F100.000
G3 X23.025 Y-93.529 Z-0.200 I-0.135 J-0.516 K0.000 F100.000
G3 X22.927 Y-93.948 Z-0.200 I0.858 J-0.423 K0.000 F100.000
G3 X22.897 Y-94.227 Z-0.200 I2.439 J-0.403 K0.000 F100.000
G0 Z5.000
G0 X22.705 Y-94.221 Z5.000
G0 X22.705 Y-94.221 Z3.000
G1 X22.705 Y-94.221 Z-0.200 F150.000
G3 X22.783 Y-94.969 Z-0.200 I2.766 J-0.089 K0.000 F100.000
G3 X23.145 Y-94.999 Z-0.200 I0.219 J0.435 K0.000 F100.000
G1 X23.271 Y-94.989 Z-0.200 F100.000
G2 X24.933 Y-94.804 Z-0.200 I6.970 J-54.807 K0.000 F100.000
G3 X26.168 Y-94.494 Z-0.200 I-0.254 J3.633 K0.000 F100.000
G3 X26.687 Y-93.723 Z-0.200 I-0.353 J0.798 K0.000 F100.000
G3 X26.753 Y-91.138 Z-0.200 I-9.608 J1.538 K0.000 F100.000
G2 X26.730 Y-86.414 Z-0.200 I221.569 J3.410 K0.000 F100.000
G3 X25.799 Y-86.663 Z-0.200 I-0.297 J-0.757 K0.000 F100.000
G3 X25.786 Y-90.714 Z-0.200 I120.757 J-2.402 K0.000 F100.000
G2 X25.591 Y-90.854 Z-0.200 I-0.204 J0.077 K0.000 F100.000
G2 X23.849 Y-91.122 Z-0.200 I-3.943 J19.867 K0.000 F100.000
G2 X23.630 Y-90.791 Z-0.200 I0.129 J0.323 K0.000 F100.000
G2 X23.694 Y-89.366 Z-0.200 I5.833 J0.451 K0.000 F100.000
G3 X23.658 Y-86.885 Z-0.200 I-33.388 J0.748 K0.000 F100.000
G3 X23.292 Y-86.761 Z-0.200 I-0.306 J-0.301 K0.000 F100.000
G3 X22.707 Y-87.036 Z-0.200 I-0.056 J-0.641 K0.000 F100.000
G3 X22.710 Y-87.935 Z-0.200 I369.282 J0.655 K0.000 F100.000
G3 X22.737 Y-91.421 Z-0.200 I80.557 J-1.123 K0.000 F100.000
G3 X23.487 Y-91.596 Z-0.200 I0.661 J1.138 K0.000 F100.000
G3 X24.969 Y-91.393 Z-0.200 I0.102 J4.772 K0.000 F100.000
G2 X25.603 Y-91.292 Z-0.200 I0.664 J-2.111 K0.000 F100.000
G2 X25.725 Y-91.368 Z-0.200 I-0.022 J-0.173 K0.000 F100.000
G2 X25.919 Y-92.490 Z-0.200 I-1.826 J-0.893 K0.000 F100.000
G2 X25.625 Y-94.148 Z-0.200 I-5.555 J0.129 K0.000 F100.000
G2 X25.158 Y-94.275 Z-0.200 I-0.482 J0.854 K0.000 F100.000
G2 X23.922 Y-94.429 Z-0.200 I-1.136 J4.068 K0.000 F100.000
G2 X23.579 Y-94.049 Z-0.200 I-0.038 J0.311 K0.000 F100.000
G3 X23.589 Y-93.395 Z-0.200 I-1.992 J0.359 K0.000 F100.000
G3 X23.136 Y-93.295 Z-0.200 I-0.305 J-0.307 K0.000 F100.000
G3 X22.797 Y-93.595 Z-0.200 I-0.006 J-0.334 K0.000 F100.000
G3 X22.705 Y-94.221 Z-0.200 I2.674 J-0.714 K0.000 F100.000
G0 Z5.000
G0 X23.188 Y-91.201 Z5.000
G0 X23.188 Y-91.201 Z3.000
G1 X23.188 Y-91.201 Z-0.200 F150.000
G3 X23.391 Y-91.217 Z-0.200 I0.200 J1.249 K0.000 F100.000
G2 X23.243 Y-90.206 Z-0.200 I1.695 J0.764 K0.000 F100.000
G3 X23.312 Y-87.960 Z-0.200 I-11.911 J1.492 K0.000 F100.000
G3 X23.298 Y-87.139 Z-0.200 I-36.045 J-0.202 K0.000 F100.000
G3 X23.083 Y-87.193 Z-0.200 I-0.015 J-0.402 K0.000 F100.000
G3 X23.103 Y-91.184 Z-0.200 I707.713 J1.591 K0.000 F100.000
G3 X23.188 Y-91.201 Z-0.200 I0.285 J1.233 K0.000 F100.000
G0 Z5.000
G0 X23.201 Y-91.157 Z5.000
G0 X23.201 Y-91.157 Z3.000
G1 X23.201 Y-91.157 Z-0.200 F150.000
G3 X23.273 Y-91.131 Z-0.200 I0.018 J0.062 K0.000 F100.000
G1 X23.238 Y-91.026 Z-0.200 F100.000
G2 X23.257 Y-89.344 Z-0.200 I4.419 J0.792 K0.000 F100.000
G3 X23.238 Y-87.211 Z-0.200 I-84.132 J0.313 K0.000 F100.000
G3 X23.145 Y-87.233 Z-0.200 I-0.007 J-0.172 K0.000 F100.000
G3 X23.171 Y-91.139 Z-0.200 I286.161 J-0.068 K0.000 F100.000
G3 X23.201 Y-91.157 Z-0.200 I0.048 J0.044 K0.000 F100.000
G0 Z5.000
G0 X25.973 Y-91.095 Z5.000
G0 X25.973 Y-91.095 Z3.000
G1 X25.973 Y-91.095 Z-0.200 F150.000
G2 X26.274 Y-91.878 Z-0.200 I-1.046 J-0.851 K0.000 F100.000
G2 X26.033 Y-94.137 Z-0.200 I-6.938 J-0.401 K0.000 F100.000
G3 X26.258 Y-93.879 Z-0.200 I-0.116 J0.329 K0.000 F100.000
G3 X26.391 Y-91.429 Z-0.200 I-7.122 J1.613 K0.000 F100.000
G2 X26.356 Y-86.744 Z-0.200 I101.379 J3.085 K0.000 F100.000
G3 X26.169 Y-86.808 Z-0.200 I0.055 J-0.472 K0.000 F100.000
G3 X26.161 Y-90.714 Z-0.200 I206.634 J-2.347 K0.000 F100.000
G2 X25.973 Y-91.095 Z-0.200 I-0.380 J-0.050 K0.000 F100.000
G0 Z5.000
G0 X26.060 Y-91.106 Z5.000
G0 X26.060 Y-91.106 Z3.000
G1 X26.060 Y-91.106 Z-0.200 F150.000
G2 X26.336 Y-91.875 Z-0.200 I-1.123 J-0.839 K0.000 F100.000
G1 X26.359 Y-92.326 Z-0.200 F100.000
G2 X26.294 Y-86.828 Z-0.200 I93.092 J3.855 K0.000 F100.000
G3 X26.229 Y-86.963 Z-0.200 I0.026 J-0.096 K0.000 F100.000
G3 X26.224 Y-90.714 Z-0.200 I295.094 J-2.267 K0.000 F100.000
G2 X26.060 Y-91.106 Z-0.200 I-0.399 J-0.063 K0.000 F100.000
G0 Z5.000
G0 X26.143 Y-91.111 Z5.000
G0 X26.143 Y-91.111 Z3.000
G1 X26.143 Y-91.111 Z-0.200 F150.000
G2 X26.260 Y-91.321 Z-0.200 I-0.347 J-0.331 K0.000 F100.000
G2 X26.249 Y-90.927 Z-0.200 I8.925 J0.456 K0.000 F100.000
G2 X26.143 Y-91.111 Z-0.200 I-0.305 J0.054 K0.000 F100.000
G0 Z5.000
G0 X26.360 Y-92.366 Z5.000
G0 X26.360 Y-92.366 Z3.000
G1 X26.360 Y-92.366 Z-0.200 F150.000
G2 X26.140 Y-93.978 Z-0.200 I-7.913 J0.260 K0.000 F100.000
G3 X26.294 Y-93.447 Z-0.200 I-1.020 J0.585 K0.000 F100.000
G3 X26.360 Y-92.366 Z-0.200 I-5.706 J0.888 K0.000 F100.000
G0 Z5.000
G0 Z5.000
G0 X26.360 Y-92.366
G0 X28.301 Y-92.461
G0 X28.301 Y-92.461 Z3.000
G1 X28.301 Y-92.461 Z-0.100 F150.000
G2 X28.197 Y-93.857 Z-0.100 I-27.040 J1.314 K0.000 F100.000
G3 X28.237 Y-94.265 Z-0.100 I0.714 J-0.136 K0.000 F100.000
G3 X28.606 Y-94.297 Z-0.100 I0.231 J0.530 K0.000 F100.000
G3 X31.916 Y-93.841 Z-0.100 I-1.530 J23.374 K0.000 F100.000
G3 X32.462 Y-93.252 Z-0.100 I-0.082 J0.623 K0.000 F100.000
G3 X32.570 Y-91.835 Z-0.100 I-4.793 J1.081 K0.000 F100.000
G1 X32.528 Y-91.041 Z-0.100 F100.000
G2 X32.483 Y-89.725 Z-0.100 I26.040 J1.544 K0.000 F100.000
G3 X31.777 Y-89.503 Z-0.100 I-0.582 J-0.620 K0.000 F100.000
G3 X30.678 Y-89.650 Z-0.100 I0.029 J-4.401 K0.000 F100.000
G3 X30.502 Y-90.040 Z-0.100 I0.247 J-0.346 K0.000 F100.000
G3 X31.005 Y-90.143 Z-0.100 I0.380 J0.570 K0.000 F100.000
G1 X31.193 Y-90.126 Z-0.100 F100.000
G1 X31.193 Y-90.126 Z-0.100 F100.000
G2 X31.594 Y-90.356 Z-0.100 I0.109 J-0.275 K0.000 F100.000
G2 X31.618 Y-92.208 Z-0.100 I-7.824 J-1.025 K0.000 F100.000
G2 X31.498 Y-93.520 Z-0.100 I-8.474 J0.110 K0.000 F100.000
G2 X31.035 Y-93.830 Z-0.100 I-0.536 J0.302 K0.000 F100.000
G2 X29.404 Y-94.017 Z-0.100 I-8.638 J67.892 K0.000 F100.000
G2 X29.260 Y-93.674 Z-0.100 I0.080 J0.235 K0.000 F100.000
G3 X29.404 Y-90.214 Z-0.100 I-26.207 J2.828 K0.000 F100.000
G2 X29.283 Y-86.747 Z-0.100 I76.956 J4.421 K0.000 F100.000
G2 X29.362 Y-86.358 Z-0.100 I0.513 J0.099 K0.000 F100.000
G2 X31.242 Y-86.076 Z-0.100 I1.916 J-6.361 K0.000 F100.000
G2 X31.353 Y-86.359 Z-0.100 I-0.157 J-0.226 K0.000 F100.000
G3 X31.292 Y-86.986 Z-0.100 I14.611 J-1.757 K0.000 F100.000
G3 X32.364 Y-86.881 Z-0.100 I0.322 J2.236 K0.000 F100.000
G3 X32.439 Y-85.819 Z-0.100 I-7.614 J1.071 K0.000 F100.000
G3 X32.364 Y-85.750 Z-0.100 I-0.132 J-0.071 K0.000 F100.000
G3 X29.746 Y-85.972 Z-0.100 I2.489 J-44.924 K0.000 F100.000
G3 X28.402 Y-86.206 Z-0.100 I0.126 J-4.712 K0.000 F100.000
G3 X28.252 Y-86.484 Z-0.100 I0.187 J-0.280 K0.000 F100.000
G3 X28.300 Y-89.812 Z-0.100 I24.233 J-1.312 K0.000 F100.000
G2 X28.301 Y-92.461 Z-0.100 I-27.039 J-1.335 K0.000 F100.000
G0 Z5.000
G0 X28.466 Y-92.473 Z5.000
G0 X28.466 Y-92.473 Z3.000
G1 X28.466 Y-92.473 Z-0.100 F150.000
G3 X28.385 Y-93.861 Z-0.100 I52.241 J-3.774 K0.000 F100.000
G3 X28.387 Y-94.117 Z-0.100 I2.466 J-0.103 K0.000 F100.000
G3 X29.151 Y-94.061 Z-0.100 I-0.167 J7.425 K0.000 F100.000
G2 X29.094 Y-93.413 Z-0.100 I0.837 J0.400 K0.000 F100.000
G3 X29.217 Y-90.217 Z-0.100 I-23.142 J2.492 K0.000 F100.000
G2 X29.096 Y-86.742 Z-0.100 I76.079 J4.386 K0.000 F100.000
G2 X29.253 Y-86.207 Z-0.100 I0.637 J0.103 K0.000 F100.000
G3 X28.480 Y-86.382 Z-0.100 I-0.059 J-1.534 K0.000 F100.000
G3 X28.398 Y-87.551 Z-0.100 I2.786 J-0.783 K0.000 F100.000
G2 X28.510 Y-91.912 Z-0.100 I-74.311 J-4.096 K0.000 F100.000
G3 X28.466 Y-92.473 Z-0.100 I52.197 J-4.334 K0.000 F100.000
G0 Z5.000
G0 X28.653 Y-92.486 Z5.000
G0 X28.653 Y-92.486 Z3.000
G1 X28.653 Y-92.486 Z-0.100 F150.000
G3 X28.572 Y-93.864 Z-0.100 I52.734 J-3.801 K0.000 F100.000
G1 X28.572 Y-93.923 Z-0.100 F100.000
G3 X28.886 Y-93.897 Z-0.100 I-0.337 J6.021 K0.000 F100.000
G3 X28.949 Y-88.026 Z-0.100 I-37.761 J3.341 K0.000 F100.000
G2 X28.926 Y-86.439 Z-0.100 I9.677 J0.932 K0.000 F100.000
G3 X28.635 Y-86.513 Z-0.100 I0.070 J-0.887 K0.000 F100.000
G3 X28.585 Y-87.549 Z-0.100 I3.726 J-0.700 K0.000 F100.000
G2 X28.697 Y-91.920 Z-0.100 I-74.245 J-4.092 K0.000 F100.000
G3 X28.653 Y-92.486 Z-0.100 I52.690 J-4.368 K0.000 F100.000
G0 Z5.000
G0 X28.799 Y-92.494 Z5.000
G0 X28.799 Y-92.494 Z3.000
G1 X28.799 Y-92.494 Z-0.100 F150.000
G2 X28.699 Y-93.787 Z-0.100 I-25.723 J1.340 K0.000 F100.000
G3 X28.761 Y-93.635 Z-0.100 I-0.024 J0.099 K0.000 F100.000
G3 X28.904 Y-90.222 Z-0.100 I-25.766 J2.789 K0.000 F100.000
G2 X28.784 Y-86.733 Z-0.100 I74.753 J4.334 K0.000 F100.000
G1 X28.788 Y-86.597 Z-0.100 F100.000
G1 X28.739 Y-86.607 Z-0.100 F100.000
G3 X28.825 Y-90.446 Z-0.100 I35.031 J-1.139 K0.000 F100.000
G2 X28.799 Y-92.494 Z-0.100 I-25.748 J-0.708 K0.000 F100.000
G0 Z5.000
G0 X28.737 Y-92.490 Z5.000
G0 X28.737 Y-92.490 Z3.000
G1 X28.737 Y-92.490 Z-0.100 F150.000
G2 X28.635 Y-93.855 Z-0.100 I-27.086 J1.348 K0.000 F100.000
G1 X28.816 Y-93.840 Z-0.100 F100.000
G3 X28.886 Y-88.029 Z-0.100 I-33.681 J3.311 K0.000 F100.000
G2 X28.854 Y-86.519 Z-0.100 I11.835 J1.004 K0.000 F100.000
G3 X28.686 Y-86.560 Z-0.100 I0.036 J-0.512 K0.000 F100.000
G3 X28.737 Y-89.792 Z-0.100 I23.754 J-1.241 K0.000 F100.000
G2 X28.737 Y-92.490 Z-0.100 I-27.086 J-1.350 K0.000 F100.000
G0 Z5.000
G0 X31.778 Y-92.708 Z5.000
G0 X31.778 Y-92.708 Z3.000
G1 X31.778 Y-92.708 Z-0.100 F150.000
G2 X31.705 Y-93.491 Z-0.100 I-17.944 J1.284 K0.000 F100.000
G2 X31.590 Y-93.722 Z-0.100 I-0.465 J0.088 K0.000 F100.000
G3 X32.183 Y-93.499 Z-0.100 I-0.054 J1.045 K0.000 F100.000
G3 X32.383 Y-91.841 Z-0.100 I-3.239 J1.231 K0.000 F100.000
G1 X32.341 Y-91.052 Z-0.100 F100.000
G2 X32.298 Y-89.827 Z-0.100 I25.066 J1.496 K0.000 F100.000
G3 X31.794 Y-89.690 Z-0.100 I-0.390 J-0.439 K0.000 F100.000
G3 X30.780 Y-89.813 Z-0.100 I0.465 J-8.083 K0.000 F100.000
G3 X30.696 Y-89.935 Z-0.100 I0.395 J-0.362 K0.000 F100.000
G3 X31.175 Y-89.939 Z-0.100 I0.252 J1.369 K0.000 F100.000
G1 X31.175 Y-89.939 Z-0.100 F100.000
G2 X31.733 Y-90.208 Z-0.100 I0.149 J-0.406 K0.000 F100.000
G2 X31.823 Y-91.611 Z-0.100 I-3.573 J-0.932 K0.000 F100.000
G2 X31.778 Y-92.708 Z-0.100 I-17.989 J0.187 K0.000 F100.000
G0 Z5.000
G0 X31.964 Y-92.721 Z5.000
G0 X31.964 Y-92.721 Z3.000
G1 X31.964 Y-92.721 Z-0.100 F150.000
G2 X31.901 Y-93.452 Z-0.100 I-23.783 J1.677 K0.000 F100.000
G3 X32.083 Y-93.221 Z-0.100 I-0.028 J0.209 K0.000 F100.000
G3 X32.196 Y-91.847 Z-0.100 I-4.062 J1.025 K0.000 F100.000
G1 X32.154 Y-91.062 Z-0.100 F100.000
G2 X32.112 Y-89.932 Z-0.100 I24.259 J1.457 K0.000 F100.000
G3 X31.732 Y-89.885 Z-0.100 I-0.231 J-0.313 K0.000 F100.000
G2 X32.023 Y-90.920 Z-0.100 I-1.239 J-0.906 K0.000 F100.000
G2 X31.964 Y-92.721 Z-0.100 I-23.842 J-0.124 K0.000 F100.000
G0 Z5.000
G0 X32.028 Y-92.725 Z5.000
G0 X32.028 Y-92.725 Z3.000
G1 X32.028 Y-92.725 Z-0.100 F150.000
G2 X31.982 Y-93.343 Z-0.100 I-28.156 J1.787 K0.000 F100.000
G3 X32.133 Y-91.849 Z-0.100 I-3.721 J1.131 K0.000 F100.000
G1 X32.091 Y-91.066 Z-0.100 F100.000
G1 X32.085 Y-90.953 Z-0.100 F100.000
G2 X32.028 Y-92.725 Z-0.100 I-28.213 J0.014 K0.000 F100.000
G0 Z5.000
G0 X32.064 Y-90.504 Z5.000
G0 X32.064 Y-90.504 Z3.000
G1 X32.064 Y-90.504 Z-0.100 F150.000
G3 X32.036 Y-89.958 Z-0.100 I-4.098 J0.059 K0.000 F100.000
G3 X31.855 Y-89.936 Z-0.100 I-0.115 J-0.195 K0.000 F100.000
G2 X32.064 Y-90.504 Z-0.100 I-0.839 J-0.632 K0.000 F100.000
G0 Z5.000
G0 X31.989 Y-90.028 Z5.000
G0 X31.989 Y-90.028 Z3.000
G1 X31.989 Y-90.028 Z-0.100 F150.000
G3 X31.971 Y-90.000 Z-0.100 I-0.014 J0.011 K0.000 F100.000
G1 X31.989 Y-90.028 Z-0.100 F100.000
G0 Z5.000
G0 X31.764 Y-86.818 Z5.000
G0 X31.764 Y-86.818 Z3.000
G1 X31.764 Y-86.818 Z-0.100 F150.000
G3 X32.196 Y-86.724 Z-0.100 I-0.109 J1.556 K0.000 F100.000
G3 X32.257 Y-85.940 Z-0.100 I-11.021 J1.241 K0.000 F100.000
G3 X31.432 Y-85.977 Z-0.100 I0.021 J-9.593 K0.000 F100.000
G2 X31.528 Y-86.460 Z-0.100 I-0.452 J-0.341 K0.000 F100.000
G3 X31.494 Y-86.813 Z-0.100 I18.260 J-1.931 K0.000 F100.000
G3 X31.764 Y-86.818 Z-0.100 I0.160 J1.552 K0.000 F100.000
G0 Z5.000
G0 X31.755 Y-86.624 Z5.000
G0 X31.755 Y-86.624 Z3.000
G1 X31.755 Y-86.624 Z-0.100 F150.000
G3 X32.022 Y-86.591 Z-0.100 I-0.074 J1.667 K0.000 F100.000
G3 X32.060 Y-86.131 Z-0.100 I-12.780 J1.283 K0.000 F100.000
G3 X31.715 Y-86.145 Z-0.100 I0.026 J-4.983 K0.000 F100.000
G2 X31.699 Y-86.626 Z-0.100 I-1.468 J-0.195 K0.000 F100.000
G3 X31.755 Y-86.624 Z-0.100 I-0.018 J1.668 K0.000 F100.000
G0 Z5.000
G0 X31.769 Y-86.558 Z5.000
G0 X31.769 Y-86.558 Z3.000
G1 X31.769 Y-86.558 Z-0.100 F150.000
G3 X31.964 Y-86.537 Z-0.100 I-0.008 J1.008 K0.000 F100.000
G3 X31.993 Y-86.196 Z-0.100 I-10.274 J1.023 K0.000 F100.000
G1 X31.788 Y-86.203 Z-0.100 F100.000
G2 X31.769 Y-86.558 Z-0.100 I-1.429 J-0.102 K0.000 F100.000
G0 Z5.000
G0 X31.840 Y-86.490 Z5.000
G0 X31.840 Y-86.490 Z3.000
G1 X31.840 Y-86.490 Z-0.100 F150.000
G3 X31.906 Y-86.484 Z-0.100 I0.001 J0.344 K0.000 F100.000
G3 X31.925 Y-86.261 Z-0.100 I-6.710 J0.689 K0.000 F100.000
G3 X31.857 Y-86.355 Z-0.100 I-0.030 J-0.050 K0.000 F100.000
G2 X31.840 Y-86.490 Z-0.100 I-2.231 J0.221 K0.000 F100.000
G1 X31.840 Y-86.490 Z-0.200 F150.000
G3 X31.906 Y-86.484 Z-0.200 I0.001 J0.344 K0.000 F100.000
G3 X31.925 Y-86.261 Z-0.200 I-6.710 J0.689 K0.000 F100.000
G3 X31.857 Y-86.355 Z-0.200 I-0.030 J-0.050 K0.000 F100.000
G2 X31.840 Y-86.490 Z-0.200 I-2.231 J0.221 K0.000 F100.000
G0 Z5.000
G0 X31.781 Y-86.483 Z5.000
G0 X31.781 Y-86.483 Z3.000
G1 X31.781 Y-86.483 Z-0.200 F150.000
G2 X31.769 Y-86.558 Z-0.200 I-1.422 J0.178 K0.000 F100.000
G3 X31.964 Y-86.537 Z-0.200 I-0.008 J1.008 K0.000 F100.000
G3 X31.993 Y-86.196 Z-0.200 I-10.274 J1.023 K0.000 F100.000
G1 X31.788 Y-86.203 Z-0.200 F100.000
G2 X31.781 Y-86.483 Z-0.200 I-1.429 J-0.102 K0.000 F100.000
G0 Z5.000
G0 X31.721 Y-86.477 Z5.000
G0 X31.721 Y-86.477 Z3.000
G1 X31.721 Y-86.477 Z-0.200 F150.000
G2 X31.699 Y-86.626 Z-0.200 I-1.474 J0.138 K0.000 F100.000
G3 X32.022 Y-86.591 Z-0.200 I-0.018 J1.668 K0.000 F100.000
G3 X32.060 Y-86.131 Z-0.200 I-12.780 J1.283 K0.000 F100.000
G3 X31.715 Y-86.145 Z-0.200 I0.026 J-4.983 K0.000 F100.000
G2 X31.721 Y-86.477 Z-0.200 I-1.468 J-0.195 K0.000 F100.000
G0 Z5.000
G0 X31.534 Y-86.437 Z5.000
G0 X31.534 Y-86.437 Z3.000
G1 X31.534 Y-86.437 Z-0.200 F150.000
G2 X31.528 Y-86.460 Z-0.200 I-0.554 J0.119 K0.000 F100.000
G3 X31.494 Y-86.813 Z-0.200 I18.260 J-1.931 K0.000 F100.000
G3 X32.196 Y-86.724 Z-0.200 I0.160 J1.552 K0.000 F100.000
G3 X32.257 Y-85.940 Z-0.200 I-11.021 J1.241 K0.000 F100.000
G3 X31.432 Y-85.977 Z-0.200 I0.021 J-9.593 K0.000 F100.000
G2 X31.534 Y-86.437 Z-0.200 I-0.452 J-0.341 K0.000 F100.000
G0 Z5.000
G0 X31.347 Y-86.416 Z5.000
G0 X31.347 Y-86.416 Z3.000
G1 X31.347 Y-86.416 Z-0.200 F150.000
G3 X31.292 Y-86.986 Z-0.200 I14.618 J-1.701 K0.000 F100.000
G3 X32.364 Y-86.881 Z-0.200 I0.322 J2.236 K0.000 F100.000
G3 X32.439 Y-85.819 Z-0.200 I-7.614 J1.071 K0.000 F100.000
G3 X32.364 Y-85.750 Z-0.200 I-0.132 J-0.071 K0.000 F100.000
G3 X29.746 Y-85.972 Z-0.200 I2.489 J-44.924 K0.000 F100.000
G3 X28.402 Y-86.206 Z-0.200 I0.126 J-4.712 K0.000 F100.000
G3 X28.252 Y-86.484 Z-0.200 I0.187 J-0.280 K0.000 F100.000
G3 X28.300 Y-89.812 Z-0.200 I24.233 J-1.312 K0.000 F100.000
G2 X28.197 Y-93.857 Z-0.200 I-27.039 J-1.335 K0.000 F100.000
G3 X28.237 Y-94.265 Z-0.200 I0.714 J-0.136 K0.000 F100.000
G3 X28.606 Y-94.297 Z-0.200 I0.231 J0.530 K0.000 F100.000
G3 X31.916 Y-93.841 Z-0.200 I-1.530 J23.374 K0.000 F100.000
G3 X32.462 Y-93.252 Z-0.200 I-0.082 J0.623 K0.000 F100.000
G3 X32.570 Y-91.835 Z-0.200 I-4.793 J1.081 K0.000 F100.000
G1 X32.528 Y-91.041 Z-0.200 F100.000
G2 X32.483 Y-89.725 Z-0.200 I26.040 J1.544 K0.000 F100.000
G3 X31.777 Y-89.503 Z-0.200 I-0.582 J-0.620 K0.000 F100.000
G3 X30.678 Y-89.650 Z-0.200 I0.029 J-4.401 K0.000 F100.000
G3 X30.502 Y-90.040 Z-0.200 I0.247 J-0.346 K0.000 F100.000
G3 X31.005 Y-90.143 Z-0.200 I0.380 J0.570 K0.000 F100.000
G1 X31.193 Y-90.126 Z-0.200 F100.000
G1 X31.193 Y-90.126 Z-0.200 F100.000
G2 X31.594 Y-90.356 Z-0.200 I0.109 J-0.275 K0.000 F100.000
G2 X31.618 Y-92.208 Z-0.200 I-7.824 J-1.025 K0.000 F100.000
G2 X31.498 Y-93.520 Z-0.200 I-8.474 J0.110 K0.000 F100.000
G2 X31.035 Y-93.830 Z-0.200 I-0.536 J0.302 K0.000 F100.000
G2 X29.404 Y-94.017 Z-0.200 I-8.638 J67.892 K0.000 F100.000
G2 X29.260 Y-93.674 Z-0.200 I0.080 J0.235 K0.000 F100.000
G3 X29.404 Y-90.214 Z-0.200 I-26.207 J2.828 K0.000 F100.000
G2 X29.283 Y-86.747 Z-0.200 I76.956 J4.421 K0.000 F100.000
G2 X29.362 Y-86.358 Z-0.200 I0.513 J0.099 K0.000 F100.000
G2 X31.242 Y-86.076 Z-0.200 I1.916 J-6.361 K0.000 F100.000
G2 X31.353 Y-86.359 Z-0.200 I-0.157 J-0.226 K0.000 F100.000
G3 X31.347 Y-86.416 Z-0.200 I14.611 J-1.757 K0.000 F100.000
G0 Z5.000
G0 X29.253 Y-86.207 Z5.000
G0 X29.253 Y-86.207 Z3.000
G1 X29.253 Y-86.207 Z-0.200 F150.000
G3 X28.480 Y-86.382 Z-0.200 I-0.059 J-1.534 K0.000 F100.000
G3 X28.398 Y-87.551 Z-0.200 I2.786 J-0.783 K0.000 F100.000
G2 X28.510 Y-91.912 Z-0.200 I-74.311 J-4.096 K0.000 F100.000
G3 X28.385 Y-93.861 Z-0.200 I52.197 J-4.334 K0.000 F100.000
G3 X28.387 Y-94.117 Z-0.200 I2.466 J-0.103 K0.000 F100.000
G3 X29.151 Y-94.061 Z-0.200 I-0.167 J7.425 K0.000 F100.000
G2 X29.094 Y-93.413 Z-0.200 I0.837 J0.400 K0.000 F100.000
G3 X29.217 Y-90.217 Z-0.200 I-23.142 J2.492 K0.000 F100.000
G2 X29.096 Y-86.742 Z-0.200 I76.079 J4.386 K0.000 F100.000
G2 X29.253 Y-86.207 Z-0.200 I0.637 J0.103 K0.000 F100.000
G0 Z5.000
G0 X28.926 Y-86.439 Z5.000
G0 X28.926 Y-86.439 Z3.000
G1 X28.926 Y-86.439 Z-0.200 F150.000
G3 X28.635 Y-86.513 Z-0.200 I0.070 J-0.887 K0.000 F100.000
G3 X28.585 Y-87.549 Z-0.200 I3.726 J-0.700 K0.000 F100.000
G2 X28.697 Y-91.920 Z-0.200 I-74.245 J-4.092 K0.000 F100.000
G3 X28.572 Y-93.864 Z-0.200 I52.690 J-4.368 K0.000 F100.000
G1 X28.572 Y-93.923 Z-0.200 F100.000
G3 X28.886 Y-93.897 Z-0.200 I-0.337 J6.021 K0.000 F100.000
G3 X28.949 Y-88.026 Z-0.200 I-37.761 J3.341 K0.000 F100.000
G2 X28.926 Y-86.439 Z-0.200 I9.677 J0.932 K0.000 F100.000
G0 Z5.000
G0 X28.854 Y-86.519 Z5.000
G0 X28.854 Y-86.519 Z3.000
G1 X28.854 Y-86.519 Z-0.200 F150.000
G3 X28.686 Y-86.560 Z-0.200 I0.036 J-0.512 K0.000 F100.000
G3 X28.737 Y-89.792 Z-0.200 I23.754 J-1.241 K0.000 F100.000
G2 X28.635 Y-93.855 Z-0.200 I-27.086 J-1.350 K0.000 F100.000
G1 X28.816 Y-93.840 Z-0.200 F100.000
G3 X28.886 Y-88.029 Z-0.200 I-33.681 J3.311 K0.000 F100.000
G2 X28.854 Y-86.519 Z-0.200 I11.835 J1.004 K0.000 F100.000
G0 Z5.000
G0 X28.788 Y-86.597 Z5.000
G0 X28.788 Y-86.597 Z3.000
G1 X28.788 Y-86.597 Z-0.200 F150.000
G1 X28.739 Y-86.607 Z-0.200 F100.000
G3 X28.825 Y-90.446 Z-0.200 I35.031 J-1.139 K0.000 F100.000
G2 X28.699 Y-93.787 Z-0.200 I-25.748 J-0.708 K0.000 F100.000
G3 X28.761 Y-93.635 Z-0.200 I-0.024 J0.099 K0.000 F100.000
G3 X28.904 Y-90.222 Z-0.200 I-25.766 J2.789 K0.000 F100.000
G2 X28.784 Y-86.733 Z-0.200 I74.753 J4.334 K0.000 F100.000
G1 X28.788 Y-86.597 Z-0.200 F100.000
G0 Z5.000
G0 X30.780 Y-89.813 Z5.000
G0 X30.780 Y-89.813 Z3.000
G1 X30.780 Y-89.813 Z-0.200 F150.000
G3 X30.696 Y-89.935 Z-0.200 I0.395 J-0.362 K0.000 F100.000
G3 X31.175 Y-89.939 Z-0.200 I0.252 J1.369 K0.000 F100.000
G1 X31.175 Y-89.939 Z-0.200 F100.000
G2 X31.733 Y-90.208 Z-0.200 I0.149 J-0.406 K0.000 F100.000
G2 X31.823 Y-91.611 Z-0.200 I-3.573 J-0.932 K0.000 F100.000
G2 X31.705 Y-93.491 Z-0.200 I-17.989 J0.187 K0.000 F100.000
G2 X31.590 Y-93.722 Z-0.200 I-0.465 J0.088 K0.000 F100.000
G3 X32.183 Y-93.499 Z-0.200 I-0.054 J1.045 K0.000 F100.000
G3 X32.383 Y-91.841 Z-0.200 I-3.239 J1.231 K0.000 F100.000
G1 X32.341 Y-91.052 Z-0.200 F100.000
G2 X32.298 Y-89.827 Z-0.200 I25.066 J1.496 K0.000 F100.000
G3 X31.794 Y-89.690 Z-0.200 I-0.390 J-0.439 K0.000 F100.000
G3 X30.780 Y-89.813 Z-0.200 I0.465 J-8.083 K0.000 F100.000
G0 Z5.000
G0 X31.732 Y-89.885 Z5.000
G0 X31.732 Y-89.885 Z3.000
G1 X31.732 Y-89.885 Z-0.200 F150.000
G2 X32.023 Y-90.920 Z-0.200 I-1.239 J-0.906 K0.000 F100.000
G2 X31.901 Y-93.452 Z-0.200 I-23.842 J-0.124 K0.000 F100.000
G3 X32.083 Y-93.221 Z-0.200 I-0.028 J0.209 K0.000 F100.000
G3 X32.196 Y-91.847 Z-0.200 I-4.062 J1.025 K0.000 F100.000
G1 X32.154 Y-91.062 Z-0.200 F100.000
G2 X32.112 Y-89.932 Z-0.200 I24.259 J1.457 K0.000 F100.000
G3 X31.732 Y-89.885 Z-0.200 I-0.231 J-0.313 K0.000 F100.000
G0 Z5.000
G0 X31.855 Y-89.936 Z5.000
G0 X31.855 Y-89.936 Z3.000
G1 X31.855 Y-89.936 Z-0.200 F150.000
G2 X32.064 Y-90.504 Z-0.200 I-0.839 J-0.632 K0.000 F100.000
G3 X32.036 Y-89.958 Z-0.200 I-4.098 J0.059 K0.000 F100.000
G3 X31.855 Y-89.936 Z-0.200 I-0.115 J-0.195 K0.000 F100.000
G0 Z5.000
G0 X31.971 Y-90.000 Z5.000
G0 X31.971 Y-90.000 Z3.000
G1 X31.971 Y-90.000 Z-0.200 F150.000
G1 X31.989 Y-90.028 Z-0.200 F100.000
G3 X31.971 Y-90.000 Z-0.200 I-0.014 J0.011 K0.000 F100.000
G0 Z5.000
G0 X32.085 Y-90.953 Z5.000
G0 X32.085 Y-90.953 Z3.000
G1 X32.085 Y-90.953 Z-0.200 F150.000
G2 X31.982 Y-93.343 Z-0.200 I-28.213 J0.014 K0.000 F100.000
G3 X32.133 Y-91.849 Z-0.200 I-3.721 J1.131 K0.000 F100.000
G1 X32.091 Y-91.066 Z-0.200 F100.000
G1 X32.085 Y-90.953 Z-0.200 F100.000
G0 Z5.000
G0 Z5.000
G0 X32.085 Y-90.953
G0 X33.946 Y-90.828
G0 X33.946 Y-90.828 Z3.000
G1 X33.946 Y-90.828 Z-0.100 F150.000
G2 X34.079 Y-93.614 Z-0.100 I-72.889 J-4.871 K0.000 F100.000
G3 X35.110 Y-93.476 Z-0.100 I0.077 J3.342 K0.000 F100.000
G2 X35.021 Y-86.667 Z-0.100 I421.794 J8.907 K0.000 F100.000
G2 X35.287 Y-86.738 Z-0.100 I0.120 J-0.082 K0.000 F100.000
G3 X37.155 Y-90.975 Z-0.100 I51.320 J20.097 K0.000 F100.000
G2 X38.070 Y-92.673 Z-0.100 I-24.874 J-14.507 K0.000 F100.000
G2 X38.208 Y-93.066 Z-0.100 I-4.358 J-1.746 K0.000 F100.000
G3 X38.273 Y-93.108 Z-0.100 I0.050 J0.007 K0.000 F100.000
G3 X39.139 Y-92.996 Z-0.100 I0.210 J1.781 K0.000 F100.000
G3 X39.207 Y-92.904 Z-0.100 I-0.027 J0.092 K0.000 F100.000
G3 X39.285 Y-91.173 Z-0.100 I-7.540 J1.203 K0.000 F100.000
G2 X39.191 Y-85.004 Z-0.100 I49.938 J3.845 K0.000 F100.000
G2 X39.205 Y-84.836 Z-0.100 I8.808 J-0.673 K0.000 F100.000
G3 X38.181 Y-84.981 Z-0.100 I0.086 J-4.305 K0.000 F100.000
G3 X38.196 Y-91.654 Z-0.100 I222.407 J-2.830 K0.000 F100.000
G2 X37.903 Y-91.613 Z-0.100 I-0.141 J0.058 K0.000 F100.000
G2 X35.387 Y-85.882 Z-0.100 I71.444 J34.786 K0.000 F100.000
G3 X35.103 Y-85.353 Z-0.100 I-2.573 J-1.044 K0.000 F100.000
G3 X34.018 Y-85.486 Z-0.100 I-0.261 J-2.360 K0.000 F100.000
G3 X33.888 Y-90.028 Z-0.100 I19.985 J-2.844 K0.000 F100.000
G2 X33.946 Y-90.828 Z-0.100 I-72.831 J-5.671 K0.000 F100.000
G0 Z5.000
G0 X34.133 Y-90.816 Z5.000
G0 X34.133 Y-90.816 Z3.000
G1 X34.133 Y-90.816 Z-0.100 F150.000
G2 X34.256 Y-93.426 Z-0.100 I-65.300 J-4.373 K0.000 F100.000
G3 X34.921 Y-93.340 Z-0.100 I-0.341 J5.232 K0.000 F100.000
G2 X34.825 Y-86.701 Z-0.100 I7999.472 J118.520 K0.000 F100.000
G2 X35.462 Y-86.670 Z-0.100 I0.320 J-0.015 K0.000 F100.000
G3 X37.348 Y-90.938 Z-0.100 I52.116 J20.493 K0.000 F100.000
G2 X35.169 Y-85.859 Z-0.100 I109.161 J49.846 K0.000 F100.000
G3 X34.999 Y-85.535 Z-0.100 I-2.902 J-1.318 K0.000 F100.000
G3 X34.184 Y-85.623 Z-0.100 I-0.081 J-3.087 K0.000 F100.000
G3 X34.075 Y-90.017 Z-0.100 I20.097 J-2.699 K0.000 F100.000
G2 X34.133 Y-90.816 Z-0.100 I-65.242 J-5.172 K0.000 F100.000
G0 Z5.000
G0 X34.320 Y-90.803 Z5.000
G0 X34.320 Y-90.803 Z3.000
G1 X34.320 Y-90.803 Z-0.100 F150.000
G2 X34.438 Y-93.222 Z-0.100 I-65.627 J-4.396 K0.000 F100.000
G3 X34.731 Y-93.184 Z-0.100 I-0.215 J2.798 K0.000 F100.000
G2 X34.720 Y-92.363 Z-0.100 I547.076 J7.832 K0.000 F100.000
G1 X34.720 Y-92.363 Z-0.100 F100.000
G2 X34.638 Y-86.693 Z-0.100 I595.334 J11.451 K0.000 F100.000
G2 X35.121 Y-86.210 Z-0.100 I0.500 J-0.017 K0.000 F100.000
G3 X34.888 Y-85.719 Z-0.100 I-5.156 J-2.140 K0.000 F100.000
G3 X34.350 Y-85.777 Z-0.100 I0.092 J-3.349 K0.000 F100.000
G3 X34.262 Y-90.005 Z-0.100 I21.491 J-2.561 K0.000 F100.000
G2 X34.320 Y-90.803 Z-0.100 I-65.568 J-5.193 K0.000 F100.000
G0 Z5.000
G0 X34.500 Y-90.791 Z5.000
G0 X34.500 Y-90.791 Z3.000
G1 X34.500 Y-90.791 Z-0.100 F150.000
G3 X34.514 Y-90.994 Z-0.100 I916.367 J59.172 K0.000 F100.000
G2 X34.451 Y-86.685 Z-0.100 I217.916 J5.340 K0.000 F100.000
G2 X34.863 Y-86.089 Z-0.100 I0.660 J-0.015 K0.000 F100.000
G3 X34.776 Y-85.912 Z-0.100 I-3.536 J-1.618 K0.000 F100.000
G3 X34.517 Y-85.940 Z-0.100 I0.182 J-2.867 K0.000 F100.000
G3 X34.449 Y-89.994 Z-0.100 I21.579 J-2.386 K0.000 F100.000
G3 X34.500 Y-90.791 Z-0.100 I916.418 J58.374 K0.000 F100.000
G0 Z5.000
G0 X37.862 Y-91.861 Z5.000
G0 X37.862 Y-91.861 Z3.000
G1 X37.862 Y-91.861 Z-0.100 F150.000
G2 X38.358 Y-92.920 Z-0.100 I-3.813 J-2.434 K0.000 F100.000
G3 X39.028 Y-92.839 Z-0.100 I0.137 J1.680 K0.000 F100.000
G3 X39.097 Y-91.178 Z-0.100 I-7.408 J1.140 K0.000 F100.000
G2 X39.000 Y-85.039 Z-0.100 I50.820 J3.873 K0.000 F100.000
G3 X38.360 Y-85.123 Z-0.100 I-0.144 J-1.382 K0.000 F100.000
G3 X38.382 Y-91.675 Z-0.100 I501.969 J-1.608 K0.000 F100.000
G2 X37.862 Y-91.861 Z-0.100 I-0.307 J0.038 K0.000 F100.000
G0 Z5.000
G0 X38.213 Y-92.109 Z5.000
G0 X38.213 Y-92.109 Z3.000
G1 X38.213 Y-92.109 Z-0.100 F150.000
G2 X38.489 Y-92.728 Z-0.100 I-2.931 J-1.680 K0.000 F100.000
G3 X38.862 Y-92.684 Z-0.100 I-0.000 J1.605 K0.000 F100.000
G3 X38.831 Y-89.601 Z-0.100 I-18.939 J1.353 K0.000 F100.000
G2 X38.798 Y-85.242 Z-0.100 I49.367 J2.555 K0.000 F100.000
G3 X38.545 Y-85.271 Z-0.100 I0.260 J-3.419 K0.000 F100.000
G3 X38.574 Y-91.642 Z-0.100 I407.678 J-1.381 K0.000 F100.000
G2 X38.213 Y-92.109 Z-0.100 I-0.494 J0.009 K0.000 F100.000
G0 Z5.000
G0 X38.461 Y-92.190 Z5.000
G0 X38.461 Y-92.190 Z3.000
G1 X38.461 Y-92.190 Z-0.100 F150.000
G2 X38.618 Y-92.532 Z-0.100 I-1.696 J-0.984 K0.000 F100.000
G3 X38.704 Y-92.419 Z-0.100 I0.030 J0.066 K0.000 F100.000
G3 X38.722 Y-91.831 Z-0.100 I-4.297 J0.427 K0.000 F100.000
G2 X38.461 Y-92.190 Z-0.100 I-0.500 J0.088 K0.000 F100.000
G0 Z5.000
G0 X38.540 Y-92.210 Z5.000
G0 X38.540 Y-92.210 Z3.000
G1 X38.540 Y-92.210 Z-0.100 F150.000
G1 X38.640 Y-92.423 Z-0.100 F100.000
G3 X38.659 Y-92.087 Z-0.100 I-2.392 J0.302 K0.000 F100.000
G2 X38.540 Y-92.210 Z-0.100 I-0.250 J0.122 K0.000 F100.000
G0 Z5.000
G0 X34.535 Y-86.266 Z5.000
G0 X34.535 Y-86.266 Z3.000
G1 X34.535 Y-86.266 Z-0.100 F150.000
G2 X34.776 Y-86.050 Z-0.100 I0.641 J-0.472 K0.000 F100.000
G1 X34.739 Y-85.978 Z-0.100 F100.000
G3 X34.572 Y-85.996 Z-0.100 I0.117 J-1.847 K0.000 F100.000
G1 X34.535 Y-86.266 Z-0.100 F100.000
G0 Z5.000
G0 X34.623 Y-86.087 Z5.000
G0 X34.623 Y-86.087 Z3.000
G1 X34.623 Y-86.087 Z-0.100 F150.000
G2 X34.674 Y-86.046 Z-0.100 I0.093 J-0.063 K0.000 F100.000
G3 X34.623 Y-86.087 Z-0.100 I-0.020 J-0.028 K0.000 F100.000
G1 X34.623 Y-86.087 Z-0.200 F150.000
G2 X34.674 Y-86.046 Z-0.200 I0.093 J-0.063 K0.000 F100.000
G3 X34.623 Y-86.087 Z-0.200 I-0.020 J-0.028 K0.000 F100.000
G0 Z5.000
G0 X34.660 Y-86.132 Z5.000
G0 X34.660 Y-86.132 Z3.000
G1 X34.660 Y-86.132 Z-0.200 F150.000
G2 X34.776 Y-86.050 Z-0.200 I0.516 J-0.607 K0.000 F100.000
G1 X34.739 Y-85.978 Z-0.200 F100.000
G3 X34.572 Y-85.996 Z-0.200 I0.117 J-1.847 K0.000 F100.000
G1 X34.535 Y-86.266 Z-0.200 F100.000
G2 X34.660 Y-86.132 Z-0.200 I0.641 J-0.472 K0.000 F100.000
G0 Z5.000
G0 X34.701 Y-86.183 Z5.000
G0 X34.701 Y-86.183 Z3.000
G1 X34.701 Y-86.183 Z-0.200 F150.000
G2 X34.863 Y-86.089 Z-0.200 I0.410 J-0.518 K0.000 F100.000
G3 X34.776 Y-85.912 Z-0.200 I-3.536 J-1.618 K0.000 F100.000
G3 X34.517 Y-85.940 Z-0.200 I0.182 J-2.867 K0.000 F100.000
G3 X34.449 Y-89.994 Z-0.200 I21.579 J-2.386 K0.000 F100.000
G3 X34.514 Y-90.994 Z-0.200 I916.418 J58.374 K0.000 F100.000
G2 X34.451 Y-86.685 Z-0.200 I217.916 J5.340 K0.000 F100.000
G2 X34.701 Y-86.183 Z-0.200 I0.660 J-0.015 K0.000 F100.000
G0 Z5.000
G0 X34.819 Y-86.325 Z5.000
G0 X34.819 Y-86.325 Z3.000
G1 X34.819 Y-86.325 Z-0.200 F150.000
G2 X35.121 Y-86.210 Z-0.200 I0.319 J-0.385 K0.000 F100.000
G3 X34.888 Y-85.719 Z-0.200 I-5.156 J-2.140 K0.000 F100.000
G3 X34.350 Y-85.777 Z-0.200 I0.092 J-3.349 K0.000 F100.000
G3 X34.262 Y-90.005 Z-0.200 I21.491 J-2.561 K0.000 F100.000
G2 X34.438 Y-93.222 Z-0.200 I-65.568 J-5.193 K0.000 F100.000
G3 X34.731 Y-93.184 Z-0.200 I-0.215 J2.798 K0.000 F100.000
G2 X34.720 Y-92.363 Z-0.200 I547.076 J7.832 K0.000 F100.000
G1 X34.720 Y-92.363 Z-0.200 F100.000
G2 X34.638 Y-86.693 Z-0.200 I595.334 J11.451 K0.000 F100.000
G2 X34.819 Y-86.325 Z-0.200 I0.500 J-0.017 K0.000 F100.000
G0 Z5.000
G0 X34.940 Y-86.470 Z5.000
G0 X34.940 Y-86.470 Z3.000
G1 X34.940 Y-86.470 Z-0.200 F150.000
G2 X35.462 Y-86.670 Z-0.200 I0.205 J-0.246 K0.000 F100.000
G3 X37.348 Y-90.938 Z-0.200 I52.116 J20.493 K0.000 F100.000
G2 X35.169 Y-85.859 Z-0.200 I109.161 J49.846 K0.000 F100.000
G3 X34.999 Y-85.535 Z-0.200 I-2.902 J-1.318 K0.000 F100.000
G3 X34.184 Y-85.623 Z-0.200 I-0.081 J-3.087 K0.000 F100.000
G3 X34.075 Y-90.017 Z-0.200 I20.097 J-2.699 K0.000 F100.000
G2 X34.256 Y-93.426 Z-0.200 I-65.242 J-5.172 K0.000 F100.000
G3 X34.921 Y-93.340 Z-0.200 I-0.341 J5.232 K0.000 F100.000
G2 X34.825 Y-86.701 Z-0.200 I7999.472 J118.520 K0.000 F100.000
G2 X34.940 Y-86.470 Z-0.200 I0.320 J-0.015 K0.000 F100.000
G0 Z5.000
G0 X35.056 Y-86.631 Z5.000
G0 X35.056 Y-86.631 Z3.000
G1 X35.056 Y-86.631 Z-0.200 F150.000
G2 X35.287 Y-86.738 Z-0.200 I0.085 J-0.118 K0.000 F100.000
G3 X37.155 Y-90.975 Z-0.200 I51.320 J20.097 K0.000 F100.000
G2 X38.070 Y-92.673 Z-0.200 I-24.874 J-14.507 K0.000 F100.000
G2 X38.208 Y-93.066 Z-0.200 I-4.358 J-1.746 K0.000 F100.000
G3 X38.273 Y-93.108 Z-0.200 I0.050 J0.007 K0.000 F100.000
G3 X39.139 Y-92.996 Z-0.200 I0.210 J1.781 K0.000 F100.000
G3 X39.207 Y-92.904 Z-0.200 I-0.027 J0.092 K0.000 F100.000
G3 X39.285 Y-91.173 Z-0.200 I-7.540 J1.203 K0.000 F100.000
G2 X39.191 Y-85.004 Z-0.200 I49.938 J3.845 K0.000 F100.000
G2 X39.205 Y-84.836 Z-0.200 I8.808 J-0.673 K0.000 F100.000
G3 X38.181 Y-84.981 Z-0.200 I0.086 J-4.305 K0.000 F100.000
G3 X38.196 Y-91.654 Z-0.200 I222.407 J-2.830 K0.000 F100.000
G2 X37.903 Y-91.613 Z-0.200 I-0.141 J0.058 K0.000 F100.000
G2 X35.387 Y-85.882 Z-0.200 I71.444 J34.786 K0.000 F100.000
G3 X35.103 Y-85.353 Z-0.200 I-2.573 J-1.044 K0.000 F100.000
G3 X34.018 Y-85.486 Z-0.200 I-0.261 J-2.360 K0.000 F100.000
G3 X33.888 Y-90.028 Z-0.200 I19.985 J-2.844 K0.000 F100.000
G2 X34.079 Y-93.614 Z-0.200 I-72.831 J-5.671 K0.000 F100.000
G3 X35.110 Y-93.476 Z-0.200 I0.077 J3.342 K0.000 F100.000
G2 X35.021 Y-86.667 Z-0.200 I421.794 J8.907 K0.000 F100.000
G2 X35.056 Y-86.631 Z-0.200 I0.120 J-0.082 K0.000 F100.000
G0 Z5.000
G0 X38.358 Y-86.632 Z5.000
G0 X38.358 Y-86.632 Z3.000
G1 X38.358 Y-86.632 Z-0.200 F150.000
G3 X38.382 Y-91.675 Z-0.200 I501.972 J-0.098 K0.000 F100.000
G2 X37.862 Y-91.861 Z-0.200 I-0.307 J0.038 K0.000 F100.000
G2 X38.358 Y-92.920 Z-0.200 I-3.813 J-2.434 K0.000 F100.000
G3 X39.028 Y-92.839 Z-0.200 I0.137 J1.680 K0.000 F100.000
G3 X39.097 Y-91.178 Z-0.200 I-7.408 J1.140 K0.000 F100.000
G2 X39.000 Y-85.039 Z-0.200 I50.820 J3.873 K0.000 F100.000
G3 X38.360 Y-85.123 Z-0.200 I-0.144 J-1.382 K0.000 F100.000
G3 X38.358 Y-86.632 Z-0.200 I501.969 J-1.608 K0.000 F100.000
G0 Z5.000
G0 X38.543 Y-86.632 Z5.000
G0 X38.543 Y-86.632 Z3.000
G1 X38.543 Y-86.632 Z-0.200 F150.000
G3 X38.574 Y-91.642 Z-0.200 I407.681 J-0.020 K0.000 F100.000
G2 X38.213 Y-92.109 Z-0.200 I-0.494 J0.009 K0.000 F100.000
G2 X38.489 Y-92.728 Z-0.200 I-2.931 J-1.680 K0.000 F100.000
G3 X38.862 Y-92.684 Z-0.200 I-0.000 J1.605 K0.000 F100.000
G3 X38.831 Y-89.601 Z-0.200 I-18.939 J1.353 K0.000 F100.000
G2 X38.798 Y-85.242 Z-0.200 I49.367 J2.555 K0.000 F100.000
G3 X38.545 Y-85.271 Z-0.200 I0.260 J-3.419 K0.000 F100.000
G3 X38.543 Y-86.632 Z-0.200 I407.678 J-1.381 K0.000 F100.000
G0 Z5.000
G0 X38.722 Y-91.831 Z5.000
G0 X38.722 Y-91.831 Z3.000
G1 X38.722 Y-91.831 Z-0.200 F150.000
G2 X38.461 Y-92.190 Z-0.200 I-0.500 J0.088 K0.000 F100.000
G2 X38.618 Y-92.532 Z-0.200 I-1.696 J-0.984 K0.000 F100.000
G3 X38.704 Y-92.419 Z-0.200 I0.030 J0.066 K0.000 F100.000
G3 X38.722 Y-91.831 Z-0.200 I-4.297 J0.427 K0.000 F100.000
G0 Z5.000
G0 X38.659 Y-92.087 Z5.000
G0 X38.659 Y-92.087 Z3.000
G1 X38.659 Y-92.087 Z-0.200 F150.000
G2 X38.540 Y-92.210 Z-0.200 I-0.250 J0.122 K0.000 F100.000
G1 X38.640 Y-92.423 Z-0.200 F100.000
G3 X38.659 Y-92.087 Z-0.200 I-2.392 J0.302 K0.000 F100.000
G0 Z5.000
G0 Z5.000
G0 X38.659 Y-92.087
G0 X39.994 Y-92.087
G0 X39.994 Y-92.087 Z3.000
G1 X39.994 Y-92.087 Z-0.100 F150.000
G1 X39.994 Y-93.160 Z-0.100 F100.000
G2 X39.225 Y-93.891 Z-0.100 I-0.983 J0.263 K0.000 F100.000
G3 X22.991 Y-95.768 Z-0.100 I278.366 J-2479.474 K0.000 F100.000
G2 X22.173 Y-95.378 Z-0.100 I-0.146 J0.746 K0.000 F100.000
G1 X22.138 Y-95.261 Z-0.100 F100.000
G3 X22.674 Y-95.761 Z-0.100 I0.585 J0.090 K0.000 F100.000
G1 X22.989 Y-95.770 Z-0.100 F100.000
G1 X39.108 Y-93.921 Z-0.100 F100.000
G3 X39.997 Y-93.251 Z-0.100 I0.015 J0.905 K0.000 F100.000
G1 X40.011 Y-93.097 Z-0.100 F100.000
G1 X39.998 Y-84.667 Z-0.100 F100.000
G1 X39.994 Y-84.648 Z-0.100 F100.000
G1 X39.997 Y-84.684 Z-0.100 F100.000
G1 X39.994 Y-92.087 Z-0.100 F100.000
G0 Z5.000
G0 X39.979 Y-84.565 Z5.000
G0 X39.979 Y-84.565 Z3.000
G1 X39.979 Y-84.565 Z-0.100 F150.000
G3 X39.518 Y-84.095 Z-0.100 I-0.564 J-0.092 K0.000 F100.000
G3 X39.138 Y-84.068 Z-0.100 I-0.263 J-1.016 K0.000 F100.000
G1 X23.013 Y-85.917 Z-0.100 F100.000
G3 X22.166 Y-86.416 Z-0.100 I-0.021 J-0.932 K0.000 F100.000
G3 X22.128 Y-86.675 Z-0.100 I0.724 J-0.240 K0.000 F100.000
G2 X22.980 Y-85.927 Z-0.100 I0.924 J-0.192 K0.000 F100.000
G1 X39.117 Y-84.071 Z-0.100 F100.000
G1 X39.196 Y-84.065 Z-0.100 F100.000
G1 X39.197 Y-84.075 Z-0.100 F100.000
G1 X39.218 Y-84.065 Z-0.100 F100.000
G2 X39.952 Y-84.469 Z-0.100 I0.075 J-0.733 K0.000 F100.000
G1 X39.979 Y-84.565 Z-0.100 F100.000
G0 Z5.000
G0 X22.127 Y-86.687 Z5.000
G0 X22.127 Y-86.687 Z3.000
G1 X22.127 Y-86.687 Z-0.100 F150.000
G1 X22.122 Y-86.739 Z-0.100 F100.000
G1 X22.122 Y-95.172 Z-0.100 F100.000
G1 X22.128 Y-95.206 Z-0.100 F100.000
G1 X22.124 Y-95.154 Z-0.100 F100.000
G1 X22.127 Y-86.687 Z-0.100 F100.000
G1 X22.127 Y-86.687 Z-0.200 F150.000
G1 X22.122 Y-86.739 Z-0.200 F100.000
G1 X22.122 Y-95.172 Z-0.200 F100.000
G1 X22.128 Y-95.206 Z-0.200 F100.000
G1 X22.124 Y-95.154 Z-0.200 F100.000
G1 X22.127 Y-86.687 Z-0.200 F100.000
G0 Z5.000
G0 X22.128 Y-86.675 Z5.000
G0 X22.128 Y-86.675 Z3.000
G1 X22.128 Y-86.675 Z-0.200 F150.000
G2 X22.980 Y-85.927 Z-0.200 I0.924 J-0.192 K0.000 F100.000
G1 X39.117 Y-84.071 Z-0.200 F100.000
G1 X39.196 Y-84.065 Z-0.200 F100.000
G1 X39.197 Y-84.075 Z-0.200 F100.000
G1 X39.218 Y-84.065 Z-0.200 F100.000
G2 X39.952 Y-84.469 Z-0.200 I0.075 J-0.733 K0.000 F100.000
G1 X39.979 Y-84.565 Z-0.200 F100.000
G3 X39.518 Y-84.095 Z-0.200 I-0.564 J-0.092 K0.000 F100.000
G3 X39.138 Y-84.068 Z-0.200 I-0.263 J-1.016 K0.000 F100.000
G1 X23.013 Y-85.917 Z-0.200 F100.000
G3 X22.166 Y-86.416 Z-0.200 I-0.021 J-0.932 K0.000 F100.000
G3 X22.128 Y-86.675 Z-0.200 I0.724 J-0.240 K0.000 F100.000
G0 Z5.000
G0 X22.138 Y-95.261 Z5.000
G0 X22.138 Y-95.261 Z3.000
G1 X22.138 Y-95.261 Z-0.200 F150.000
G3 X22.674 Y-95.761 Z-0.200 I0.585 J0.090 K0.000 F100.000
G1 X22.989 Y-95.770 Z-0.200 F100.000
G1 X39.108 Y-93.921 Z-0.200 F100.000
G3 X39.997 Y-93.251 Z-0.200 I0.015 J0.905 K0.000 F100.000
G1 X40.011 Y-93.097 Z-0.200 F100.000
G1 X39.998 Y-84.667 Z-0.200 F100.000
G1 X39.994 Y-84.648 Z-0.200 F100.000
G1 X39.997 Y-84.684 Z-0.200 F100.000
G1 X39.994 Y-93.160 Z-0.200 F100.000
G2 X39.225 Y-93.891 Z-0.200 I-0.983 J0.263 K0.000 F100.000
G3 X22.991 Y-95.768 Z-0.200 I278.366 J-2479.474 K0.000 F100.000
G2 X22.173 Y-95.378 Z-0.200 I-0.146 J0.746 K0.000 F100.000
G1 X22.138 Y-95.261 Z-0.200 F100.000
G0 Z5.000
G0 Z5.000
G0 X22.138 Y-95.261
G0 X21.603 Y-95.261
G0 X21.603 Y-95.261 Z3.000
G1 X21.603 Y-95.261 Z-0.100 F150.000
G1 X21.602 Y-95.563 Z-0.100 F100.000
G3 X22.523 Y-96.328 Z-0.100 I0.883 J0.127 K0.000 F100.000
G1 X39.722 Y-94.363 Z-0.100 F100.000
G3 X40.514 Y-93.626 Z-0.100 I-0.174 J0.980 K0.000 F100.000
G3 X40.521 Y-84.221 Z-0.100 I-17440.506 J18.507 K0.000 F100.000
G3 X39.512 Y-83.515 Z-0.100 I-0.853 J-0.144 K0.000 F100.000
G1 X22.398 Y-85.475 Z-0.100 F100.000
G3 X21.606 Y-86.187 Z-0.100 I0.113 J-0.923 K0.000 F100.000
G1 X21.603 Y-95.261 Z-0.100 F100.000
G0 Z5.000
G0 X21.359 Y-95.261 Z5.000
G0 X21.359 Y-95.261 Z3.000
G1 X21.359 Y-95.261 Z-0.100 F150.000
G1 X21.359 Y-95.749 Z-0.100 F100.000
G3 X22.291 Y-96.596 Z-0.100 I1.024 J0.191 K0.000 F100.000
G1 X22.405 Y-96.595 Z-0.100 F100.000
G1 X39.689 Y-94.617 Z-0.100 F100.000
G3 X40.746 Y-93.769 Z-0.100 I-0.013 J1.099 K0.000 F100.000
G3 X40.767 Y-92.962 Z-0.100 I-4.144 J0.509 K0.000 F100.000
G2 X40.892 Y-92.837 Z-0.100 I0.125 J-0.000 K0.000 F100.000
G1 X61.875 Y-92.837 Z-0.100 F100.000
G1 X61.875 Y-92.817 Z-0.100 F100.000
G1 X40.892 Y-92.817 Z-0.100 F100.000
G2 X40.767 Y-92.692 Z-0.100 I0.000 J0.125 K0.000 F100.000
G1 X40.767 Y-92.372 Z-0.100 F100.000
G2 X40.892 Y-92.247 Z-0.100 I0.125 J-0.000 K0.000 F100.000
G1 X61.875 Y-92.247 Z-0.100 F100.000
G1 X61.875 Y-91.997 Z-0.100 F100.000
G1 X40.892 Y-91.997 Z-0.100 F100.000
G2 X40.767 Y-91.872 Z-0.100 I0.000 J0.125 K0.000 F100.000
G1 X40.767 Y-91.374 Z-0.100 F100.000
G2 X40.892 Y-91.249 Z-0.100 I0.125 J-0.000 K0.000 F100.000
G1 X61.875 Y-91.249 Z-0.100 F100.000
G1 X61.875 Y-91.229 Z-0.100 F100.000
G1 X40.892 Y-91.229 Z-0.100 F100.000
G2 X40.767 Y-91.104 Z-0.100 I0.000 J0.125 K0.000 F100.000
G1 X40.767 Y-90.784 Z-0.100 F100.000
G2 X40.892 Y-90.659 Z-0.100 I0.125 J-0.000 K0.000 F100.000
G1 X61.875 Y-90.659 Z-0.100 F100.000
G1 X61.875 Y-90.409 Z-0.100 F100.000
G1 X40.892 Y-90.409 Z-0.100 F100.000
G2 X40.767 Y-90.284 Z-0.100 I0.000 J0.125 K0.000 F100.000
G1 X40.767 Y-89.787 Z-0.100 F100.000
G2 X40.892 Y-89.662 Z-0.100 I0.125 J-0.000 K0.000 F100.000
G1 X61.875 Y-89.662 Z-0.100 F100.000
G1 X61.875 Y-89.642 Z-0.100 F100.000
G1 X40.892 Y-89.642 Z-0.100 F100.000
G2 X40.767 Y-89.517 Z-0.100 I0.000 J0.125 K0.000 F100.000
G1 X40.767 Y-89.197 Z-0.100 F100.000
G2 X40.892 Y-89.072 Z-0.100 I0.125 J-0.000 K0.000 F100.000
G1 X61.875 Y-89.072 Z-0.100 F100.000
G1 X61.875 Y-88.822 Z-0.100 F100.000
G1 X40.892 Y-88.822 Z-0.100 F100.000
G2 X40.767 Y-88.697 Z-0.100 I0.000 J0.125 K0.000 F100.000
G1 X40.767 Y-88.199 Z-0.100 F100.000
G2 X40.892 Y-88.074 Z-0.100 I0.125 J-0.000 K0.000 F100.000
G1 X61.875 Y-88.074 Z-0.100 F100.000
G1 X61.875 Y-88.054 Z-0.100 F100.000
G1 X40.892 Y-88.054 Z-0.100 F100.000
G2 X40.767 Y-87.929 Z-0.100 I0.000 J0.125 K0.000 F100.000
G1 X40.767 Y-87.609 Z-0.100 F100.000
G2 X40.892 Y-87.484 Z-0.100 I0.125 J-0.000 K0.000 F100.000
G1 X61.875 Y-87.484 Z-0.100 F100.000
G1 X61.875 Y-87.234 Z-0.100 F100.000
G1 X40.892 Y-87.234 Z-0.100 F100.000
G2 X40.767 Y-87.109 Z-0.100 I0.000 J0.125 K0.000 F100.000
G1 X40.767 Y-84.027 Z-0.100 F100.000
G3 X40.153 Y-83.273 Z-0.100 I-0.775 J-0.005 K0.000 F100.000
G3 X39.720 Y-83.242 Z-0.100 I-0.301 J-1.144 K0.000 F100.000
G1 X22.431 Y-85.220 Z-0.100 F100.000
G3 X21.356 Y-86.277 Z-0.100 I0.011 J-1.086 K0.000 F100.000
G1 X21.356 Y-87.109 Z-0.100 F100.000
G2 X21.231 Y-87.234 Z-0.100 I-0.125 J0.000 K0.000 F100.000
G1 X0.125 Y-87.234 Z-0.100 F100.000
G1 X0.125 Y-87.484 Z-0.100 F100.000
G1 X21.231 Y-87.484 Z-0.100 F100.000
G2 X21.356 Y-87.609 Z-0.100 I-0.000 J-0.125 K0.000 F100.000
G1 X21.356 Y-87.929 Z-0.100 F100.000
G2 X21.231 Y-88.054 Z-0.100 I-0.125 J0.000 K0.000 F100.000
G1 X0.125 Y-88.054 Z-0.100 F100.000
G1 X0.125 Y-88.074 Z-0.100 F100.000
G1 X21.231 Y-88.074 Z-0.100 F100.000
G2 X21.356 Y-88.199 Z-0.100 I-0.000 J-0.125 K0.000 F100.000
G1 X21.356 Y-88.697 Z-0.100 F100.000
G2 X21.231 Y-88.822 Z-0.100 I-0.125 J0.000 K0.000 F100.000
G1 X0.125 Y-88.822 Z-0.100 F100.000
G1 X0.125 Y-89.072 Z-0.100 F100.000
G1 X21.231 Y-89.072 Z-0.100 F100.000
G2 X21.356 Y-89.197 Z-0.100 I-0.000 J-0.125 K0.000 F100.000
G1 X21.356 Y-89.517 Z-0.100 F100.000
G2 X21.231 Y-89.642 Z-0.100 I-0.125 J0.000 K0.000 F100.000
G1 X0.125 Y-89.642 Z-0.100 F100.000
G1 X0.125 Y-89.662 Z-0.100 F100.000
G1 X21.231 Y-89.662 Z-0.100 F100.000
G2 X21.356 Y-89.787 Z-0.100 I-0.000 J-0.125 K0.000 F100.000
G1 X21.356 Y-90.284 Z-0.100 F100.000
G2 X21.231 Y-90.409 Z-0.100 I-0.125 J0.000 K0.000 F100.000
G1 X0.125 Y-90.409 Z-0.100 F100.000
G1 X0.125 Y-90.659 Z-0.100 F100.000
G1 X21.231 Y-90.659 Z-0.100 F100.000
G2 X21.356 Y-90.784 Z-0.100 I-0.000 J-0.125 K0.000 F100.000
G1 X21.356 Y-91.104 Z-0.100 F100.000
G2 X21.231 Y-91.229 Z-0.100 I-0.125 J0.000 K0.000 F100.000
G1 X0.125 Y-91.229 Z-0.100 F100.000
G1 X0.125 Y-91.249 Z-0.100 F100.000
G1 X21.231 Y-91.249 Z-0.100 F100.000
G2 X21.356 Y-91.374 Z-0.100 I-0.000 J-0.125 K0.000 F100.000
G1 X21.356 Y-91.872 Z-0.100 F100.000
G2 X21.231 Y-91.997 Z-0.100 I-0.125 J0.000 K0.000 F100.000
G1 X0.125 Y-91.997 Z-0.100 F100.000
G1 X0.125 Y-92.247 Z-0.100 F100.000
G1 X21.231 Y-92.247 Z-0.100 F100.000
G2 X21.356 Y-92.372 Z-0.100 I-0.000 J-0.125 K0.000 F100.000
G1 X21.356 Y-92.692 Z-0.100 F100.000
G2 X21.231 Y-92.817 Z-0.100 I-0.125 J0.000 K0.000 F100.000
G1 X0.125 Y-92.817 Z-0.100 F100.000
G1 X0.125 Y-92.837 Z-0.100 F100.000
G1 X21.231 Y-92.837 Z-0.100 F100.000
G2 X21.356 Y-92.962 Z-0.100 I-0.000 J-0.125 K0.000 F100.000
G1 X21.359 Y-95.261 Z-0.100 F100.000
G0 Z5.000
G0 X21.418 Y-92.132 Z5.000
G0 X21.418 Y-92.132 Z3.000
G1 X21.418 Y-92.132 Z-0.100 F150.000
G1 X21.418 Y-92.118 Z-0.100 F100.000
G3 X21.418 Y-92.132 Z-0.100 I-0.000 J-0.007 K0.000 F100.000
G0 Z5.000
G0 X21.420 Y-90.546 Z5.000
G0 X21.420 Y-90.546 Z3.000
G1 X21.420 Y-90.546 Z-0.100 F150.000
G1 X21.420 Y-90.529 Z-0.100 F100.000
G3 X21.420 Y-90.546 Z-0.100 I-0.000 J-0.009 K0.000 F100.000
G0 Z5.000
G0 X21.421 Y-88.960 Z5.000
G0 X21.421 Y-88.960 Z3.000
G1 X21.421 Y-88.960 Z-0.100 F150.000
G1 X21.421 Y-88.939 Z-0.100 F100.000
G3 X21.411 Y-88.950 Z-0.100 I-0.000 J-0.010 K0.000 F100.000
G3 X21.421 Y-88.960 Z-0.100 I0.010 J-0.000 K0.000 F100.000
G0 Z5.000
G0 X21.423 Y-87.374 Z5.000
G0 X21.423 Y-87.374 Z3.000
G1 X21.423 Y-87.374 Z-0.100 F150.000
G1 X21.423 Y-87.350 Z-0.100 F100.000
G3 X21.423 Y-87.374 Z-0.100 I-0.000 J-0.012 K0.000 F100.000
G0 Z5.000
G0 X40.707 Y-87.360 Z5.000
G0 X40.707 Y-87.360 Z3.000
G1 X40.707 Y-87.360 Z-0.100 F150.000
G3 X40.707 Y-87.351 Z-0.100 I0.000 J0.004 K0.000 F100.000
G1 X40.707 Y-87.360 Z-0.100 F100.000
G0 Z5.000
G0 X40.706 Y-88.938 Z5.000
G0 X40.706 Y-88.938 Z3.000
G1 X40.706 Y-88.938 Z-0.100 F150.000
G1 X40.706 Y-88.948 Z-0.100 F100.000
G3 X40.706 Y-88.938 Z-0.100 I0.000 J0.005 K0.000 F100.000
G0 Z5.000
G0 X40.705 Y-90.525 Z5.000
G0 X40.705 Y-90.525 Z3.000
G1 X40.705 Y-90.525 Z-0.100 F150.000
G1 X40.705 Y-90.537 Z-0.100 F100.000
G3 X40.711 Y-90.531 Z-0.100 I0.000 J0.006 K0.000 F100.000
G3 X40.705 Y-90.525 Z-0.100 I-0.006 J0.000 K0.000 F100.000
G0 Z5.000
G0 X40.704 Y-92.111 Z5.000
G0 X40.704 Y-92.111 Z3.000
G1 X40.704 Y-92.111 Z-0.100 F150.000
G1 X40.704 Y-92.125 Z-0.100 F100.000
G3 X40.711 Y-92.118 Z-0.100 I0.000 J0.007 K0.000 F100.000
G3 X40.704 Y-92.111 Z-0.100 I-0.007 J0.000 K0.000 F100.000
G0 Z5.000
G0 Z5.000
(Finish operation: Pocket_Shape001)
(Begin postamble)
M5
G17 G90
M2
